<?xml version="1.0" encoding="UTF-8"?>
<map version="1.10" tiledversion="1.11.2" orientation="orthogonal" renderorder="right-down" width="30" height="20" tilewidth="16" tileheight="16" infinite="1" nextlayerid="9" nextobjectid="1">
 <tileset firstgid="1" source="2.tsx"/>
 <tileset firstgid="626" source="1.tsx"/>
 <tileset firstgid="6322" source="3.tsx"/>
 <tileset firstgid="8882" source="Computer Room Spritesheet 1 (1).tsx"/>
 <tileset firstgid="8922" source="pingpong.tsx"/>
 <tileset firstgid="8986" source="armario.tsx"/>
 <layer id="3" name="FUNDO" width="30" height="20">
  <data encoding="csv">
   <chunk x="-32" y="-48" width="16" height="16">
0,0,6650,6650,6650,6650,6650,6650,6650,6650,6650,6650,6650,6650,6650,6650,
0,0,6650,6650,6650,6650,6650,6650,6650,6650,6650,6650,6650,6650,6650,6650,
0,0,6650,6650,6650,6650,6650,6650,6650,6650,6650,6650,6650,6650,6650,6650,
0,0,6650,6650,6650,6650,6650,6650,6650,6650,6650,6650,6650,6650,6650,6650,
0,0,6650,6650,6650,6650,6650,6650,6650,6650,6650,6650,6650,6650,6650,6650,
0,0,6650,6650,6650,6650,6650,6650,6650,6650,6650,6650,6650,6650,6650,6650,
0,0,6650,6650,6650,6650,6650,6650,6650,6650,6650,6650,6650,6650,6650,6650,
0,0,6650,6650,6650,6650,6650,6650,6650,6650,6650,6650,6650,6650,6650,6650,
0,0,6650,6650,6650,6650,6650,6650,6650,6650,6650,6650,6650,6650,6650,6650,
0,0,6650,6650,6650,6650,6650,6650,6650,6650,6650,6650,6650,6650,6650,6650,
0,0,6650,6650,6650,6650,6650,6650,6650,6650,6650,6650,6650,6650,6650,6650,
0,0,6650,6650,6650,6650,6650,6650,6650,6650,6650,6650,6650,6650,6650,6650,
0,0,6650,6650,6650,6650,6650,6650,6650,6650,6650,6650,6650,6650,6650,6650,
0,0,6650,6650,6650,6650,6650,6650,6650,6650,6650,6650,6650,6650,6650,6650,
0,0,6650,6650,6650,6650,6650,6650,6650,6650,6650,6650,6650,6650,6650,6650,
0,0,6650,6650,6650,6650,6650,6650,6650,6650,6650,6650,6650,6650,6650,6650
</chunk>
   <chunk x="-16" y="-48" width="16" height="16">
6650,6650,6650,6650,6650,6650,6650,6650,6650,6650,6650,6650,6650,6650,6650,6650,
6650,6650,6650,6650,6650,6650,6650,6650,6650,6650,6650,6650,6650,6650,6650,6650,
6650,6650,6650,6650,6650,6650,6650,6650,6650,6650,6650,6650,6650,6650,6650,6650,
6650,6650,6650,6650,6650,6650,6650,6650,6650,6650,6650,6650,6650,6650,6650,6650,
6650,6650,6650,6650,6650,6650,6650,6650,6650,6650,6650,6650,6650,6650,6650,6650,
6650,6650,6650,6650,6650,6650,6650,6650,6650,6650,6650,6650,6650,6650,6650,6650,
6650,6650,6650,6650,6650,6650,6650,6650,6650,6650,6650,6650,6650,6650,6650,6650,
6650,6650,6650,6650,6650,6650,6650,6650,6650,6650,6650,6650,6650,6650,6650,6650,
6650,6650,6650,6650,6650,6650,6650,6650,6650,6650,6650,6650,6650,6650,6650,6650,
6650,6650,6650,6650,6650,6650,6650,6650,6650,6650,6650,6650,6650,6650,6650,6650,
6650,6650,6650,6650,6650,6650,6650,6650,6650,6650,6650,6650,6650,6650,6650,6650,
6650,6650,6650,6650,6650,6650,6650,6650,6650,6650,6650,6650,6650,6650,6650,6650,
6650,6650,6650,6650,6650,6650,6650,6650,6650,6650,6650,6650,6650,6650,6650,6650,
6650,6650,6650,6650,6650,6650,6650,6650,6650,6650,6650,6650,6650,6650,6650,6650,
6650,6650,6650,6650,6650,6650,6650,6650,6650,6650,6650,6650,6650,6650,6650,6650,
6650,6650,6650,6650,6650,6650,6650,6650,6650,6650,6650,6650,6650,6650,6650,6650
</chunk>
   <chunk x="0" y="-48" width="16" height="16">
6650,6650,6650,6650,6650,6650,6650,6650,6650,6650,6650,6650,6650,6650,6650,6650,
6650,6650,6650,6650,6650,6650,6650,6650,6650,6650,6650,6650,6650,6650,6650,6650,
6650,6650,6650,6650,6650,6650,6650,6650,6650,6650,6650,6650,6650,6650,6650,6650,
6650,6650,6650,6650,6650,6650,6650,6650,6650,6650,6650,6650,6650,6650,6650,6650,
6650,6650,6650,6650,6650,6650,6650,6650,6650,6650,6650,6650,6650,6650,6650,6650,
6650,6650,6650,6650,6650,6650,6650,6650,6650,6650,6650,6650,6650,6650,6650,6650,
6650,6650,6650,6650,6650,6650,6650,6650,6650,6650,6650,6650,6650,6650,6650,6650,
6650,6650,6650,6650,6650,6650,6650,6650,6650,6650,6650,6650,6650,6650,6650,6650,
6650,6650,6650,6650,6650,6650,6650,6650,6650,6650,6650,6650,6650,6650,6650,6650,
6650,6650,6650,6650,6650,6650,6650,6650,6650,6650,6650,6650,6650,6650,6650,6650,
6650,6650,6650,6650,6650,6650,6650,6650,6650,6650,6650,6650,6650,6650,6650,6650,
6650,6650,6650,6650,6650,6650,6650,6650,6650,6650,6650,6650,6650,6650,6650,6650,
6650,6650,6650,6650,6650,6650,6650,6650,6650,6650,6650,6650,6650,6650,6650,6650,
6650,6650,6650,6650,6650,6650,6650,6650,6650,6650,6650,6650,6650,6650,6650,6650,
6650,6650,6650,6650,6650,6650,6650,6650,6650,6650,6650,6650,6650,6650,6650,6650,
6650,6650,6650,6650,6650,6650,6650,6650,6650,6650,6650,6650,6650,6650,6650,6650
</chunk>
   <chunk x="16" y="-48" width="16" height="16">
6650,6650,6650,6650,6650,6650,6650,6650,6650,6650,6650,6650,6650,6650,6650,6650,
6650,6650,6650,6650,6650,6650,6650,6650,6650,6650,6650,6650,6650,6650,6650,6650,
6650,6650,6650,6650,6650,6650,6650,6650,6650,6650,6650,6650,6650,6650,6650,6650,
6650,6650,6650,6650,6650,6650,6650,6650,6650,6650,6650,6650,6650,6650,6650,6650,
6650,6650,6650,6650,6650,6650,6650,6650,6650,6650,6650,6650,6650,6650,6650,6650,
6650,6650,6650,6650,6650,6650,6650,6650,6650,6650,6650,6650,6650,6650,6650,6650,
6650,6650,6650,6650,6650,6650,6650,6650,6650,6650,6650,6650,6650,6650,6650,6650,
6650,6650,6650,6650,6650,6650,6650,6650,6650,6650,6650,6650,6650,6650,6650,6650,
6650,6650,6650,6650,6650,6650,6650,6650,6650,6650,6650,6650,6650,6650,6650,6650,
6650,6650,6650,6650,6650,6650,6650,6650,6650,6650,6650,6650,6650,6650,6650,6650,
6650,6650,6650,6650,6650,6650,6650,6650,6650,6650,6650,6650,6650,6650,6650,6650,
6650,6650,6650,6650,6650,6650,6650,6650,6650,6650,6650,6650,6650,6650,6650,6650,
6650,6650,6650,6650,6650,6650,6650,6650,6650,6650,6650,6650,6650,6650,6650,6650,
6650,6650,6650,6650,6650,6650,6650,6650,6650,6650,6650,6650,6650,6650,6650,6650,
6650,6650,6650,6650,6650,6650,6650,6650,6650,6650,6650,6650,6650,6650,6650,6650,
6650,6650,6650,6650,6650,6650,6650,6650,6650,6650,6650,6650,6650,6650,6650,6650
</chunk>
   <chunk x="32" y="-48" width="16" height="16">
6650,6650,6650,6650,6650,6650,6650,6650,6650,6650,6650,6650,6650,6650,6650,6650,
6650,6650,6650,6650,6650,6650,6650,6650,6650,6650,6650,6650,6650,6650,6650,6650,
6650,6650,6650,6650,6650,6650,6650,6650,6650,6650,6650,6650,6650,6650,6650,6650,
6650,6650,6650,6650,6650,6650,6650,6650,6650,6650,6650,6650,6650,6650,6650,6650,
6650,6650,6650,6650,6650,6650,6650,6650,6650,6650,6650,6650,6650,6650,6650,6650,
6650,6650,6650,6650,6650,6650,6650,6650,6650,6650,6650,6650,6650,6650,6650,6650,
6650,6650,6650,6650,6650,6650,6650,6650,6650,6650,6650,6650,6650,6650,6650,6650,
6650,6650,6650,6650,6650,6650,6650,6650,6650,6650,6650,6650,6650,6650,6650,6650,
6650,6650,6650,6650,6650,6650,6650,6650,6650,6650,6650,6650,6650,6650,6650,6650,
6650,6650,6650,6650,6650,6650,6650,6650,6650,6650,6650,6650,6650,6650,6650,6650,
6650,6650,6650,6650,6650,6650,6650,6650,6650,6650,6650,6650,6650,6650,6650,6650,
6650,6650,6650,6650,6650,6650,6650,6650,6650,6650,6650,6650,6650,6650,6650,6650,
6650,6650,6650,6650,6650,6650,6650,6650,6650,6650,6650,6650,6650,6650,6650,6650,
6650,6650,6650,6650,6650,6650,6650,6650,6650,6650,6650,6650,6650,6650,6650,6650,
6650,6650,6650,6650,6650,6650,6650,6650,6650,6650,6650,6650,6650,6650,6650,6650,
6650,6650,6650,6650,6650,6650,6650,6650,6650,6650,6650,6650,6650,6650,6650,6650
</chunk>
   <chunk x="48" y="-48" width="16" height="16">
6650,6650,6650,6650,6650,6650,6650,6650,6650,6650,6650,6650,6650,6650,6650,6650,
6650,6650,6650,6650,6650,6650,6650,6650,6650,6650,6650,6650,6650,6650,6650,6650,
6650,6650,6650,6650,6650,6650,6650,6650,6650,6650,6650,6650,6650,6650,6650,6650,
6650,6650,6650,6650,6650,6650,6650,6650,6650,6650,6650,6650,6650,6650,6650,6650,
6650,6650,6650,6650,6650,6650,6650,6650,6650,6650,6650,6650,6650,6650,6650,6650,
6650,6650,6650,6650,6650,6650,6650,6650,6650,6650,6650,6650,6650,6650,6650,6650,
6650,6650,6650,6650,6650,6650,6650,6650,6650,6650,6650,6650,6650,6650,6650,6650,
6650,6650,6650,6650,6650,6650,6650,6650,6650,6650,6650,6650,6650,6650,6650,6650,
6650,6650,6650,6650,6650,6650,6650,6650,6650,6650,6650,6650,6650,6650,6650,6650,
6650,6650,6650,6650,6650,6650,6650,6650,6650,6650,6650,6650,6650,6650,6650,6650,
6650,6650,6650,6650,6650,6650,6650,6650,6650,6650,6650,6650,6650,6650,6650,6650,
6650,6650,6650,6650,6650,6650,6650,6650,6650,6650,6650,6650,6650,6650,6650,6650,
6650,6650,6650,6650,6650,6650,6650,6650,6650,6650,6650,6650,6650,6650,6650,6650,
6650,6650,6650,6650,6650,6650,6650,6650,6650,6650,6650,6650,6650,6650,6650,6650,
6650,6650,6650,6650,6650,6650,6650,6650,6650,6650,6650,6650,6650,6650,6650,6650,
6650,6650,6650,6650,6650,6650,6650,6650,6650,6650,6650,6650,6650,6650,6650,6650
</chunk>
   <chunk x="64" y="-48" width="16" height="16">
6650,6650,6650,6650,6650,6650,6650,6650,6650,6650,6650,6650,6650,6650,6650,6650,
6650,6650,6650,6650,6650,6650,6650,6650,6650,6650,6650,6650,6650,6650,6650,6650,
6650,6650,6650,6650,6650,6650,6650,6650,6650,6650,6650,6650,6650,6650,6650,6650,
6650,6650,6650,6650,6650,6650,6650,6650,6650,6650,6650,6650,6650,6650,6650,6650,
6650,6650,6650,6650,6650,6650,6650,6650,6650,6650,6650,6650,6650,6650,6650,6650,
6650,6650,6650,6650,6650,6650,6650,6650,6650,6650,6650,6650,6650,6650,6650,6650,
6650,6650,6650,6650,6650,6650,6650,6650,6650,6650,6650,6650,6650,6650,6650,6650,
6650,6650,6650,6650,6650,6650,6650,6650,6650,6650,6650,6650,6650,6650,6650,6650,
6650,6650,6650,6650,6650,6650,6650,6650,6650,6650,6650,6650,6650,6650,6650,6650,
6650,6650,6650,6650,6650,6650,6650,6650,6650,6650,6650,6650,6650,6650,6650,6650,
6650,6650,6650,6650,6650,6650,6650,6650,6650,6650,6650,6650,6650,6650,6650,6650,
6650,6650,6650,6650,6650,6650,6650,6650,6650,6650,6650,6650,6650,6650,6650,6650,
6650,6650,6650,6650,6650,6650,6650,6650,6650,6650,6650,6650,6650,6650,6650,6650,
6650,6650,6650,6650,6650,6650,6650,6650,6650,6650,6650,6650,6650,6650,6650,6650,
6650,6650,6650,6650,6650,6650,6650,6650,6650,6650,6650,6650,6650,6650,6650,6650,
6650,6650,6650,6650,6650,6650,6650,6650,6650,6650,6650,6650,6650,6650,6650,6650
</chunk>
   <chunk x="80" y="-48" width="16" height="16">
6650,0,0,0,0,0,0,0,0,0,0,0,0,0,0,0,
6650,0,0,0,0,0,0,0,0,0,0,0,0,0,0,0,
6650,0,0,0,0,0,0,0,0,0,0,0,0,0,0,0,
6650,0,0,0,0,0,0,0,0,0,0,0,0,0,0,0,
6650,0,0,0,0,0,0,0,0,0,0,0,0,0,0,0,
6650,0,0,0,0,0,0,0,0,0,0,0,0,0,0,0,
6650,0,0,0,0,0,0,0,0,0,0,0,0,0,0,0,
6650,0,0,0,0,0,0,0,0,0,0,0,0,0,0,0,
6650,0,0,0,0,0,0,0,0,0,0,0,0,0,0,0,
6650,0,0,0,0,0,0,0,0,0,0,0,0,0,0,0,
6650,0,0,0,0,0,0,0,0,0,0,0,0,0,0,0,
6650,0,0,0,0,0,0,0,0,0,0,0,0,0,0,0,
6650,0,0,0,0,0,0,0,0,0,0,0,0,0,0,0,
6650,0,0,0,0,0,0,0,0,0,0,0,0,0,0,0,
6650,0,0,0,0,0,0,0,0,0,0,0,0,0,0,0,
6650,0,0,0,0,0,0,0,0,0,0,0,0,0,0,0
</chunk>
   <chunk x="-32" y="-32" width="16" height="16">
0,0,6650,6650,6650,6650,6650,6650,6650,6650,6650,6650,6650,6650,6650,6650,
0,0,6650,6650,6650,6650,6650,6650,6650,6650,6650,6650,6650,6650,6650,6650,
0,0,6650,6650,6650,6650,6650,6650,6650,6650,6650,6650,6650,6650,6650,6650,
0,0,6650,6650,6650,6650,6650,6650,6650,6650,6650,6650,6650,6650,6650,6650,
0,0,6650,6650,6650,6650,6650,6650,6650,6650,6650,6650,6650,6650,6650,6650,
0,0,6650,6650,6650,6650,6650,6650,6650,6650,6650,6650,6650,6650,6650,6650,
0,0,6650,6650,6650,6650,6650,6650,6650,6650,6650,6650,6650,6650,6650,6650,
0,0,6650,6650,6650,6650,6650,6650,6650,6650,6650,6650,6650,6650,6650,6650,
0,0,6650,6650,6650,6650,6650,6650,6650,6650,6650,6650,6650,6650,6650,6650,
0,0,6650,6650,6650,6650,6650,6650,6650,6650,6650,6650,6650,6650,6650,6650,
0,0,6650,6650,6650,6650,6650,6650,6650,6650,6650,6650,6650,6650,6650,6650,
0,0,6650,6650,6650,6650,6650,6650,6650,6650,6650,6650,6650,6650,6650,6650,
0,0,6650,6650,6650,6650,6650,6650,6650,6650,6650,6650,6650,6650,6650,6650,
0,0,6650,6650,6650,6650,6650,6650,6650,6650,6650,6650,6650,6650,6650,6650,
0,0,6650,6650,6650,6650,6650,6650,6650,6650,6650,6650,6650,6650,6650,6650,
0,0,6650,6650,6650,6650,6650,6650,6650,6650,6650,6650,6650,6650,6650,6650
</chunk>
   <chunk x="-16" y="-32" width="16" height="16">
6650,6650,6650,6650,6650,6650,6650,6650,6650,6650,6650,6650,6650,6650,6650,6650,
6650,6650,6650,6650,6650,6650,6650,6650,6650,6650,6650,6650,6650,6650,6650,6650,
6650,6650,6650,6650,6650,6650,6650,6650,6650,6650,6650,6650,6650,6650,6650,6650,
6650,6650,6650,6650,6650,6650,6650,6650,6650,6650,6650,6650,6650,6650,6650,6650,
6650,6650,6650,6650,6650,6650,6650,6650,6650,6650,6650,6650,6650,6650,6650,6650,
6650,6650,6650,6650,6650,6650,6650,6650,6650,6650,6650,6650,6650,6650,6650,6650,
6650,6650,6650,6650,6650,6650,6650,6650,6650,6650,6650,6650,6650,6650,6650,6650,
6650,6650,6650,6650,6650,6650,6650,6650,6650,6650,6650,6650,6650,6650,6650,6650,
6650,6650,6650,6650,6650,6650,6650,6650,6650,6650,6650,6650,6650,6650,6650,6650,
6650,6650,6650,6650,6650,6650,6650,6650,6650,6650,6650,6650,6650,6650,6650,6650,
6650,6650,6650,6650,6650,6650,6650,6650,6650,6650,6650,6650,6650,6650,6650,6650,
6650,6650,6650,6650,6650,6650,6650,6650,6650,6650,6650,6650,6650,6650,6650,6650,
6650,6650,6650,6650,6650,6650,6650,6650,6650,6650,6650,6650,6650,6650,6650,6650,
6650,6650,6650,6650,6650,6650,6650,6650,6650,6650,6650,6650,6650,6650,6650,6650,
6650,6650,6650,6650,6650,6650,6650,6650,6650,6650,6650,6650,6650,6650,6650,6650,
6650,6650,6650,6650,6650,6650,6650,6650,6650,6650,6650,6650,6650,6650,6650,6650
</chunk>
   <chunk x="0" y="-32" width="16" height="16">
6650,6650,6650,6650,6650,6650,6650,6650,6650,6650,6650,6650,6650,6650,6650,6650,
6650,6650,6650,6650,6650,6650,6650,6650,6650,6650,6650,6650,6650,6650,6650,6650,
6650,6650,6650,6650,6650,6650,6650,6650,6650,6650,6650,6650,6650,6650,6650,6650,
6650,6650,6650,6650,6650,6650,6650,6650,6650,6650,6650,6650,6650,6650,6650,6650,
6650,6650,6650,6650,6650,6650,6650,6650,6650,6650,6650,6650,6650,6650,6650,6650,
6650,6650,6650,6650,6650,6650,6650,6650,6650,6650,6650,6650,6650,6650,6650,6650,
6650,6650,6650,6650,6650,6650,6650,6650,6650,6650,6650,6650,6650,6650,6650,6650,
6650,6650,6650,6650,6650,6650,6650,6650,6650,6650,6650,6650,6650,6650,6650,6650,
6650,6650,6650,6650,6650,6650,6650,6650,6650,6650,6650,6650,6650,6650,6650,6650,
6650,6650,6650,6650,6650,6650,6650,6650,6650,6650,6650,6650,6650,6650,6650,6650,
6650,6650,6650,6650,6650,6650,6650,6650,6650,6650,6650,6650,6650,6650,6650,6650,
6650,6650,6650,6650,6650,6650,6650,6650,6650,6650,6650,6650,6650,6650,6650,6650,
6650,6650,6650,6650,6650,6650,6650,6650,6650,6650,6650,6650,6650,6650,6650,6650,
6650,6650,6650,6650,6650,6650,6650,6650,6650,6650,6650,6650,6650,6650,6650,6650,
6650,6650,6650,6650,6650,6650,6650,6650,6650,6650,6650,6650,6650,6650,6650,6650,
6650,6650,6650,6650,6650,6650,6650,6650,6650,6650,6650,6650,6650,6650,6650,6650
</chunk>
   <chunk x="16" y="-32" width="16" height="16">
6650,6650,6650,6650,6650,6650,6650,6650,6650,6650,6650,6650,6650,6650,6650,6650,
6650,6650,6650,6650,6650,6650,6650,6650,6650,6650,6650,6650,6650,6650,6650,6650,
6650,6650,6650,6650,6650,6650,6650,6650,6650,6650,6650,6650,6650,6650,6650,6650,
6650,6650,6650,6650,6650,6650,6650,6650,6650,6650,6650,6650,6650,6650,6650,6650,
6650,6650,6650,6650,6650,6650,6650,6650,6650,6650,6650,6650,6650,6650,6650,6650,
6650,6650,6650,6650,6650,6650,6650,6650,6650,6650,6650,6650,6650,6650,6650,6650,
6650,6650,6650,6650,6650,6650,6650,6650,6650,6650,6650,6650,6650,6650,6650,6650,
6650,6650,6650,6650,6650,6650,6650,6650,6650,6650,6650,6650,6650,6650,6650,6650,
6650,6650,6650,6650,6650,6650,6650,6650,6650,6650,6650,6650,6650,6650,6650,6650,
6650,6650,6650,6650,6650,6650,6650,6650,6650,6650,6650,6650,6650,6650,6650,6650,
6650,6650,6650,6650,6650,6650,6650,6650,6650,6650,6650,6650,6650,6650,6650,6650,
6650,6650,6650,6650,6650,6650,6650,6650,6650,6650,6650,6650,6650,6650,6650,6650,
6650,6650,6650,6650,6650,6650,6650,6650,6650,6650,6650,6650,6650,6650,6650,6650,
6650,6650,6650,6650,6650,6650,6650,6650,6650,6650,6650,6650,6650,6650,6650,6650,
6650,6650,6650,6650,6650,6650,6650,6650,6650,6650,6650,6650,6650,6650,6650,6650,
6650,6650,6650,6650,6650,6650,6650,6650,6650,6650,6650,6650,6650,6650,6650,6650
</chunk>
   <chunk x="32" y="-32" width="16" height="16">
6650,6650,6650,6650,6650,6650,6650,6650,6650,6650,6650,6650,6650,6650,6650,6650,
6650,6650,6650,6650,6650,6650,6650,6650,6650,6650,6650,6650,6650,6650,6650,6650,
6650,6650,6650,6650,6650,6650,6650,6650,6650,6650,6650,6650,6650,6650,6650,6650,
6650,6650,6650,6650,6650,6650,6650,6650,6650,6650,6650,6650,6650,6650,6650,6650,
6650,6650,6650,6650,6650,6650,6650,6650,6650,6650,6650,6650,6650,6650,6650,6650,
6650,6650,6650,6650,6650,6650,6650,6650,6650,6650,6650,6650,6650,6650,6650,6650,
6650,6650,6650,6650,6650,6650,6650,6650,6650,6650,6650,6650,6650,6650,6650,6650,
6650,6650,6650,6650,6650,6650,6650,6650,6650,6650,6650,6650,6650,6650,6650,6650,
6650,6650,6650,6650,6650,6650,6650,6650,6650,6650,6650,6650,6650,6650,6650,6650,
6650,6650,6650,6650,6650,6650,6650,6650,6650,6650,6650,6650,6650,6650,6650,6650,
6650,6650,6650,6650,6650,6650,6650,6650,6650,6650,6650,6650,6650,6650,6650,6650,
6650,6650,6650,6650,6650,6650,6650,6650,6650,6650,6650,6650,6650,6650,6650,6650,
6650,6650,6650,6650,6650,6650,6650,6650,6650,6650,6650,6650,6650,6650,6650,6650,
6650,6650,6650,6650,6650,6650,6650,6650,6650,6650,6650,6650,6650,6650,6650,6650,
6650,6650,6650,6650,6650,6650,6650,6650,6650,6650,6650,6650,6650,6650,6650,6650,
6650,6650,6650,6650,6650,6650,6650,6650,6650,6650,6650,6650,6650,6650,6650,6650
</chunk>
   <chunk x="48" y="-32" width="16" height="16">
6650,6650,6650,6650,6650,6650,6650,6650,6650,6650,6650,6650,6650,6650,6650,6650,
6650,6650,6650,6650,6650,6650,6650,6650,6650,6650,6650,6650,6650,6650,6650,6650,
6650,6650,6650,6650,6650,6650,6650,6650,6650,6650,6650,6650,6650,6650,6650,6650,
6650,6650,6650,6650,6650,6650,6650,6650,6650,6650,6650,6650,6650,6650,6650,6650,
6650,6650,6650,6650,6650,6650,6650,6650,6650,6650,6650,6650,6650,6650,6650,6650,
6650,6650,6650,6650,6650,6650,6650,6650,6650,6650,6650,6650,6650,6650,6650,6650,
6650,6650,6650,6650,6650,6650,6650,6650,6650,6650,6650,6650,6650,6650,6650,6650,
6650,6650,6650,6650,6650,6650,6650,6650,6650,6650,6650,6650,6650,6650,6650,6650,
6650,6650,6650,6650,6650,6650,6650,6650,6650,6650,6650,6650,6650,6650,6650,6650,
6650,6650,6650,6650,6650,6650,6650,6650,6650,6650,6650,6650,6650,6650,6650,6650,
6650,6650,6650,6650,6650,6650,6650,6650,6650,6650,6650,6650,6650,6650,6650,6650,
6650,6650,6650,6650,6650,6650,6650,6650,6650,6650,6650,6650,6650,6650,6650,6650,
6650,6650,6650,6650,6650,6650,6650,6650,6650,6650,6650,6650,6650,6650,6650,6650,
6650,6650,6650,6650,6650,6650,6650,6650,6650,6650,6650,6650,6650,6650,6650,6650,
6650,6650,6650,6650,6650,6650,6650,6650,6650,6650,6650,6650,6650,6650,6650,6650,
6650,6650,6650,6650,6650,6650,6650,6650,6650,6650,6650,6650,6650,6650,6650,6650
</chunk>
   <chunk x="64" y="-32" width="16" height="16">
6650,6650,6650,6650,6650,6650,6650,6650,6650,6650,6650,6650,6650,6650,6650,6650,
6650,6650,6650,6650,6650,6650,6650,6650,6650,6650,6650,6650,6650,6650,6650,6650,
6650,6650,6650,6650,6650,6650,6650,6650,6650,6650,6650,6650,6650,6650,6650,6650,
6650,6650,6650,6650,6650,6650,6650,6650,6650,6650,6650,6650,6650,6650,6650,6650,
6650,6650,6650,6650,6650,6650,6650,6650,6650,6650,6650,6650,6650,6650,6650,6650,
6650,6650,6650,6650,6650,6650,6650,6650,6650,6650,6650,6650,6650,6650,6650,6650,
6650,6650,6650,6650,6650,6650,6650,6650,6650,6650,6650,6650,6650,6650,6650,6650,
6650,6650,6650,6650,6650,6650,6650,6650,6650,6650,6650,6650,6650,6650,6650,6650,
6650,6650,6650,6650,6650,6650,6650,6650,6650,6650,6650,6650,6650,6650,6650,6650,
6650,6650,6650,6650,6650,6650,6650,6650,6650,6650,6650,6650,6650,6650,6650,6650,
6650,6650,6650,6650,6650,6650,6650,6650,6650,6650,6650,6650,6650,6650,6650,6650,
6650,6650,6650,6650,6650,6650,6650,6650,6650,6650,6650,6650,6650,6650,6650,6650,
6650,6650,6650,6650,6650,6650,6650,6650,6650,6650,6650,6650,6650,6650,6650,6650,
6650,6650,6650,6650,6650,6650,6650,6650,6650,6650,6650,6650,6650,6650,6650,6650,
6650,6650,6650,6650,6650,6650,6650,6650,6650,6650,6650,6650,6650,6650,6650,6650,
6650,6650,6650,6650,6650,6650,6650,6650,6650,6650,6650,6650,6650,6650,6650,6650
</chunk>
   <chunk x="80" y="-32" width="16" height="16">
6650,0,0,0,0,0,0,0,0,0,0,0,0,0,0,0,
6650,0,0,0,0,0,0,0,0,0,0,0,0,0,0,0,
6650,0,0,0,0,0,0,0,0,0,0,0,0,0,0,0,
6650,0,0,0,0,0,0,0,0,0,0,0,0,0,0,0,
6650,0,0,0,0,0,0,0,0,0,0,0,0,0,0,0,
6650,0,0,0,0,0,0,0,0,0,0,0,0,0,0,0,
6650,0,0,0,0,0,0,0,0,0,0,0,0,0,0,0,
6650,0,0,0,0,0,0,0,0,0,0,0,0,0,0,0,
6650,0,0,0,0,0,0,0,0,0,0,0,0,0,0,0,
6650,0,0,0,0,0,0,0,0,0,0,0,0,0,0,0,
6650,0,0,0,0,0,0,0,0,0,0,0,0,0,0,0,
6650,0,0,0,0,0,0,0,0,0,0,0,0,0,0,0,
6650,0,0,0,0,0,0,0,0,0,0,0,0,0,0,0,
6650,0,0,0,0,0,0,0,0,0,0,0,0,0,0,0,
6650,0,0,0,0,0,0,0,0,0,0,0,0,0,0,0,
6650,0,0,0,0,0,0,0,0,0,0,0,0,0,0,0
</chunk>
   <chunk x="-32" y="-16" width="16" height="16">
0,0,6650,6650,6650,6650,6650,6650,6650,6650,6650,6650,6650,6650,6650,6650,
0,0,6650,6650,6650,6650,6650,6650,6650,6650,6650,6650,6650,6650,6650,6650,
0,0,6650,6650,6650,6650,6650,6650,6650,6650,6650,6650,6650,6650,6650,6650,
0,0,6650,6650,6650,6650,6650,6650,6650,6650,6650,6650,6650,6650,6650,6650,
0,0,6650,6650,6650,6650,6650,6650,6650,6650,6650,6650,6650,6650,6650,6650,
0,0,6650,6650,6650,6650,6650,6650,6650,6650,6650,6650,6650,6650,6650,6650,
0,0,6650,6650,6650,6650,6650,6650,6650,6650,6650,6650,6650,6650,6650,6650,
0,0,6650,6650,6650,6650,6650,6650,6650,6650,6650,6650,6650,6650,6650,6650,
0,0,6650,6650,6650,6650,6650,6650,6650,6650,6650,6650,6650,6650,6650,6650,
0,0,6650,6650,6650,6650,6650,6650,6650,6650,6650,6650,6650,6650,6650,6650,
0,0,6650,6650,6650,6650,6650,6650,6650,6650,6650,6650,6650,6650,6650,6650,
0,0,6650,6650,6650,6650,6650,6650,6650,6650,6650,6650,6650,6650,6650,6650,
0,0,6650,6650,6650,6650,6650,6650,6650,6650,6650,6650,6650,6650,6650,6650,
0,0,6650,6650,6650,6650,6650,6650,6650,6650,6650,6650,6650,6650,6650,6650,
0,0,6650,6650,6650,6650,6650,6650,6650,6650,6650,6650,6650,6650,6650,6650,
0,0,6650,6650,6650,6650,6650,6650,6650,6650,6650,6650,6650,6650,6650,6650
</chunk>
   <chunk x="-16" y="-16" width="16" height="16">
6650,6650,6650,6650,6650,6650,6650,6650,6650,6650,6650,6650,6650,6650,6650,6650,
6650,6650,6650,6650,6650,6650,6650,6650,6650,6650,6650,6650,6650,6650,6650,6650,
6650,6650,6650,6650,6650,6650,6650,6650,6650,6650,6650,6650,6650,6650,6650,6650,
6650,6650,6650,6650,6650,6650,6650,6650,6650,6650,6650,6650,6650,6650,6650,6650,
6650,6650,6650,6650,6650,6650,6650,6650,6650,6650,6650,6650,6650,6650,6650,6650,
6650,6650,6650,6650,6650,6650,6650,6650,6650,6650,6650,6650,6650,6650,6650,6650,
6650,6650,6650,6650,6650,6650,6650,6650,6650,6650,6650,6650,6650,6650,6650,6650,
6650,6650,6650,6650,6650,6650,6650,6650,6650,6650,6650,6650,6650,6650,6650,6650,
6650,6650,6650,6650,6650,6650,6650,6650,6650,6650,6650,6650,6650,6650,6650,6650,
6650,6650,6650,6650,6650,6650,6650,6650,6650,6650,6650,6650,6650,6650,6650,6650,
6650,6650,6650,6650,6650,6650,6650,6650,6650,6650,6650,6650,6650,6650,6650,6650,
6650,6650,6650,6650,6650,6650,6650,6650,6650,6650,6650,6650,6650,6650,6650,6650,
6650,6650,6650,6650,6650,6650,6650,6650,6650,6650,6650,6650,6650,6650,6650,6650,
6650,6650,6650,6650,6650,6650,6650,6650,6650,6650,6650,6650,6650,6650,6650,6650,
6650,6650,6650,6650,6650,6650,6650,6650,6650,6650,6650,6650,6650,6650,6650,6650,
6650,6650,6650,6650,6650,6650,6650,6650,6650,6650,6650,6650,6650,6650,6650,6650
</chunk>
   <chunk x="0" y="-16" width="16" height="16">
6650,6650,6650,6650,6650,6650,6650,6650,6650,6650,6650,6650,6650,6650,6650,6650,
6650,6650,6650,6650,6650,6650,6650,6650,6650,6650,6650,6650,6650,6650,6650,6650,
6650,6650,6650,6650,6650,6650,6650,6650,6650,6650,6650,6650,6650,6650,6650,6650,
6650,6650,6650,6650,6650,6650,6650,6650,6650,6650,6650,6650,6650,6650,6650,6650,
6650,6650,6650,6650,6650,6650,6650,6650,6650,6650,6650,6650,6650,6650,6650,6650,
6650,6650,6650,6650,6650,6650,6650,6650,6650,6650,6650,6650,6650,6650,6650,6650,
6650,6650,6650,6650,6650,6650,6650,6650,6650,6650,6650,6650,6650,6650,6650,6650,
6650,6650,6650,6650,6650,6650,6650,6650,6650,6650,6650,6650,6650,6650,6650,6650,
6650,6650,6650,6650,6650,6650,6650,6650,6650,6650,6650,6650,6650,6650,6650,6650,
6650,6650,6650,6650,6650,6650,6650,6650,6650,6650,6650,6650,6650,6650,6650,6650,
6650,6650,6650,6650,6650,6650,6650,6650,6650,6650,6650,6650,6650,6650,6650,6650,
6650,6650,6650,6650,6650,6650,6650,6650,6650,6650,6650,6650,6650,6650,6650,6650,
6650,6650,6650,6650,6650,6650,6650,6650,6650,6650,6650,6650,6650,6650,6650,6650,
6650,6650,6650,6650,6650,6650,6650,6650,6650,6650,6650,6650,6650,6650,6650,6650,
6650,6650,6650,6650,6650,6650,6650,6650,6650,6650,6650,6650,6650,6650,6650,6650,
6650,6650,6650,6650,6650,6650,6650,6650,6650,6650,6650,6650,6650,6650,6650,6650
</chunk>
   <chunk x="16" y="-16" width="16" height="16">
6650,6650,6650,6650,6650,6650,6650,6650,6650,6650,6650,6650,6650,6650,6650,6650,
6650,6650,6650,6650,6650,6650,6650,6650,6650,6650,6650,6650,6650,6650,6650,6650,
6650,6650,6650,6650,6650,6650,6650,6650,6650,6650,6650,6650,6650,6650,6650,6650,
6650,6650,6650,6650,6650,6650,6650,6650,6650,6650,6650,6650,6650,6650,6650,6650,
6650,6650,6650,6650,6650,6650,6650,6650,6650,6650,6650,6650,6650,6650,6650,6650,
6650,6650,6650,6650,6650,6650,6650,6650,6650,6650,6650,6650,6650,6650,6650,6650,
6650,6650,6650,6650,6650,6650,6650,6650,6650,6650,6650,6650,6650,6650,6650,6650,
6650,6650,6650,6650,6650,6650,6650,6650,6650,6650,6650,6650,6650,6650,6650,6650,
6650,6650,6650,6650,6650,6650,6650,6650,6650,6650,6650,6650,6650,6650,6650,6650,
6650,6650,6650,6650,6650,6650,6650,6650,6650,6650,6650,6650,6650,6650,6650,6650,
6650,6650,6650,6650,6650,6650,6650,6650,6650,6650,6650,6650,6650,6650,6650,6650,
6650,6650,6650,6650,6650,6650,6650,6650,6650,6650,6650,6650,6650,6650,6650,6650,
6650,6650,6650,6650,6650,6650,6650,6650,6650,6650,6650,6650,6650,6650,6650,6650,
6650,6650,6650,6650,6650,6650,6650,6650,6650,6650,6650,6650,6650,6650,6650,6650,
6650,6650,6650,6650,6650,6650,6650,6650,6650,6650,6650,6650,6650,6650,6650,6650,
6650,6650,6650,6650,6650,6650,6650,6650,6650,6650,6650,6650,6650,6650,6650,6650
</chunk>
   <chunk x="32" y="-16" width="16" height="16">
6650,6650,6650,6650,6650,6650,6650,6650,6650,6650,6650,6650,6650,6650,6650,6650,
6650,6650,6650,6650,6650,6650,6650,6650,6650,6650,6650,6650,6650,6650,6650,6650,
6650,6650,6650,6650,6650,6650,6650,6650,6650,6650,6650,6650,6650,6650,6650,6650,
6650,6650,6650,6650,6650,6650,6650,6650,6650,6650,6650,6650,6650,6650,6650,6650,
6650,6650,6650,6650,6650,6650,6650,6650,6650,6650,6650,6650,6650,6650,6650,6650,
6650,6650,6650,6650,6650,6650,6650,6650,6650,6650,6650,6650,6650,6650,6650,6650,
6650,6650,6650,6650,6650,6650,6650,6650,6650,6650,6650,6650,6650,6650,6650,6650,
6650,6650,6650,6650,6650,6650,6650,6650,6650,6650,6650,6650,6650,6650,6650,6650,
6650,6650,6650,6650,6650,6650,6650,6650,6650,6650,6650,6650,6650,6650,6650,6650,
6650,6650,6650,6650,6650,6650,6650,6650,6650,6650,6650,6650,6650,6650,6650,6650,
6650,6650,6650,6650,6650,6650,6650,6650,6650,6650,6650,6650,6650,6650,6650,6650,
6650,6650,6650,6650,6650,6650,6650,6650,6650,6650,6650,6650,6650,6650,6650,6650,
6650,6650,6650,6650,6650,6650,6650,6650,6650,6650,6650,6650,6650,6650,6650,6650,
6650,6650,6650,6650,6650,6650,6650,6650,6650,6650,6650,6650,6650,6650,6650,6650,
6650,6650,6650,6650,6650,6650,6650,6650,6650,6650,6650,6650,6650,6650,6650,6650,
6650,6650,6650,6650,6650,6650,6650,6650,6650,6650,6650,6650,6650,6650,6650,6650
</chunk>
   <chunk x="48" y="-16" width="16" height="16">
6650,6650,6650,6650,6650,6650,6650,6650,6650,6650,6650,6650,6650,6650,6650,6650,
6650,6650,6650,6650,6650,6650,6650,6650,6650,6650,6650,6650,6650,6650,6650,6650,
6650,6650,6650,6650,6650,6650,6650,6650,6650,6650,6650,6650,6650,6650,6650,6650,
6650,6650,6650,6650,6650,6650,6650,6650,6650,6650,6650,6650,6650,6650,6650,6650,
6650,6650,6650,6650,6650,6650,6650,6650,6650,6650,6650,6650,6650,6650,6650,6650,
6650,6650,6650,6650,6650,6650,6650,6650,6650,6650,6650,6650,6650,6650,6650,6650,
6650,6650,6650,6650,6650,6650,6650,6650,6650,6650,6650,6650,6650,6650,6650,6650,
6650,6650,6650,6650,6650,6650,6650,6650,6650,6650,6650,6650,6650,6650,6650,6650,
6650,6650,6650,6650,6650,6650,6650,6650,6650,6650,6650,6650,6650,6650,6650,6650,
6650,6650,6650,6650,6650,6650,6650,6650,6650,6650,6650,6650,6650,6650,6650,6650,
6650,6650,6650,6650,6650,6650,6650,6650,6650,6650,6650,6650,6650,6650,6650,6650,
6650,6650,6650,6650,6650,6650,6650,6650,6650,6650,6650,6650,6650,6650,6650,6650,
6650,6650,6650,6650,6650,6650,6650,6650,6650,6650,6650,6650,6650,6650,6650,6650,
6650,6650,6650,6650,6650,6650,6650,6650,6650,6650,6650,6650,6650,6650,6650,6650,
6650,6650,6650,6650,6650,6650,6650,6650,6650,6650,6650,6650,6650,6650,6650,6650,
6650,6650,6650,6650,6650,6650,6650,6650,6650,6650,6650,6650,6650,6650,6650,6650
</chunk>
   <chunk x="64" y="-16" width="16" height="16">
6650,6650,6650,6650,6650,6650,6650,6650,6650,6650,6650,6650,6650,6650,6650,6650,
6650,6650,6650,6650,6650,6650,6650,6650,6650,6650,6650,6650,6650,6650,6650,6650,
6650,6650,6650,6650,6650,6650,6650,6650,6650,6650,6650,6650,6650,6650,6650,6650,
6650,6650,6650,6650,6650,6650,6650,6650,6650,6650,6650,6650,6650,6650,6650,6650,
6650,6650,6650,6650,6650,6650,6650,6650,6650,6650,6650,6650,6650,6650,6650,6650,
6650,6650,6650,6650,6650,6650,6650,6650,6650,6650,6650,6650,6650,6650,6650,6650,
6650,6650,6650,6650,6650,6650,6650,6650,6650,6650,6650,6650,6650,6650,6650,6650,
6650,6650,6650,6650,6650,6650,6650,6650,6650,6650,6650,6650,6650,6650,6650,6650,
6650,6650,6650,6650,6650,6650,6650,6650,6650,6650,6650,6650,6650,6650,6650,6650,
6650,6650,6650,6650,6650,6650,6650,6650,6650,6650,6650,6650,6650,6650,6650,6650,
6650,6650,6650,6650,6650,6650,6650,6650,6650,6650,6650,6650,6650,6650,6650,6650,
6650,6650,6650,6650,6650,6650,6650,6650,6650,6650,6650,6650,6650,6650,6650,6650,
6650,6650,6650,6650,6650,6650,6650,6650,6650,6650,6650,6650,6650,6650,6650,6650,
6650,6650,6650,6650,6650,6650,6650,6650,6650,6650,6650,6650,6650,6650,6650,6650,
6650,6650,6650,6650,6650,6650,6650,6650,6650,6650,6650,6650,6650,6650,6650,6650,
6650,6650,6650,6650,6650,6650,6650,6650,6650,6650,6650,6650,6650,6650,6650,6650
</chunk>
   <chunk x="80" y="-16" width="16" height="16">
6650,0,0,0,0,0,0,0,0,0,0,0,0,0,0,0,
6650,0,0,0,0,0,0,0,0,0,0,0,0,0,0,0,
6650,0,0,0,0,0,0,0,0,0,0,0,0,0,0,0,
6650,0,0,0,0,0,0,0,0,0,0,0,0,0,0,0,
6650,0,0,0,0,0,0,0,0,0,0,0,0,0,0,0,
6650,0,0,0,0,0,0,0,0,0,0,0,0,0,0,0,
6650,0,0,0,0,0,0,0,0,0,0,0,0,0,0,0,
6650,0,0,0,0,0,0,0,0,0,0,0,0,0,0,0,
6650,0,0,0,0,0,0,0,0,0,0,0,0,0,0,0,
6650,0,0,0,0,0,0,0,0,0,0,0,0,0,0,0,
6650,0,0,0,0,0,0,0,0,0,0,0,0,0,0,0,
6650,0,0,0,0,0,0,0,0,0,0,0,0,0,0,0,
6650,0,0,0,0,0,0,0,0,0,0,0,0,0,0,0,
6650,0,0,0,0,0,0,0,0,0,0,0,0,0,0,0,
6650,0,0,0,0,0,0,0,0,0,0,0,0,0,0,0,
6650,0,0,0,0,0,0,0,0,0,0,0,0,0,0,0
</chunk>
   <chunk x="-32" y="0" width="16" height="16">
0,0,6650,6650,6650,6650,6650,6650,6650,6650,6650,6650,6650,6650,6650,6650,
0,0,6650,6650,6650,6650,6650,6650,6650,6650,6650,6650,6650,6650,6650,6650,
0,0,6650,6650,6650,6650,6650,6650,6650,6650,6650,6650,6650,6650,6650,6650,
0,0,6650,6650,6650,6650,6650,6650,6650,6650,6650,6650,6650,6650,6650,6650,
0,0,6650,6650,6650,6650,6650,6650,6650,6650,6650,6650,6650,6650,6650,6650,
0,0,6650,6650,6650,6650,6650,6650,6650,6650,6650,6650,6650,6650,6650,6650,
0,0,6650,6650,6650,6650,6650,6650,6650,6650,6650,6650,6650,6650,6650,6650,
0,0,6650,6650,6650,6650,6650,6650,6650,6650,6650,6650,6650,6650,6650,6650,
0,0,6650,6650,6650,6650,6650,6650,6650,6650,6650,6650,6650,6650,6650,6650,
0,0,6650,6650,6650,6650,6650,6650,6650,6650,6650,6650,6650,6650,6650,6650,
0,0,6650,6650,6650,6650,6650,6650,6650,6650,6650,6650,6650,6650,6650,6650,
0,0,6650,6650,6650,6650,6650,6650,6650,6650,6650,6650,6650,6650,6650,6650,
0,0,6650,6650,6650,6650,6650,6650,6650,6650,6650,6650,6650,6650,6650,6650,
0,0,6650,6650,6650,6650,6650,6650,6650,6650,6650,6650,6650,6650,6650,6650,
0,0,6650,6650,6650,6650,6650,6650,6650,6650,6650,6650,6650,6650,6650,6650,
0,0,6650,6650,6650,6650,6650,6650,6650,6650,6650,6650,6650,6650,6650,6650
</chunk>
   <chunk x="-16" y="0" width="16" height="16">
6650,6650,6650,6650,6650,6650,6650,6650,6650,6650,6650,6650,6650,6650,6650,6650,
6650,6650,6650,6650,6650,6650,6650,6650,6650,6650,6650,6650,6650,6650,6650,6650,
6650,6650,6650,6650,6650,6650,6650,6650,6650,6650,6650,6650,6650,6650,6650,6650,
6650,6650,6650,6650,6650,6650,6650,6650,6650,6650,6650,6650,6650,6650,6650,6650,
6650,6650,6650,6650,6650,6650,6650,6650,6650,6650,6650,6650,6650,6650,6650,6650,
6650,6650,6650,6650,6650,6650,6650,6650,6650,6650,6650,6650,6650,6650,6650,6650,
6650,6650,6650,6650,6650,6650,6650,6650,6650,6650,6650,6650,6650,6650,6650,6650,
6650,6650,6650,6650,6650,6650,6650,6650,6650,6650,6650,6650,6650,6650,6650,6650,
6650,6650,6650,6650,6650,6650,6650,6650,6650,6650,6650,6650,6650,6650,6650,6650,
6650,6650,6650,6650,6650,6650,6650,6650,6650,6650,6650,6650,6650,6650,6650,6650,
6650,6650,6650,6650,6650,6650,6650,6650,6650,6650,6650,6650,6650,6650,6650,6650,
6650,6650,6650,6650,6650,6650,6650,6650,6650,6650,6650,6650,6650,6650,6650,6650,
6650,6650,6650,6650,6650,6650,6650,6650,6650,6650,6650,6650,6650,6650,6650,6650,
6650,6650,6650,6650,6650,6650,6650,6650,6650,6650,6650,6650,6650,6650,6650,6650,
6650,6650,6650,6650,6650,6650,6650,6650,6650,6650,6650,6650,6650,6650,6650,6650,
6650,6650,6650,6650,6650,6650,6650,6650,6650,6650,6650,6650,6650,6650,6650,6650
</chunk>
   <chunk x="0" y="0" width="16" height="16">
6650,6650,6650,6650,6650,6650,6650,6650,6650,6650,6650,6650,6650,6650,6650,6650,
6650,6650,6650,6650,6650,6650,6650,6650,6650,6650,6650,6650,6650,6650,6650,6650,
6650,6650,6650,6650,6650,6650,6650,6650,6650,6650,6650,6650,6650,6650,6650,6650,
6650,6650,6650,6650,6650,6650,6650,6650,6650,6650,6650,6650,6650,6650,6650,6650,
6650,6650,6650,6650,6650,6650,6650,6650,6650,6650,6650,6650,6650,6650,6650,6650,
6650,6650,6650,6650,6650,6650,6650,6650,6650,6650,6650,6650,6650,6650,6650,6650,
6650,6650,6650,6650,6650,6650,6650,6650,6650,6650,6650,6650,6650,6650,6650,6650,
6650,6650,6650,6650,6650,6650,6650,6650,6650,6650,6650,6650,6650,6650,6650,6650,
6650,6650,6650,6650,6650,6650,6650,6650,6650,6650,6650,6650,6650,6650,6650,6650,
6650,6650,6650,6650,6650,6650,6650,6650,6650,6650,6650,6650,6650,6650,6650,6650,
6650,6650,6650,6650,6650,6650,6650,6650,6650,6650,6650,6650,6650,6650,6650,6650,
6650,6650,6650,6650,6650,6650,6650,6650,6650,6650,6650,6650,6650,6650,6650,6650,
6650,6650,6650,6650,6650,6650,6650,6650,6650,6650,6650,6650,6650,6650,6650,6650,
6650,6650,6650,6650,6650,6650,6650,6650,6650,6650,6650,6650,6650,6650,6650,6650,
6650,6650,6650,6650,6650,6650,6650,6650,6650,6650,6650,6650,6650,6650,6650,6650,
6650,6650,6650,6650,6650,6650,6650,6650,6650,6650,6650,6650,6650,6650,6650,6650
</chunk>
   <chunk x="16" y="0" width="16" height="16">
6650,6650,6650,6650,6650,6650,6650,6650,6650,6650,6650,6650,6650,6650,6650,6650,
6650,6650,6650,6650,6650,6650,6650,6650,6650,6650,6650,6650,6650,6650,6650,6650,
6650,6650,6650,6650,6650,6650,6650,6650,6650,6650,6650,6650,6650,6650,6650,6650,
6650,6650,6650,6650,6650,6650,6650,6650,6650,6650,6650,6650,6650,6650,6650,6650,
6650,6650,6650,6650,6650,6650,6650,6650,6650,6650,6650,6650,6650,6650,6650,6650,
6650,6650,6650,6650,6650,6650,6650,6650,6650,6650,6650,6650,6650,6650,6650,6650,
6650,6650,6650,6650,6650,6650,6650,6650,6650,6650,6650,6650,6650,6650,6650,6650,
6650,6650,6650,6650,6650,6650,6650,6650,6650,6650,6650,6650,6650,6650,6650,6650,
6650,6650,6650,6650,6650,6650,6650,6650,6650,6650,6650,6650,6650,6650,6650,6650,
6650,6650,6650,6650,6650,6650,6650,6650,6650,6650,6650,6650,6650,6650,6650,6650,
6650,6650,6650,6650,6650,6650,6650,6650,6650,6650,6650,6650,6650,6650,6650,6650,
6650,6650,6650,6650,6650,6650,6650,6650,6650,6650,6650,6650,6650,6650,6650,6650,
6650,6650,6650,6650,6650,6650,6650,6650,6650,6650,6650,6650,6650,6650,6650,6650,
6650,6650,6650,6650,6650,6650,6650,6650,6650,6650,6650,6650,6650,6650,6650,6650,
6650,6650,6650,6650,6650,6650,6650,6650,6650,6650,6650,6650,6650,6650,6650,6650,
6650,6650,6650,6650,6650,6650,6650,6650,6650,6650,6650,6650,6650,6650,6650,6650
</chunk>
   <chunk x="32" y="0" width="16" height="16">
6650,6650,6650,6650,6650,6650,6650,6650,6650,6650,6650,6650,6650,6650,6650,6650,
6650,6650,6650,6650,6650,6650,6650,6650,6650,6650,6650,6650,6650,6650,6650,6650,
6650,6650,6650,6650,6650,6650,6650,6650,6650,6650,6650,6650,6650,6650,6650,6650,
6650,6650,6650,6650,6650,6650,6650,6650,6650,6650,6650,6650,6650,6650,6650,6650,
6650,6650,6650,6650,6650,6650,6650,6650,6650,6650,6650,6650,6650,6650,6650,6650,
6650,6650,6650,6650,6650,6650,6650,6650,6650,6650,6650,6650,6650,6650,6650,6650,
6650,6650,6650,6650,6650,6650,6650,6650,6650,6650,6650,6650,6650,6650,6650,6650,
6650,6650,6650,6650,6650,6650,6650,6650,6650,6650,6650,6650,6650,6650,6650,6650,
6650,6650,6650,6650,6650,6650,6650,6650,6650,6650,6650,6650,6650,6650,6650,6650,
6650,6650,6650,6650,6650,6650,6650,6650,6650,6650,6650,6650,6650,6650,6650,6650,
6650,6650,6650,6650,6650,6650,6650,6650,6650,6650,6650,6650,6650,6650,6650,6650,
6650,6650,6650,6650,6650,6650,6650,6650,6650,6650,6650,6650,6650,6650,6650,6650,
6650,6650,6650,6650,6650,6650,6650,6650,6650,6650,6650,6650,6650,6650,6650,6650,
6650,6650,6650,6650,6650,6650,6650,6650,6650,6650,6650,6650,6650,6650,6650,6650,
6650,6650,6650,6650,6650,6650,6650,6650,6650,6650,6650,6650,6650,6650,6650,6650,
6650,6650,6650,6650,6650,6650,6650,6650,6650,6650,6650,6650,6650,6650,6650,6650
</chunk>
   <chunk x="48" y="0" width="16" height="16">
6650,6650,6650,6650,6650,6650,6650,6650,6650,6650,6650,6650,6650,6650,6650,6650,
6650,6650,6650,6650,6650,6650,6650,6650,6650,6650,6650,6650,6650,6650,6650,6650,
6650,6650,6650,6650,6650,6650,6650,6650,6650,6650,6650,6650,6650,6650,6650,6650,
6650,6650,6650,6650,6650,6650,6650,6650,6650,6650,6650,6650,6650,6650,6650,6650,
6650,6650,6650,6650,6650,6650,6650,6650,6650,6650,6650,6650,6650,6650,6650,6650,
6650,6650,6650,6650,6650,6650,6650,6650,6650,6650,6650,6650,6650,6650,6650,6650,
6650,6650,6650,6650,6650,6650,6650,6650,6650,6650,6650,6650,6650,6650,6650,6650,
6650,6650,6650,6650,6650,6650,6650,6650,6650,6650,6650,6650,6650,6650,6650,6650,
6650,6650,6650,6650,6650,6650,6650,6650,6650,6650,6650,6650,6650,6650,6650,6650,
6650,6650,6650,6650,6650,6650,6650,6650,6650,6650,6650,6650,6650,6650,6650,6650,
6650,6650,6650,6650,6650,6650,6650,6650,6650,6650,6650,6650,6650,6650,6650,6650,
6650,6650,6650,6650,6650,6650,6650,6650,6650,6650,6650,6650,6650,6650,6650,6650,
6650,6650,6650,6650,6650,6650,6650,6650,6650,6650,6650,6650,6650,6650,6650,6650,
6650,6650,6650,6650,6650,6650,6650,6650,6650,6650,6650,6650,6650,6650,6650,6650,
6650,6650,6650,6650,6650,6650,6650,6650,6650,6650,6650,6650,6650,6650,6650,6650,
6650,6650,6650,6650,6650,6650,6650,6650,6650,6650,6650,6650,6650,6650,6650,6650
</chunk>
   <chunk x="64" y="0" width="16" height="16">
6650,6650,6650,6650,6650,6650,6650,6650,6650,6650,6650,6650,6650,6650,6650,6650,
6650,6650,6650,6650,6650,6650,6650,6650,6650,6650,6650,6650,6650,6650,6650,6650,
6650,6650,6650,6650,6650,6650,6650,6650,6650,6650,6650,6650,6650,6650,6650,6650,
6650,6650,6650,6650,6650,6650,6650,6650,6650,6650,6650,6650,6650,6650,6650,6650,
6650,6650,6650,6650,6650,6650,6650,6650,6650,6650,6650,6650,6650,6650,6650,6650,
6650,6650,6650,6650,6650,6650,6650,6650,6650,6650,6650,6650,6650,6650,6650,6650,
6650,6650,6650,6650,6650,6650,6650,6650,6650,6650,6650,6650,6650,6650,6650,6650,
6650,6650,6650,6650,6650,6650,6650,6650,6650,6650,6650,6650,6650,6650,6650,6650,
6650,6650,6650,6650,6650,6650,6650,6650,6650,6650,6650,6650,6650,6650,6650,6650,
6650,6650,6650,6650,6650,6650,6650,6650,6650,6650,6650,6650,6650,6650,6650,6650,
6650,6650,6650,6650,6650,6650,6650,6650,6650,6650,6650,6650,6650,6650,6650,6650,
6650,6650,6650,6650,6650,6650,6650,6650,6650,6650,6650,6650,6650,6650,6650,6650,
6650,6650,6650,6650,6650,6650,6650,6650,6650,6650,6650,6650,6650,6650,6650,6650,
6650,6650,6650,6650,6650,6650,6650,6650,6650,6650,6650,6650,6650,6650,6650,6650,
6650,6650,6650,6650,6650,6650,6650,6650,6650,6650,6650,6650,6650,6650,6650,6650,
6650,6650,6650,6650,6650,6650,6650,6650,6650,6650,6650,6650,6650,6650,6650,6650
</chunk>
   <chunk x="80" y="0" width="16" height="16">
6650,0,0,0,0,0,0,0,0,0,0,0,0,0,0,0,
6650,0,0,0,0,0,0,0,0,0,0,0,0,0,0,0,
6650,0,0,0,0,0,0,0,0,0,0,0,0,0,0,0,
6650,0,0,0,0,0,0,0,0,0,0,0,0,0,0,0,
6650,0,0,0,0,0,0,0,0,0,0,0,0,0,0,0,
6650,0,0,0,0,0,0,0,0,0,0,0,0,0,0,0,
6650,0,0,0,0,0,0,0,0,0,0,0,0,0,0,0,
6650,0,0,0,0,0,0,0,0,0,0,0,0,0,0,0,
6650,0,0,0,0,0,0,0,0,0,0,0,0,0,0,0,
6650,0,0,0,0,0,0,0,0,0,0,0,0,0,0,0,
6650,0,0,0,0,0,0,0,0,0,0,0,0,0,0,0,
6650,0,0,0,0,0,0,0,0,0,0,0,0,0,0,0,
6650,0,0,0,0,0,0,0,0,0,0,0,0,0,0,0,
6650,0,0,0,0,0,0,0,0,0,0,0,0,0,0,0,
6650,0,0,0,0,0,0,0,0,0,0,0,0,0,0,0,
6650,0,0,0,0,0,0,0,0,0,0,0,0,0,0,0
</chunk>
   <chunk x="-32" y="16" width="16" height="16">
0,0,6650,6650,6650,6650,6650,6650,6650,6650,6650,6650,6650,6650,6650,6650,
0,0,6650,6650,6650,6650,6650,6650,6650,6650,6650,6650,6650,6650,6650,6650,
0,0,6650,6650,6650,6650,6650,6650,6650,6650,6650,6650,6650,6650,6650,6650,
0,0,6650,6650,6650,6650,6650,6650,6650,6650,6650,6650,6650,6650,6650,6650,
0,0,6650,6650,6650,6650,6650,6650,6650,6650,6650,6650,6650,6650,6650,6650,
0,0,6650,6650,6650,6650,6650,6650,6650,6650,6650,6650,6650,6650,6650,6650,
0,0,6650,6650,6650,6650,6650,6650,6650,6650,6650,6650,6650,6650,6650,6650,
0,0,6650,6650,6650,6650,6650,6650,6650,6650,6650,6650,6650,6650,6650,6650,
0,0,6650,6650,6650,6650,6650,6650,6650,6650,6650,6650,6650,6650,6650,6650,
0,0,6650,6650,6650,6650,6650,6650,6650,6650,6650,6650,6650,6650,6650,6650,
0,0,6650,6650,6650,6650,6650,6650,6650,6650,6650,6650,6650,6650,6650,6650,
0,0,6650,6650,6650,6650,6650,6650,6650,6650,6650,6650,6650,6650,6650,6650,
0,0,6650,6650,6650,6650,6650,6650,6650,6650,6650,6650,6650,6650,6650,6650,
0,0,6650,6650,6650,6650,6650,6650,6650,6650,6650,6650,6650,6650,6650,6650,
0,0,6650,6650,6650,6650,6650,6650,6650,6650,6650,6650,6650,6650,6650,6650,
0,0,6650,6650,6650,6650,6650,6650,6650,6650,6650,6650,6650,6650,6650,6650
</chunk>
   <chunk x="-16" y="16" width="16" height="16">
6650,6650,6650,6650,6650,6650,6650,6650,6650,6650,6650,6650,6650,6650,6650,6650,
6650,6650,6650,6650,6650,6650,6650,6650,6650,6650,6650,6650,6650,6650,6650,6650,
6650,6650,6650,6650,6650,6650,6650,6650,6650,6650,6650,6650,6650,6650,6650,6650,
6650,6650,6650,6650,6650,6650,6650,6650,6650,6650,6650,6650,6650,6650,6650,6650,
6650,6650,6650,6650,6650,6650,6650,6650,6650,6650,6650,6650,6650,6650,6650,6650,
6650,6650,6650,6650,6650,6650,6650,6650,6650,6650,6650,6650,6650,6650,6650,6650,
6650,6650,6650,6650,6650,6650,6650,6650,6650,6650,6650,6650,6650,6650,6650,6650,
6650,6650,6650,6650,6650,6650,6650,6650,6650,6650,6650,6650,6650,6650,6650,6650,
6650,6650,6650,6650,6650,6650,6650,6650,6650,6650,6650,6650,6650,6650,6650,6650,
6650,6650,6650,6650,6650,6650,6650,6650,6650,6650,6650,6650,6650,6650,6650,6650,
6650,6650,6650,6650,6650,6650,6650,6650,6650,6650,6650,6650,6650,6650,6650,6650,
6650,6650,6650,6650,6650,6650,6650,6650,6650,6650,6650,6650,6650,6650,6650,6650,
6650,6650,6650,6650,6650,6650,6650,6650,6650,6650,6650,6650,6650,6650,6650,6650,
6650,6650,6650,6650,6650,6650,6650,6650,6650,6650,6650,6650,6650,6650,6650,6650,
6650,6650,6650,6650,6650,6650,6650,6650,6650,6650,6650,6650,6650,6650,6650,6650,
6650,6650,6650,6650,6650,6650,6650,6650,6650,6650,6650,6650,6650,6650,6650,6650
</chunk>
   <chunk x="0" y="16" width="16" height="16">
6650,6650,6650,6650,6650,6650,6650,6650,6650,6650,6650,6650,6650,6650,6650,6650,
6650,6650,6650,6650,6650,6650,6650,6650,6650,6650,6650,6650,6650,6650,6650,6650,
6650,6650,6650,6650,6650,6650,6650,6650,6650,6650,6650,6650,6650,6650,6650,6650,
6650,6650,6650,6650,6650,6650,6650,6650,6650,6650,6650,6650,6650,6650,6650,6650,
6650,6650,6650,6650,6650,6650,6650,6650,6650,6650,6650,6650,6650,6650,6650,6650,
6650,6650,6650,6650,6650,6650,6650,6650,6650,6650,6650,6650,6650,6650,6650,6650,
6650,6650,6650,6650,6650,6650,6650,6650,6650,6650,6650,6650,6650,6650,6650,6650,
6650,6650,6650,6650,6650,6650,6650,6650,6650,6650,6650,6650,6650,6650,6650,6650,
6650,6650,6650,6650,6650,6650,6650,6650,6650,6650,6650,6650,6650,6650,6650,6650,
6650,6650,6650,6650,6650,6650,6650,6650,6650,6650,6650,6650,6650,6650,6650,6650,
6650,6650,6650,6650,6650,6650,6650,6650,6650,6650,6650,6650,6650,6650,6650,6650,
6650,6650,6650,6650,6650,6650,6650,6650,6650,6650,6650,6650,6650,6650,6650,6650,
6650,6650,6650,6650,6650,6650,6650,6650,6650,6650,6650,6650,6650,6650,6650,6650,
6650,6650,6650,6650,6650,6650,6650,6650,6650,6650,6650,6650,6650,6650,6650,6650,
6650,6650,6650,6650,6650,6650,6650,6650,6650,6650,6650,6650,6650,6650,6650,6650,
6650,6650,6650,6650,6650,6650,6650,6650,6650,6650,6650,6650,6650,6650,6650,6650
</chunk>
   <chunk x="16" y="16" width="16" height="16">
6650,6650,6650,6650,6650,6650,6650,6650,6650,6650,6650,6650,6650,6650,6650,6650,
6650,6650,6650,6650,6650,6650,6650,6650,6650,6650,6650,6650,6650,6650,6650,6650,
6650,6650,6650,6650,6650,6650,6650,6650,6650,6650,6650,6650,6650,6650,6650,6650,
6650,6650,6650,6650,6650,6650,6650,6650,6650,6650,6650,6650,6650,6650,6650,6650,
6650,6650,6650,6650,6650,6650,6650,6650,6650,6650,6650,6650,6650,6650,6650,6650,
6650,6650,6650,6650,6650,6650,6650,6650,6650,6650,6650,6650,6650,6650,6650,6650,
6650,6650,6650,6650,6650,6650,6650,6650,6650,6650,6650,6650,6650,6650,6650,6650,
6650,6650,6650,6650,6650,6650,6650,6650,6650,6650,6650,6650,6650,6650,6650,6650,
6650,6650,6650,6650,6650,6650,6650,6650,6650,6650,6650,6650,6650,6650,6650,6650,
6650,6650,6650,6650,6650,6650,6650,6650,6650,6650,6650,6650,6650,6650,6650,6650,
6650,6650,6650,6650,6650,6650,6650,6650,6650,6650,6650,6650,6650,6650,6650,6650,
6650,6650,6650,6650,6650,6650,6650,6650,6650,6650,6650,6650,6650,6650,6650,6650,
6650,6650,6650,6650,6650,6650,6650,6650,6650,6650,6650,6650,6650,6650,6650,6650,
6650,6650,6650,6650,6650,6650,6650,6650,6650,6650,6650,6650,6650,6650,6650,6650,
6650,6650,6650,6650,6650,6650,6650,6650,6650,6650,6650,6650,6650,6650,6650,6650,
6650,6650,6650,6650,6650,6650,6650,6650,6650,6650,6650,6650,6650,6650,6650,6650
</chunk>
   <chunk x="32" y="16" width="16" height="16">
6650,6650,6650,6650,6650,6650,6650,6650,6650,6650,6650,6650,6650,6650,6650,6650,
6650,6650,6650,6650,6650,6650,6650,6650,6650,6650,6650,6650,6650,6650,6650,6650,
6650,6650,6650,6650,6650,6650,6650,6650,6650,6650,6650,6650,6650,6650,6650,6650,
6650,6650,6650,6650,6650,6650,6650,6650,6650,6650,6650,6650,6650,6650,6650,6650,
6650,6650,6650,6650,6650,6650,6650,6650,6650,6650,6650,6650,6650,6650,6650,6650,
6650,6650,6650,6650,6650,6650,6650,6650,6650,6650,6650,6650,6650,6650,6650,6650,
6650,6650,6650,6650,6650,6650,6650,6650,6650,6650,6650,6650,6650,6650,6650,6650,
6650,6650,6650,6650,6650,6650,6650,6650,6650,6650,6650,6650,6650,6650,6650,6650,
6650,6650,6650,6650,6650,6650,6650,6650,6650,6650,6650,6650,6650,6650,6650,6650,
6650,6650,6650,6650,6650,6650,6650,6650,6650,6650,6650,6650,6650,6650,6650,6650,
6650,6650,6650,6650,6650,6650,6650,6650,6650,6650,6650,6650,6650,6650,6650,6650,
6650,6650,6650,6650,6650,6650,6650,6650,6650,6650,6650,6650,6650,6650,6650,6650,
6650,6650,6650,6650,6650,6650,6650,6650,6650,6650,6650,6650,6650,6650,6650,6650,
6650,6650,6650,6650,6650,6650,6650,6650,6650,6650,6650,6650,6650,6650,6650,6650,
6650,6650,6650,6650,6650,6650,6650,6650,6650,6650,6650,6650,6650,6650,6650,6650,
6650,6650,6650,6650,6650,6650,6650,6650,6650,6650,6650,6650,6650,6650,6650,6650
</chunk>
   <chunk x="48" y="16" width="16" height="16">
6650,6650,6650,6650,6650,6650,6650,6650,6650,6650,6650,6650,6650,6650,6650,6650,
6650,6650,6650,6650,6650,6650,6650,6650,6650,6650,6650,6650,6650,6650,6650,6650,
6650,6650,6650,6650,6650,6650,6650,6650,6650,6650,6650,6650,6650,6650,6650,6650,
6650,6650,6650,6650,6650,6650,6650,6650,6650,6650,6650,6650,6650,6650,6650,6650,
6650,6650,6650,6650,6650,6650,6650,6650,6650,6650,6650,6650,6650,6650,6650,6650,
6650,6650,6650,6650,6650,6650,6650,6650,6650,6650,6650,6650,6650,6650,6650,6650,
6650,6650,6650,6650,6650,6650,6650,6650,6650,6650,6650,6650,6650,6650,6650,6650,
6650,6650,6650,6650,6650,6650,6650,6650,6650,6650,6650,6650,6650,6650,6650,6650,
6650,6650,6650,6650,6650,6650,6650,6650,6650,6650,6650,6650,6650,6650,6650,6650,
6650,6650,6650,6650,6650,6650,6650,6650,6650,6650,6650,6650,6650,6650,6650,6650,
6650,6650,6650,6650,6650,6650,6650,6650,6650,6650,6650,6650,6650,6650,6650,6650,
6650,6650,6650,6650,6650,6650,6650,6650,6650,6650,6650,6650,6650,6650,6650,6650,
6650,6650,6650,6650,6650,6650,6650,6650,6650,6650,6650,6650,6650,6650,6650,6650,
6650,6650,6650,6650,6650,6650,6650,6650,6650,6650,6650,6650,6650,6650,6650,6650,
6650,6650,6650,6650,6650,6650,6650,6650,6650,6650,6650,6650,6650,6650,6650,6650,
6650,6650,6650,6650,6650,6650,6650,6650,6650,6650,6650,6650,6650,6650,6650,6650
</chunk>
   <chunk x="64" y="16" width="16" height="16">
6650,6650,6650,6650,6650,6650,6650,6650,6650,6650,6650,6650,6650,6650,6650,6650,
6650,6650,6650,6650,6650,6650,6650,6650,6650,6650,6650,6650,6650,6650,6650,6650,
6650,6650,6650,6650,6650,6650,6650,6650,6650,6650,6650,6650,6650,6650,6650,6650,
6650,6650,6650,6650,6650,6650,6650,6650,6650,6650,6650,6650,6650,6650,6650,6650,
6650,6650,6650,6650,6650,6650,6650,6650,6650,6650,6650,6650,6650,6650,6650,6650,
6650,6650,6650,6650,6650,6650,6650,6650,6650,6650,6650,6650,6650,6650,6650,6650,
6650,6650,6650,6650,6650,6650,6650,6650,6650,6650,6650,6650,6650,6650,6650,6650,
6650,6650,6650,6650,6650,6650,6650,6650,6650,6650,6650,6650,6650,6650,6650,6650,
6650,6650,6650,6650,6650,6650,6650,6650,6650,6650,6650,6650,6650,6650,6650,6650,
6650,6650,6650,6650,6650,6650,6650,6650,6650,6650,6650,6650,6650,6650,6650,6650,
6650,6650,6650,6650,6650,6650,6650,6650,6650,6650,6650,6650,6650,6650,6650,6650,
6650,6650,6650,6650,6650,6650,6650,6650,6650,6650,6650,6650,6650,6650,6650,6650,
6650,6650,6650,6650,6650,6650,6650,6650,6650,6650,6650,6650,6650,6650,6650,6650,
6650,6650,6650,6650,6650,6650,6650,6650,6650,6650,6650,6650,6650,6650,6650,6650,
6650,6650,6650,6650,6650,6650,6650,6650,6650,6650,6650,6650,6650,6650,6650,6650,
6650,6650,6650,6650,6650,6650,6650,6650,6650,6650,6650,6650,6650,6650,6650,6650
</chunk>
   <chunk x="80" y="16" width="16" height="16">
6650,0,0,0,0,0,0,0,0,0,0,0,0,0,0,0,
6650,0,0,0,0,0,0,0,0,0,0,0,0,0,0,0,
6650,0,0,0,0,0,0,0,0,0,0,0,0,0,0,0,
6650,0,0,0,0,0,0,0,0,0,0,0,0,0,0,0,
6650,0,0,0,0,0,0,0,0,0,0,0,0,0,0,0,
6650,0,0,0,0,0,0,0,0,0,0,0,0,0,0,0,
6650,0,0,0,0,0,0,0,0,0,0,0,0,0,0,0,
6650,0,0,0,0,0,0,0,0,0,0,0,0,0,0,0,
6650,0,0,0,0,0,0,0,0,0,0,0,0,0,0,0,
6650,0,0,0,0,0,0,0,0,0,0,0,0,0,0,0,
6650,0,0,0,0,0,0,0,0,0,0,0,0,0,0,0,
6650,0,0,0,0,0,0,0,0,0,0,0,0,0,0,0,
6650,0,0,0,0,0,0,0,0,0,0,0,0,0,0,0,
6650,0,0,0,0,0,0,0,0,0,0,0,0,0,0,0,
6650,0,0,0,0,0,0,0,0,0,0,0,0,0,0,0,
6650,0,0,0,0,0,0,0,0,0,0,0,0,0,0,0
</chunk>
   <chunk x="-32" y="32" width="16" height="16">
0,0,6650,6650,6650,6650,6650,6650,6650,6650,6650,6650,6650,6650,6650,6650,
0,0,6650,6650,6650,6650,6650,6650,6650,6650,6650,6650,6650,6650,6650,6650,
0,0,6650,6650,6650,6650,6650,6650,6650,6650,6650,6650,6650,6650,6650,6650,
0,0,6650,6650,6650,6650,6650,6650,6650,6650,6650,6650,6650,6650,6650,6650,
0,0,6650,6650,6650,6650,6650,6650,6650,6650,6650,6650,6650,6650,6650,6650,
0,0,6650,6650,6650,6650,6650,6650,6650,6650,6650,6650,6650,6650,6650,6650,
0,0,6650,6650,6650,6650,6650,6650,6650,6650,6650,6650,6650,6650,6650,6650,
0,0,6650,6650,6650,6650,6650,6650,6650,6650,6650,6650,6650,6650,6650,6650,
0,0,6650,6650,6650,6650,6650,6650,6650,6650,6650,6650,6650,6650,6650,6650,
0,0,6650,6650,6650,6650,6650,6650,6650,6650,6650,6650,6650,6650,6650,6650,
0,0,6650,6650,6650,6650,6650,6650,6650,6650,6650,6650,6650,6650,6650,6650,
0,0,6650,6650,6650,6650,6650,6650,6650,6650,6650,6650,6650,6650,6650,6650,
0,0,6650,6650,6650,6650,6650,6650,6650,6650,6650,6650,6650,6650,6650,6650,
0,0,6650,6650,6650,6650,6650,6650,6650,6650,6650,6650,6650,6650,6650,6650,
0,0,6650,6650,6650,6650,6650,6650,6650,6650,6650,6650,6650,6650,6650,6650,
0,0,6650,6650,6650,6650,6650,6650,6650,6650,6650,6650,6650,6650,6650,6650
</chunk>
   <chunk x="-16" y="32" width="16" height="16">
6650,6650,6650,6650,6650,6650,6650,6650,6650,6650,6650,6650,6650,6650,6650,6650,
6650,6650,6650,6650,6650,6650,6650,6650,6650,6650,6650,6650,6650,6650,6650,6650,
6650,6650,6650,6650,6650,6650,6650,6650,6650,6650,6650,6650,6650,6650,6650,6650,
6650,6650,6650,6650,6650,6650,6650,6650,6650,6650,6650,6650,6650,6650,6650,6650,
6650,6650,6650,6650,6650,6650,6650,6650,6650,6650,6650,6650,6650,6650,6650,6650,
6650,6650,6650,6650,6650,6650,6650,6650,6650,6650,6650,6650,6650,6650,6650,6650,
6650,6650,6650,6650,6650,6650,6650,6650,6650,6650,6650,6650,6650,6650,6650,6650,
6650,6650,6650,6650,6650,6650,6650,6650,6650,6650,6650,6650,6650,6650,6650,6650,
6650,6650,6650,6650,6650,6650,6650,6650,6650,6650,6650,6650,6650,6650,6650,6650,
6650,6650,6650,6650,6650,6650,6650,6650,6650,6650,6650,6650,6650,6650,6650,6650,
6650,6650,6650,6650,6650,6650,6650,6650,6650,6650,6650,6650,6650,6650,6650,6650,
6650,6650,6650,6650,6650,6650,6650,6650,6650,6650,6650,6650,6650,6650,6650,6650,
6650,6650,6650,6650,6650,6650,6650,6650,6650,6650,6650,6650,6650,6650,6650,6650,
6650,6650,6650,6650,6650,6650,6650,6650,6650,6650,6650,6650,6650,6650,6650,6650,
6650,6650,6650,6650,6650,6650,6650,6650,6650,6650,6650,6650,6650,6650,6650,6650,
6650,6650,6650,6650,6650,6650,6650,6650,6650,6650,6650,6650,6650,6650,6650,6650
</chunk>
   <chunk x="0" y="32" width="16" height="16">
6650,6650,6650,6650,6650,6650,6650,6650,6650,6650,6650,6650,6650,6650,6650,6650,
6650,6650,6650,6650,6650,6650,6650,6650,6650,6650,6650,6650,6650,6650,6650,6650,
6650,6650,6650,6650,6650,6650,6650,6650,6650,6650,6650,6650,6650,6650,6650,6650,
6650,6650,6650,6650,6650,6650,6650,6650,6650,6650,6650,6650,6650,6650,6650,6650,
6650,6650,6650,6650,6650,6650,6650,6650,6650,6650,6650,6650,6650,6650,6650,6650,
6650,6650,6650,6650,6650,6650,6650,6650,6650,6650,6650,6650,6650,6650,6650,6650,
6650,6650,6650,6650,6650,6650,6650,6650,6650,6650,6650,6650,6650,6650,6650,6650,
6650,6650,6650,6650,6650,6650,6650,6650,6650,6650,6650,6650,6650,6650,6650,6650,
6650,6650,6650,6650,6650,6650,6650,6650,6650,6650,6650,6650,6650,6650,6650,6650,
6650,6650,6650,6650,6650,6650,6650,6650,6650,6650,6650,6650,6650,6650,6650,6650,
6650,6650,6650,6650,6650,6650,6650,6650,6650,6650,6650,6650,6650,6650,6650,6650,
6650,6650,6650,6650,6650,6650,6650,6650,6650,6650,6650,6650,6650,6650,6650,6650,
6650,6650,6650,6650,6650,6650,6650,6650,6650,6650,6650,6650,6650,6650,6650,6650,
6650,6650,6650,6650,6650,6650,6650,6650,6650,6650,6650,6650,6650,6650,6650,6650,
6650,6650,6650,6650,6650,6650,6650,6650,6650,6650,6650,6650,6650,6650,6650,6650,
6650,6650,6650,6650,6650,6650,6650,6650,6650,6650,6650,6650,6650,6650,6650,6650
</chunk>
   <chunk x="16" y="32" width="16" height="16">
6650,6650,6650,6650,6650,6650,6650,6650,6650,6650,6650,6650,6650,6650,6650,6650,
6650,6650,6650,6650,6650,6650,6650,6650,6650,6650,6650,6650,6650,6650,6650,6650,
6650,6650,6650,6650,6650,6650,6650,6650,6650,6650,6650,6650,6650,6650,6650,6650,
6650,6650,6650,6650,6650,6650,6650,6650,6650,6650,6650,6650,6650,6650,6650,6650,
6650,6650,6650,6650,6650,6650,6650,6650,6650,6650,6650,6650,6650,6650,6650,6650,
6650,6650,6650,6650,6650,6650,6650,6650,6650,6650,6650,6650,6650,6650,6650,6650,
6650,6650,6650,6650,6650,6650,6650,6650,6650,6650,6650,6650,6650,6650,6650,6650,
6650,6650,6650,6650,6650,6650,6650,6650,6650,6650,6650,6650,6650,6650,6650,6650,
6650,6650,6650,6650,6650,6650,6650,6650,6650,6650,6650,6650,6650,6650,6650,6650,
6650,6650,6650,6650,6650,6650,6650,6650,6650,6650,6650,6650,6650,6650,6650,6650,
6650,6650,6650,6650,6650,6650,6650,6650,6650,6650,6650,6650,6650,6650,6650,6650,
6650,6650,6650,6650,6650,6650,6650,6650,6650,6650,6650,6650,6650,6650,6650,6650,
6650,6650,6650,6650,6650,6650,6650,6650,6650,6650,6650,6650,6650,6650,6650,6650,
6650,6650,6650,6650,6650,6650,6650,6650,6650,6650,6650,6650,6650,6650,6650,6650,
6650,6650,6650,6650,6650,6650,6650,6650,6650,6650,6650,6650,6650,6650,6650,6650,
6650,6650,6650,6650,6650,6650,6650,6650,6650,6650,6650,6650,6650,6650,6650,6650
</chunk>
   <chunk x="32" y="32" width="16" height="16">
6650,6650,6650,6650,6650,6650,6650,6650,6650,6650,6650,6650,6650,6650,6650,6650,
6650,6650,6650,6650,6650,6650,6650,6650,6650,6650,6650,6650,6650,6650,6650,6650,
6650,6650,6650,6650,6650,6650,6650,6650,6650,6650,6650,6650,6650,6650,6650,6650,
6650,6650,6650,6650,6650,6650,6650,6650,6650,6650,6650,6650,6650,6650,6650,6650,
6650,6650,6650,6650,6650,6650,6650,6650,6650,6650,6650,6650,6650,6650,6650,6650,
6650,6650,6650,6650,6650,6650,6650,6650,6650,6650,6650,6650,6650,6650,6650,6650,
6650,6650,6650,6650,6650,6650,6650,6650,6650,6650,6650,6650,6650,6650,6650,6650,
6650,6650,6650,6650,6650,6650,6650,6650,6650,6650,6650,6650,6650,6650,6650,6650,
6650,6650,6650,6650,6650,6650,6650,6650,6650,6650,6650,6650,6650,6650,6650,6650,
6650,6650,6650,6650,6650,6650,6650,6650,6650,6650,6650,6650,6650,6650,6650,6650,
6650,6650,6650,6650,6650,6650,6650,6650,6650,6650,6650,6650,6650,6650,6650,6650,
6650,6650,6650,6650,6650,6650,6650,6650,6650,6650,6650,6650,6650,6650,6650,6650,
6650,6650,6650,6650,6650,6650,6650,6650,6650,6650,6650,6650,6650,6650,6650,6650,
6650,6650,6650,6650,6650,6650,6650,6650,6650,6650,6650,6650,6650,6650,6650,6650,
6650,6650,6650,6650,6650,6650,6650,6650,6650,6650,6650,6650,6650,6650,6650,6650,
6650,6650,6650,6650,6650,6650,6650,6650,6650,6650,6650,6650,6650,6650,6650,6650
</chunk>
   <chunk x="48" y="32" width="16" height="16">
6650,6650,6650,6650,6650,6650,6650,6650,6650,6650,6650,6650,6650,6650,6650,6650,
6650,6650,6650,6650,6650,6650,6650,6650,6650,6650,6650,6650,6650,6650,6650,6650,
6650,6650,6650,6650,6650,6650,6650,6650,6650,6650,6650,6650,6650,6650,6650,6650,
6650,6650,6650,6650,6650,6650,6650,6650,6650,6650,6650,6650,6650,6650,6650,6650,
6650,6650,6650,6650,6650,6650,6650,6650,6650,6650,6650,6650,6650,6650,6650,6650,
6650,6650,6650,6650,6650,6650,6650,6650,6650,6650,6650,6650,6650,6650,6650,6650,
6650,6650,6650,6650,6650,6650,6650,6650,6650,6650,6650,6650,6650,6650,6650,6650,
6650,6650,6650,6650,6650,6650,6650,6650,6650,6650,6650,6650,6650,6650,6650,6650,
6650,6650,6650,6650,6650,6650,6650,6650,6650,6650,6650,6650,6650,6650,6650,6650,
6650,6650,6650,6650,6650,6650,6650,6650,6650,6650,6650,6650,6650,6650,6650,6650,
6650,6650,6650,6650,6650,6650,6650,6650,6650,6650,6650,6650,6650,6650,6650,6650,
6650,6650,6650,6650,6650,6650,6650,6650,6650,6650,6650,6650,6650,6650,6650,6650,
6650,6650,6650,6650,6650,6650,6650,6650,6650,6650,6650,6650,6650,6650,6650,6650,
6650,6650,6650,6650,6650,6650,6650,6650,6650,6650,6650,6650,6650,6650,6650,6650,
6650,6650,6650,6650,6650,6650,6650,6650,6650,6650,6650,6650,6650,6650,6650,6650,
6650,6650,6650,6650,6650,6650,6650,6650,6650,6650,6650,6650,6650,6650,6650,6650
</chunk>
   <chunk x="64" y="32" width="16" height="16">
6650,6650,6650,6650,6650,6650,6650,6650,6650,6650,6650,6650,6650,6650,6650,6650,
6650,6650,6650,6650,6650,6650,6650,6650,6650,6650,6650,6650,6650,6650,6650,6650,
6650,6650,6650,6650,6650,6650,6650,6650,6650,6650,6650,6650,6650,6650,6650,6650,
6650,6650,6650,6650,6650,6650,6650,6650,6650,6650,6650,6650,6650,6650,6650,6650,
6650,6650,6650,6650,6650,6650,6650,6650,6650,6650,6650,6650,6650,6650,6650,6650,
6650,6650,6650,6650,6650,6650,6650,6650,6650,6650,6650,6650,6650,6650,6650,6650,
6650,6650,6650,6650,6650,6650,6650,6650,6650,6650,6650,6650,6650,6650,6650,6650,
6650,6650,6650,6650,6650,6650,6650,6650,6650,6650,6650,6650,6650,6650,6650,6650,
6650,6650,6650,6650,6650,6650,6650,6650,6650,6650,6650,6650,6650,6650,6650,6650,
6650,6650,6650,6650,6650,6650,6650,6650,6650,6650,6650,6650,6650,6650,6650,6650,
6650,6650,6650,6650,6650,6650,6650,6650,6650,6650,6650,6650,6650,6650,6650,6650,
6650,6650,6650,6650,6650,6650,6650,6650,6650,6650,6650,6650,6650,6650,6650,6650,
6650,6650,6650,6650,6650,6650,6650,6650,6650,6650,6650,6650,6650,6650,6650,6650,
6650,6650,6650,6650,6650,6650,6650,6650,6650,6650,6650,6650,6650,6650,6650,6650,
6650,6650,6650,6650,6650,6650,6650,6650,6650,6650,6650,6650,6650,6650,6650,6650,
6650,6650,6650,6650,6650,6650,6650,6650,6650,6650,6650,6650,6650,6650,6650,6650
</chunk>
   <chunk x="80" y="32" width="16" height="16">
6650,0,0,0,0,0,0,0,0,0,0,0,0,0,0,0,
6650,0,0,0,0,0,0,0,0,0,0,0,0,0,0,0,
6650,0,0,0,0,0,0,0,0,0,0,0,0,0,0,0,
6650,0,0,0,0,0,0,0,0,0,0,0,0,0,0,0,
6650,0,0,0,0,0,0,0,0,0,0,0,0,0,0,0,
6650,0,0,0,0,0,0,0,0,0,0,0,0,0,0,0,
6650,0,0,0,0,0,0,0,0,0,0,0,0,0,0,0,
6650,0,0,0,0,0,0,0,0,0,0,0,0,0,0,0,
6650,0,0,0,0,0,0,0,0,0,0,0,0,0,0,0,
6650,0,0,0,0,0,0,0,0,0,0,0,0,0,0,0,
6650,0,0,0,0,0,0,0,0,0,0,0,0,0,0,0,
6650,0,0,0,0,0,0,0,0,0,0,0,0,0,0,0,
6650,0,0,0,0,0,0,0,0,0,0,0,0,0,0,0,
6650,0,0,0,0,0,0,0,0,0,0,0,0,0,0,0,
6650,0,0,0,0,0,0,0,0,0,0,0,0,0,0,0,
6650,0,0,0,0,0,0,0,0,0,0,0,0,0,0,0
</chunk>
   <chunk x="-32" y="48" width="16" height="16">
0,0,6650,6650,6650,6650,6650,6650,6650,6650,6650,6650,6650,6650,6650,6650,
0,0,6650,6650,6650,6650,6650,6650,6650,6650,6650,6650,6650,6650,6650,6650,
0,0,6650,6650,6650,6650,6650,6650,6650,6650,6650,6650,6650,6650,6650,6650,
0,0,6650,6650,6650,6650,6650,6650,6650,6650,6650,6650,6650,6650,6650,6650,
0,0,6650,6650,6650,6650,6650,6650,6650,6650,6650,6650,6650,6650,6650,6650,
0,0,6650,6650,6650,6650,6650,6650,6650,6650,6650,6650,6650,6650,6650,6650,
0,0,6650,6650,6650,6650,6650,6650,6650,6650,6650,6650,6650,6650,6650,6650,
0,0,6650,6650,6650,6650,6650,6650,6650,6650,6650,6650,6650,6650,6650,6650,
0,0,6650,6650,6650,6650,6650,6650,6650,6650,6650,6650,6650,6650,6650,6650,
0,0,6650,6650,6650,6650,6650,6650,6650,6650,6650,6650,6650,6650,6650,6650,
0,0,6650,6650,6650,6650,6650,6650,6650,6650,6650,6650,6650,6650,6650,6650,
0,0,6650,6650,6650,6650,6650,6650,6650,6650,6650,6650,6650,6650,6650,6650,
0,0,6650,6650,6650,6650,6650,6650,6650,6650,6650,6650,6650,6650,6650,6650,
0,0,6650,6650,6650,6650,6650,6650,6650,6650,6650,6650,6650,6650,6650,6650,
0,0,6650,6650,6650,6650,6650,6650,6650,6650,6650,6650,6650,6650,6650,6650,
0,0,6650,6650,6650,6650,6650,6650,6650,6650,6650,6650,6650,6650,6650,6650
</chunk>
   <chunk x="-16" y="48" width="16" height="16">
6650,6650,6650,6650,6650,6650,6650,6650,6650,6650,6650,6650,6650,6650,6650,6650,
6650,6650,6650,6650,6650,6650,6650,6650,6650,6650,6650,6650,6650,6650,6650,6650,
6650,6650,6650,6650,6650,6650,6650,6650,6650,6650,6650,6650,6650,6650,6650,6650,
6650,6650,6650,6650,6650,6650,6650,6650,6650,6650,6650,6650,6650,6650,6650,6650,
6650,6650,6650,6650,6650,6650,6650,6650,6650,6650,6650,6650,6650,6650,6650,6650,
6650,6650,6650,6650,6650,6650,6650,6650,6650,6650,6650,6650,6650,6650,6650,6650,
6650,6650,6650,6650,6650,6650,6650,6650,6650,6650,6650,6650,6650,6650,6650,6650,
6650,6650,6650,6650,6650,6650,6650,6650,6650,6650,6650,6650,6650,6650,6650,6650,
6650,6650,6650,6650,6650,6650,6650,6650,6650,6650,6650,6650,6650,6650,6650,6650,
6650,6650,6650,6650,6650,6650,6650,6650,6650,6650,6650,6650,6650,6650,6650,6650,
6650,6650,6650,6650,6650,6650,6650,6650,6650,6650,6650,6650,6650,6650,6650,6650,
6650,6650,6650,6650,6650,6650,6650,6650,6650,6650,6650,6650,6650,6650,6650,6650,
6650,6650,6650,6650,6650,6650,6650,6650,6650,6650,6650,6650,6650,6650,6650,6650,
6650,6650,6650,6650,6650,6650,6650,6650,6650,6650,6650,6650,6650,6650,6650,6650,
6650,6650,6650,6650,6650,6650,6650,6650,6650,6650,6650,6650,6650,6650,6650,6650,
6650,6650,6650,6650,6650,6650,6650,6650,6650,6650,6650,6650,6650,6650,6650,6650
</chunk>
   <chunk x="0" y="48" width="16" height="16">
6650,6650,6650,6650,6650,6650,6650,6650,6650,6650,6650,6650,6650,6650,6650,6650,
6650,6650,6650,6650,6650,6650,6650,6650,6650,6650,6650,6650,6650,6650,6650,6650,
6650,6650,6650,6650,6650,6650,6650,6650,6650,6650,6650,6650,6650,6650,6650,6650,
6650,6650,6650,6650,6650,6650,6650,6650,6650,6650,6650,6650,6650,6650,6650,6650,
6650,6650,6650,6650,6650,6650,6650,6650,6650,6650,6650,6650,6650,6650,6650,6650,
6650,6650,6650,6650,6650,6650,6650,6650,6650,6650,6650,6650,6650,6650,6650,6650,
6650,6650,6650,6650,6650,6650,6650,6650,6650,6650,6650,6650,6650,6650,6650,6650,
6650,6650,6650,6650,6650,6650,6650,6650,6650,6650,6650,6650,6650,6650,6650,6650,
6650,6650,6650,6650,6650,6650,6650,6650,6650,6650,6650,6650,6650,6650,6650,6650,
6650,6650,6650,6650,6650,6650,6650,6650,6650,6650,6650,6650,6650,6650,6650,6650,
6650,6650,6650,6650,6650,6650,6650,6650,6650,6650,6650,6650,6650,6650,6650,6650,
6650,6650,6650,6650,6650,6650,6650,6650,6650,6650,6650,6650,6650,6650,6650,6650,
6650,6650,6650,6650,6650,6650,6650,6650,6650,6650,6650,6650,6650,6650,6650,6650,
6650,6650,6650,6650,6650,6650,6650,6650,6650,6650,6650,6650,6650,6650,6650,6650,
6650,6650,6650,6650,6650,6650,6650,6650,6650,6650,6650,6650,6650,6650,6650,6650,
6650,6650,6650,6650,6650,6650,6650,6650,6650,6650,6650,6650,6650,6650,6650,6650
</chunk>
   <chunk x="16" y="48" width="16" height="16">
6650,6650,6650,6650,6650,6650,6650,6650,6650,6650,6650,6650,6650,6650,6650,6650,
6650,6650,6650,6650,6650,6650,6650,6650,6650,6650,6650,6650,6650,6650,6650,6650,
6650,6650,6650,6650,6650,6650,6650,6650,6650,6650,6650,6650,6650,6650,6650,6650,
6650,6650,6650,6650,6650,6650,6650,6650,6650,6650,6650,6650,6650,6650,6650,6650,
6650,6650,6650,6650,6650,6650,6650,6650,6650,6650,6650,6650,6650,6650,6650,6650,
6650,6650,6650,6650,6650,6650,6650,6650,6650,6650,6650,6650,6650,6650,6650,6650,
6650,6650,6650,6650,6650,6650,6650,6650,6650,6650,6650,6650,6650,6650,6650,6650,
6650,6650,6650,6650,6650,6650,6650,6650,6650,6650,6650,6650,6650,6650,6650,6650,
6650,6650,6650,6650,6650,6650,6650,6650,6650,6650,6650,6650,6650,6650,6650,6650,
6650,6650,6650,6650,6650,6650,6650,6650,6650,6650,6650,6650,6650,6650,6650,6650,
6650,6650,6650,6650,6650,6650,6650,6650,6650,6650,6650,6650,6650,6650,6650,6650,
6650,6650,6650,6650,6650,6650,6650,6650,6650,6650,6650,6650,6650,6650,6650,6650,
6650,6650,6650,6650,6650,6650,6650,6650,6650,6650,6650,6650,6650,6650,6650,6650,
6650,6650,6650,6650,6650,6650,6650,6650,6650,6650,6650,6650,6650,6650,6650,6650,
6650,6650,6650,6650,6650,6650,6650,6650,6650,6650,6650,6650,6650,6650,6650,6650,
6650,6650,6650,6650,6650,6650,6650,6650,6650,6650,6650,6650,6650,6650,6650,6650
</chunk>
   <chunk x="32" y="48" width="16" height="16">
6650,6650,6650,6650,6650,6650,6650,6650,6650,6650,6650,6650,6650,6650,6650,6650,
6650,6650,6650,6650,6650,6650,6650,6650,6650,6650,6650,6650,6650,6650,6650,6650,
6650,6650,6650,6650,6650,6650,6650,6650,6650,6650,6650,6650,6650,6650,6650,6650,
6650,6650,6650,6650,6650,6650,6650,6650,6650,6650,6650,6650,6650,6650,6650,6650,
6650,6650,6650,6650,6650,6650,6650,6650,6650,6650,6650,6650,6650,6650,6650,6650,
6650,6650,6650,6650,6650,6650,6650,6650,6650,6650,6650,6650,6650,6650,6650,6650,
6650,6650,6650,6650,6650,6650,6650,6650,6650,6650,6650,6650,6650,6650,6650,6650,
6650,6650,6650,6650,6650,6650,6650,6650,6650,6650,6650,6650,6650,6650,6650,6650,
6650,6650,6650,6650,6650,6650,6650,6650,6650,6650,6650,6650,6650,6650,6650,6650,
6650,6650,6650,6650,6650,6650,6650,6650,6650,6650,6650,6650,6650,6650,6650,6650,
6650,6650,6650,6650,6650,6650,6650,6650,6650,6650,6650,6650,6650,6650,6650,6650,
6650,6650,6650,6650,6650,6650,6650,6650,6650,6650,6650,6650,6650,6650,6650,6650,
6650,6650,6650,6650,6650,6650,6650,6650,6650,6650,6650,6650,6650,6650,6650,6650,
6650,6650,6650,6650,6650,6650,6650,6650,6650,6650,6650,6650,6650,6650,6650,6650,
6650,6650,6650,6650,6650,6650,6650,6650,6650,6650,6650,6650,6650,6650,6650,6650,
6650,6650,6650,6650,6650,6650,6650,6650,6650,6650,6650,6650,6650,6650,6650,6650
</chunk>
   <chunk x="48" y="48" width="16" height="16">
6650,6650,6650,6650,6650,6650,6650,6650,6650,6650,6650,6650,6650,6650,6650,6650,
6650,6650,6650,6650,6650,6650,6650,6650,6650,6650,6650,6650,6650,6650,6650,6650,
6650,6650,6650,6650,6650,6650,6650,6650,6650,6650,6650,6650,6650,6650,6650,6650,
6650,6650,6650,6650,6650,6650,6650,6650,6650,6650,6650,6650,6650,6650,6650,6650,
6650,6650,6650,6650,6650,6650,6650,6650,6650,6650,6650,6650,6650,6650,6650,6650,
6650,6650,6650,6650,6650,6650,6650,6650,6650,6650,6650,6650,6650,6650,6650,6650,
6650,6650,6650,6650,6650,6650,6650,6650,6650,6650,6650,6650,6650,6650,6650,6650,
6650,6650,6650,6650,6650,6650,6650,6650,6650,6650,6650,6650,6650,6650,6650,6650,
6650,6650,6650,6650,6650,6650,6650,6650,6650,6650,6650,6650,6650,6650,6650,6650,
6650,6650,6650,6650,6650,6650,6650,6650,6650,6650,6650,6650,6650,6650,6650,6650,
6650,6650,6650,6650,6650,6650,6650,6650,6650,6650,6650,6650,6650,6650,6650,6650,
6650,6650,6650,6650,6650,6650,6650,6650,6650,6650,6650,6650,6650,6650,6650,6650,
6650,6650,6650,6650,6650,6650,6650,6650,6650,6650,6650,6650,6650,6650,6650,6650,
6650,6650,6650,6650,6650,6650,6650,6650,6650,6650,6650,6650,6650,6650,6650,6650,
6650,6650,6650,6650,6650,6650,6650,6650,6650,6650,6650,6650,6650,6650,6650,6650,
6650,6650,6650,6650,6650,6650,6650,6650,6650,6650,6650,6650,6650,6650,6650,6650
</chunk>
   <chunk x="64" y="48" width="16" height="16">
6650,6650,6650,6650,6650,6650,6650,6650,6650,6650,6650,6650,6650,6650,6650,6650,
6650,6650,6650,6650,6650,6650,6650,6650,6650,6650,6650,6650,6650,6650,6650,6650,
6650,6650,6650,6650,6650,6650,6650,6650,6650,6650,6650,6650,6650,6650,6650,6650,
6650,6650,6650,6650,6650,6650,6650,6650,6650,6650,6650,6650,6650,6650,6650,6650,
6650,6650,6650,6650,6650,6650,6650,6650,6650,6650,6650,6650,6650,6650,6650,6650,
6650,6650,6650,6650,6650,6650,6650,6650,6650,6650,6650,6650,6650,6650,6650,6650,
6650,6650,6650,6650,6650,6650,6650,6650,6650,6650,6650,6650,6650,6650,6650,6650,
6650,6650,6650,6650,6650,6650,6650,6650,6650,6650,6650,6650,6650,6650,6650,6650,
6650,6650,6650,6650,6650,6650,6650,6650,6650,6650,6650,6650,6650,6650,6650,6650,
6650,6650,6650,6650,6650,6650,6650,6650,6650,6650,6650,6650,6650,6650,6650,6650,
6650,6650,6650,6650,6650,6650,6650,6650,6650,6650,6650,6650,6650,6650,6650,6650,
6650,6650,6650,6650,6650,6650,6650,6650,6650,6650,6650,6650,6650,6650,6650,6650,
6650,6650,6650,6650,6650,6650,6650,6650,6650,6650,6650,6650,6650,6650,6650,6650,
6650,6650,6650,6650,6650,6650,6650,6650,6650,6650,6650,6650,6650,6650,6650,6650,
6650,6650,6650,6650,6650,6650,6650,6650,6650,6650,6650,6650,6650,6650,6650,6650,
6650,6650,6650,6650,6650,6650,6650,6650,6650,6650,6650,6650,6650,6650,6650,6650
</chunk>
   <chunk x="80" y="48" width="16" height="16">
6650,0,0,0,0,0,0,0,0,0,0,0,0,0,0,0,
6650,0,0,0,0,0,0,0,0,0,0,0,0,0,0,0,
6650,0,0,0,0,0,0,0,0,0,0,0,0,0,0,0,
6650,0,0,0,0,0,0,0,0,0,0,0,0,0,0,0,
6650,0,0,0,0,0,0,0,0,0,0,0,0,0,0,0,
6650,0,0,0,0,0,0,0,0,0,0,0,0,0,0,0,
6650,0,0,0,0,0,0,0,0,0,0,0,0,0,0,0,
6650,0,0,0,0,0,0,0,0,0,0,0,0,0,0,0,
6650,0,0,0,0,0,0,0,0,0,0,0,0,0,0,0,
6650,0,0,0,0,0,0,0,0,0,0,0,0,0,0,0,
6650,0,0,0,0,0,0,0,0,0,0,0,0,0,0,0,
6650,0,0,0,0,0,0,0,0,0,0,0,0,0,0,0,
6650,0,0,0,0,0,0,0,0,0,0,0,0,0,0,0,
6650,0,0,0,0,0,0,0,0,0,0,0,0,0,0,0,
6650,0,0,0,0,0,0,0,0,0,0,0,0,0,0,0,
6650,0,0,0,0,0,0,0,0,0,0,0,0,0,0,0
</chunk>
   <chunk x="-32" y="64" width="16" height="16">
0,0,6650,6650,6650,6650,6650,6650,6650,6650,6650,6650,6650,6650,6650,6650,
0,0,6650,6650,6650,6650,6650,6650,6650,6650,6650,6650,6650,6650,6650,6650,
0,0,6650,6650,6650,6650,6650,6650,6650,6650,6650,6650,6650,6650,6650,6650,
0,0,6650,6650,6650,6650,6650,6650,6650,6650,6650,6650,6650,6650,6650,6650,
0,0,6650,6650,6650,6650,6650,6650,6650,6650,6650,6650,6650,6650,6650,6650,
0,0,6650,6650,6650,6650,6650,6650,6650,6650,6650,6650,6650,6650,6650,6650,
0,0,6650,6650,6650,6650,6650,6650,6650,6650,6650,6650,6650,6650,6650,6650,
0,0,6650,6650,6650,6650,6650,6650,6650,6650,6650,6650,6650,6650,6650,6650,
0,0,6650,6650,6650,6650,6650,6650,6650,6650,6650,6650,6650,6650,6650,6650,
0,0,6650,6650,6650,6650,6650,6650,6650,6650,6650,6650,6650,6650,6650,6650,
0,0,6650,6650,6650,6650,6650,6650,6650,6650,6650,6650,6650,6650,6650,6650,
0,0,6650,6650,6650,6650,6650,6650,6650,6650,6650,6650,6650,6650,6650,6650,
0,0,6650,6650,6650,6650,6650,6650,6650,6650,6650,6650,6650,6650,6650,6650,
0,0,6650,6650,6650,6650,6650,6650,6650,6650,6650,6650,6650,6650,6650,6650,
0,0,6650,6650,6650,6650,6650,6650,6650,6650,6650,6650,6650,6650,6650,6650,
0,0,6650,6650,6650,6650,6650,6650,6650,6650,6650,6650,6650,6650,6650,6650
</chunk>
   <chunk x="-16" y="64" width="16" height="16">
6650,6650,6650,6650,6650,6650,6650,6650,6650,6650,6650,6650,6650,6650,6650,6650,
6650,6650,6650,6650,6650,6650,6650,6650,6650,6650,6650,6650,6650,6650,6650,6650,
6650,6650,6650,6650,6650,6650,6650,6650,6650,6650,6650,6650,6650,6650,6650,6650,
6650,6650,6650,6650,6650,6650,6650,6650,6650,6650,6650,6650,6650,6650,6650,6650,
6650,6650,6650,6650,6650,6650,6650,6650,6650,6650,6650,6650,6650,6650,6650,6650,
6650,6650,6650,6650,6650,6650,6650,6650,6650,6650,6650,6650,6650,6650,6650,6650,
6650,6650,6650,6650,6650,6650,6650,6650,6650,6650,6650,6650,6650,6650,6650,6650,
6650,6650,6650,6650,6650,6650,6650,6650,6650,6650,6650,6650,6650,6650,6650,6650,
6650,6650,6650,6650,6650,6650,6650,6650,6650,6650,6650,6650,6650,6650,6650,6650,
6650,6650,6650,6650,6650,6650,6650,6650,6650,6650,6650,6650,6650,6650,6650,6650,
6650,6650,6650,6650,6650,6650,6650,6650,6650,6650,6650,6650,6650,6650,6650,6650,
6650,6650,6650,6650,6650,6650,6650,6650,6650,6650,6650,6650,6650,6650,6650,6650,
6650,6650,6650,6650,6650,6650,6650,6650,6650,6650,6650,6650,6650,6650,6650,6650,
6650,6650,6650,6650,6650,6650,6650,6650,6650,6650,6650,6650,6650,6650,6650,6650,
6650,6650,6650,6650,6650,6650,6650,6650,6650,6650,6650,6650,6650,6650,6650,6650,
6650,6650,6650,6650,6650,6650,6650,6650,6650,6650,6650,6650,6650,6650,6650,6650
</chunk>
   <chunk x="0" y="64" width="16" height="16">
6650,6650,6650,6650,6650,6650,6650,6650,6650,6650,6650,6650,6650,6650,6650,6650,
6650,6650,6650,6650,6650,6650,6650,6650,6650,6650,6650,6650,6650,6650,6650,6650,
6650,6650,6650,6650,6650,6650,6650,6650,6650,6650,6650,6650,6650,6650,6650,6650,
6650,6650,6650,6650,6650,6650,6650,6650,6650,6650,6650,6650,6650,6650,6650,6650,
6650,6650,6650,6650,6650,6650,6650,6650,6650,6650,6650,6650,6650,6650,6650,6650,
6650,6650,6650,6650,6650,6650,6650,6650,6650,6650,6650,6650,6650,6650,6650,6650,
6650,6650,6650,6650,6650,6650,6650,6650,6650,6650,6650,6650,6650,6650,6650,6650,
6650,6650,6650,6650,6650,6650,6650,6650,6650,6650,6650,6650,6650,6650,6650,6650,
6650,6650,6650,6650,6650,6650,6650,6650,6650,6650,6650,6650,6650,6650,6650,6650,
6650,6650,6650,6650,6650,6650,6650,6650,6650,6650,6650,6650,6650,6650,6650,6650,
6650,6650,6650,6650,6650,6650,6650,6650,6650,6650,6650,6650,6650,6650,6650,6650,
6650,6650,6650,6650,6650,6650,6650,6650,6650,6650,6650,6650,6650,6650,6650,6650,
6650,6650,6650,6650,6650,6650,6650,6650,6650,6650,6650,6650,6650,6650,6650,6650,
6650,6650,6650,6650,6650,6650,6650,6650,6650,6650,6650,6650,6650,6650,6650,6650,
6650,6650,6650,6650,6650,6650,6650,6650,6650,6650,6650,6650,6650,6650,6650,6650,
6650,6650,6650,6650,6650,6650,6650,6650,6650,6650,6650,6650,6650,6650,6650,6650
</chunk>
   <chunk x="16" y="64" width="16" height="16">
6650,6650,6650,6650,6650,6650,6650,6650,6650,6650,6650,6650,6650,6650,6650,6650,
6650,6650,6650,6650,6650,6650,6650,6650,6650,6650,6650,6650,6650,6650,6650,6650,
6650,6650,6650,6650,6650,6650,6650,6650,6650,6650,6650,6650,6650,6650,6650,6650,
6650,6650,6650,6650,6650,6650,6650,6650,6650,6650,6650,6650,6650,6650,6650,6650,
6650,6650,6650,6650,6650,6650,6650,6650,6650,6650,6650,6650,6650,6650,6650,6650,
6650,6650,6650,6650,6650,6650,6650,6650,6650,6650,6650,6650,6650,6650,6650,6650,
6650,6650,6650,6650,6650,6650,6650,6650,6650,6650,6650,6650,6650,6650,6650,6650,
6650,6650,6650,6650,6650,6650,6650,6650,6650,6650,6650,6650,6650,6650,6650,6650,
6650,6650,6650,6650,6650,6650,6650,6650,6650,6650,6650,6650,6650,6650,6650,6650,
6650,6650,6650,6650,6650,6650,6650,6650,6650,6650,6650,6650,6650,6650,6650,6650,
6650,6650,6650,6650,6650,6650,6650,6650,6650,6650,6650,6650,6650,6650,6650,6650,
6650,6650,6650,6650,6650,6650,6650,6650,6650,6650,6650,6650,6650,6650,6650,6650,
6650,6650,6650,6650,6650,6650,6650,6650,6650,6650,6650,6650,6650,6650,6650,6650,
6650,6650,6650,6650,6650,6650,6650,6650,6650,6650,6650,6650,6650,6650,6650,6650,
6650,6650,6650,6650,6650,6650,6650,6650,6650,6650,6650,6650,6650,6650,6650,6650,
6650,6650,6650,6650,6650,6650,6650,6650,6650,6650,6650,6650,6650,6650,6650,6650
</chunk>
   <chunk x="32" y="64" width="16" height="16">
6650,6650,6650,6650,6650,6650,6650,6650,6650,6650,6650,6650,6650,6650,6650,6650,
6650,6650,6650,6650,6650,6650,6650,6650,6650,6650,6650,6650,6650,6650,6650,6650,
6650,6650,6650,6650,6650,6650,6650,6650,6650,6650,6650,6650,6650,6650,6650,6650,
6650,6650,6650,6650,6650,6650,6650,6650,6650,6650,6650,6650,6650,6650,6650,6650,
6650,6650,6650,6650,6650,6650,6650,6650,6650,6650,6650,6650,6650,6650,6650,6650,
6650,6650,6650,6650,6650,6650,6650,6650,6650,6650,6650,6650,6650,6650,6650,6650,
6650,6650,6650,6650,6650,6650,6650,6650,6650,6650,6650,6650,6650,6650,6650,6650,
6650,6650,6650,6650,6650,6650,6650,6650,6650,6650,6650,6650,6650,6650,6650,6650,
6650,6650,6650,6650,6650,6650,6650,6650,6650,6650,6650,6650,6650,6650,6650,6650,
6650,6650,6650,6650,6650,6650,6650,6650,6650,6650,6650,6650,6650,6650,6650,6650,
6650,6650,6650,6650,6650,6650,6650,6650,6650,6650,6650,6650,6650,6650,6650,6650,
6650,6650,6650,6650,6650,6650,6650,6650,6650,6650,6650,6650,6650,6650,6650,6650,
6650,6650,6650,6650,6650,6650,6650,6650,6650,6650,6650,6650,6650,6650,6650,6650,
6650,6650,6650,6650,6650,6650,6650,6650,6650,6650,6650,6650,6650,6650,6650,6650,
6650,6650,6650,6650,6650,6650,6650,6650,6650,6650,6650,6650,6650,6650,6650,6650,
6650,6650,6650,6650,6650,6650,6650,6650,6650,6650,6650,6650,6650,6650,6650,6650
</chunk>
   <chunk x="48" y="64" width="16" height="16">
6650,6650,6650,6650,6650,6650,6650,6650,6650,6650,6650,6650,6650,6650,6650,6650,
6650,6650,6650,6650,6650,6650,6650,6650,6650,6650,6650,6650,6650,6650,6650,6650,
6650,6650,6650,6650,6650,6650,6650,6650,6650,6650,6650,6650,6650,6650,6650,6650,
6650,6650,6650,6650,6650,6650,6650,6650,6650,6650,6650,6650,6650,6650,6650,6650,
6650,6650,6650,6650,6650,6650,6650,6650,6650,6650,6650,6650,6650,6650,6650,6650,
6650,6650,6650,6650,6650,6650,6650,6650,6650,6650,6650,6650,6650,6650,6650,6650,
6650,6650,6650,6650,6650,6650,6650,6650,6650,6650,6650,6650,6650,6650,6650,6650,
6650,6650,6650,6650,6650,6650,6650,6650,6650,6650,6650,6650,6650,6650,6650,6650,
6650,6650,6650,6650,6650,6650,6650,6650,6650,6650,6650,6650,6650,6650,6650,6650,
6650,6650,6650,6650,6650,6650,6650,6650,6650,6650,6650,6650,6650,6650,6650,6650,
6650,6650,6650,6650,6650,6650,6650,6650,6650,6650,6650,6650,6650,6650,6650,6650,
6650,6650,6650,6650,6650,6650,6650,6650,6650,6650,6650,6650,6650,6650,6650,6650,
6650,6650,6650,6650,6650,6650,6650,6650,6650,6650,6650,6650,6650,6650,6650,6650,
6650,6650,6650,6650,6650,6650,6650,6650,6650,6650,6650,6650,6650,6650,6650,6650,
6650,6650,6650,6650,6650,6650,6650,6650,6650,6650,6650,6650,6650,6650,6650,6650,
6650,6650,6650,6650,6650,6650,6650,6650,6650,6650,6650,6650,6650,6650,6650,6650
</chunk>
   <chunk x="64" y="64" width="16" height="16">
6650,6650,6650,6650,6650,6650,6650,6650,6650,6650,6650,6650,6650,6650,6650,6650,
6650,6650,6650,6650,6650,6650,6650,6650,6650,6650,6650,6650,6650,6650,6650,6650,
6650,6650,6650,6650,6650,6650,6650,6650,6650,6650,6650,6650,6650,6650,6650,6650,
6650,6650,6650,6650,6650,6650,6650,6650,6650,6650,6650,6650,6650,6650,6650,6650,
6650,6650,6650,6650,6650,6650,6650,6650,6650,6650,6650,6650,6650,6650,6650,6650,
6650,6650,6650,6650,6650,6650,6650,6650,6650,6650,6650,6650,6650,6650,6650,6650,
6650,6650,6650,6650,6650,6650,6650,6650,6650,6650,6650,6650,6650,6650,6650,6650,
6650,6650,6650,6650,6650,6650,6650,6650,6650,6650,6650,6650,6650,6650,6650,6650,
6650,6650,6650,6650,6650,6650,6650,6650,6650,6650,6650,6650,6650,6650,6650,6650,
6650,6650,6650,6650,6650,6650,6650,6650,6650,6650,6650,6650,6650,6650,6650,6650,
6650,6650,6650,6650,6650,6650,6650,6650,6650,6650,6650,6650,6650,6650,6650,6650,
6650,6650,6650,6650,6650,6650,6650,6650,6650,6650,6650,6650,6650,6650,6650,6650,
6650,6650,6650,6650,6650,6650,6650,6650,6650,6650,6650,6650,6650,6650,6650,6650,
6650,6650,6650,6650,6650,6650,6650,6650,6650,6650,6650,6650,6650,6650,6650,6650,
6650,6650,6650,6650,6650,6650,6650,6650,6650,6650,6650,6650,6650,6650,6650,6650,
6650,6650,6650,6650,6650,6650,6650,6650,6650,6650,6650,6650,6650,6650,6650,6650
</chunk>
   <chunk x="80" y="64" width="16" height="16">
6650,0,0,0,0,0,0,0,0,0,0,0,0,0,0,0,
6650,0,0,0,0,0,0,0,0,0,0,0,0,0,0,0,
6650,0,0,0,0,0,0,0,0,0,0,0,0,0,0,0,
6650,0,0,0,0,0,0,0,0,0,0,0,0,0,0,0,
6650,0,0,0,0,0,0,0,0,0,0,0,0,0,0,0,
6650,0,0,0,0,0,0,0,0,0,0,0,0,0,0,0,
6650,0,0,0,0,0,0,0,0,0,0,0,0,0,0,0,
6650,0,0,0,0,0,0,0,0,0,0,0,0,0,0,0,
6650,0,0,0,0,0,0,0,0,0,0,0,0,0,0,0,
6650,0,0,0,0,0,0,0,0,0,0,0,0,0,0,0,
6650,0,0,0,0,0,0,0,0,0,0,0,0,0,0,0,
6650,0,0,0,0,0,0,0,0,0,0,0,0,0,0,0,
6650,0,0,0,0,0,0,0,0,0,0,0,0,0,0,0,
6650,0,0,0,0,0,0,0,0,0,0,0,0,0,0,0,
6650,0,0,0,0,0,0,0,0,0,0,0,0,0,0,0,
6650,0,0,0,0,0,0,0,0,0,0,0,0,0,0,0
</chunk>
   <chunk x="-32" y="80" width="16" height="16">
0,0,6650,6650,6650,6650,6650,6650,6650,6650,6650,6650,6650,6650,6650,6650,
0,0,0,0,0,0,0,0,0,0,0,0,0,0,0,0,
0,0,0,0,0,0,0,0,0,0,0,0,0,0,0,0,
0,0,0,0,0,0,0,0,0,0,0,0,0,0,0,0,
0,0,0,0,0,0,0,0,0,0,0,0,0,0,0,0,
0,0,0,0,0,0,0,0,0,0,0,0,0,0,0,0,
0,0,0,0,0,0,0,0,0,0,0,0,0,0,0,0,
0,0,0,0,0,0,0,0,0,0,0,0,0,0,0,0,
0,0,0,0,0,0,0,0,0,0,0,0,0,0,0,0,
0,0,0,0,0,0,0,0,0,0,0,0,0,0,0,0,
0,0,0,0,0,0,0,0,0,0,0,0,0,0,0,0,
0,0,0,0,0,0,0,0,0,0,0,0,0,0,0,0,
0,0,0,0,0,0,0,0,0,0,0,0,0,0,0,0,
0,0,0,0,0,0,0,0,0,0,0,0,0,0,0,0,
0,0,0,0,0,0,0,0,0,0,0,0,0,0,0,0,
0,0,0,0,0,0,0,0,0,0,0,0,0,0,0,0
</chunk>
   <chunk x="-16" y="80" width="16" height="16">
6650,6650,6650,6650,6650,6650,6650,6650,6650,6650,6650,6650,6650,6650,6650,6650,
0,0,0,0,0,0,0,0,0,0,0,0,0,0,0,0,
0,0,0,0,0,0,0,0,0,0,0,0,0,0,0,0,
0,0,0,0,0,0,0,0,0,0,0,0,0,0,0,0,
0,0,0,0,0,0,0,0,0,0,0,0,0,0,0,0,
0,0,0,0,0,0,0,0,0,0,0,0,0,0,0,0,
0,0,0,0,0,0,0,0,0,0,0,0,0,0,0,0,
0,0,0,0,0,0,0,0,0,0,0,0,0,0,0,0,
0,0,0,0,0,0,0,0,0,0,0,0,0,0,0,0,
0,0,0,0,0,0,0,0,0,0,0,0,0,0,0,0,
0,0,0,0,0,0,0,0,0,0,0,0,0,0,0,0,
0,0,0,0,0,0,0,0,0,0,0,0,0,0,0,0,
0,0,0,0,0,0,0,0,0,0,0,0,0,0,0,0,
0,0,0,0,0,0,0,0,0,0,0,0,0,0,0,0,
0,0,0,0,0,0,0,0,0,0,0,0,0,0,0,0,
0,0,0,0,0,0,0,0,0,0,0,0,0,0,0,0
</chunk>
   <chunk x="0" y="80" width="16" height="16">
6650,6650,6650,6650,6650,6650,6650,6650,6650,6650,6650,6650,6650,6650,6650,6650,
0,0,0,0,0,0,0,0,0,0,0,0,0,0,0,0,
0,0,0,0,0,0,0,0,0,0,0,0,0,0,0,0,
0,0,0,0,0,0,0,0,0,0,0,0,0,0,0,0,
0,0,0,0,0,0,0,0,0,0,0,0,0,0,0,0,
0,0,0,0,0,0,0,0,0,0,0,0,0,0,0,0,
0,0,0,0,0,0,0,0,0,0,0,0,0,0,0,0,
0,0,0,0,0,0,0,0,0,0,0,0,0,0,0,0,
0,0,0,0,0,0,0,0,0,0,0,0,0,0,0,0,
0,0,0,0,0,0,0,0,0,0,0,0,0,0,0,0,
0,0,0,0,0,0,0,0,0,0,0,0,0,0,0,0,
0,0,0,0,0,0,0,0,0,0,0,0,0,0,0,0,
0,0,0,0,0,0,0,0,0,0,0,0,0,0,0,0,
0,0,0,0,0,0,0,0,0,0,0,0,0,0,0,0,
0,0,0,0,0,0,0,0,0,0,0,0,0,0,0,0,
0,0,0,0,0,0,0,0,0,0,0,0,0,0,0,0
</chunk>
   <chunk x="16" y="80" width="16" height="16">
6650,6650,6650,6650,6650,6650,6650,6650,6650,6650,6650,6650,6650,6650,6650,6650,
0,0,0,0,0,0,0,0,0,0,0,0,0,0,0,0,
0,0,0,0,0,0,0,0,0,0,0,0,0,0,0,0,
0,0,0,0,0,0,0,0,0,0,0,0,0,0,0,0,
0,0,0,0,0,0,0,0,0,0,0,0,0,0,0,0,
0,0,0,0,0,0,0,0,0,0,0,0,0,0,0,0,
0,0,0,0,0,0,0,0,0,0,0,0,0,0,0,0,
0,0,0,0,0,0,0,0,0,0,0,0,0,0,0,0,
0,0,0,0,0,0,0,0,0,0,0,0,0,0,0,0,
0,0,0,0,0,0,0,0,0,0,0,0,0,0,0,0,
0,0,0,0,0,0,0,0,0,0,0,0,0,0,0,0,
0,0,0,0,0,0,0,0,0,0,0,0,0,0,0,0,
0,0,0,0,0,0,0,0,0,0,0,0,0,0,0,0,
0,0,0,0,0,0,0,0,0,0,0,0,0,0,0,0,
0,0,0,0,0,0,0,0,0,0,0,0,0,0,0,0,
0,0,0,0,0,0,0,0,0,0,0,0,0,0,0,0
</chunk>
   <chunk x="32" y="80" width="16" height="16">
6650,6650,6650,6650,6650,6650,6650,6650,6650,6650,6650,6650,6650,6650,6650,6650,
0,0,0,0,0,0,0,0,0,0,0,0,0,0,0,0,
0,0,0,0,0,0,0,0,0,0,0,0,0,0,0,0,
0,0,0,0,0,0,0,0,0,0,0,0,0,0,0,0,
0,0,0,0,0,0,0,0,0,0,0,0,0,0,0,0,
0,0,0,0,0,0,0,0,0,0,0,0,0,0,0,0,
0,0,0,0,0,0,0,0,0,0,0,0,0,0,0,0,
0,0,0,0,0,0,0,0,0,0,0,0,0,0,0,0,
0,0,0,0,0,0,0,0,0,0,0,0,0,0,0,0,
0,0,0,0,0,0,0,0,0,0,0,0,0,0,0,0,
0,0,0,0,0,0,0,0,0,0,0,0,0,0,0,0,
0,0,0,0,0,0,0,0,0,0,0,0,0,0,0,0,
0,0,0,0,0,0,0,0,0,0,0,0,0,0,0,0,
0,0,0,0,0,0,0,0,0,0,0,0,0,0,0,0,
0,0,0,0,0,0,0,0,0,0,0,0,0,0,0,0,
0,0,0,0,0,0,0,0,0,0,0,0,0,0,0,0
</chunk>
   <chunk x="48" y="80" width="16" height="16">
6650,6650,6650,6650,6650,6650,6650,6650,6650,6650,6650,6650,6650,6650,6650,6650,
0,0,0,0,0,0,0,0,0,0,0,0,0,0,0,0,
0,0,0,0,0,0,0,0,0,0,0,0,0,0,0,0,
0,0,0,0,0,0,0,0,0,0,0,0,0,0,0,0,
0,0,0,0,0,0,0,0,0,0,0,0,0,0,0,0,
0,0,0,0,0,0,0,0,0,0,0,0,0,0,0,0,
0,0,0,0,0,0,0,0,0,0,0,0,0,0,0,0,
0,0,0,0,0,0,0,0,0,0,0,0,0,0,0,0,
0,0,0,0,0,0,0,0,0,0,0,0,0,0,0,0,
0,0,0,0,0,0,0,0,0,0,0,0,0,0,0,0,
0,0,0,0,0,0,0,0,0,0,0,0,0,0,0,0,
0,0,0,0,0,0,0,0,0,0,0,0,0,0,0,0,
0,0,0,0,0,0,0,0,0,0,0,0,0,0,0,0,
0,0,0,0,0,0,0,0,0,0,0,0,0,0,0,0,
0,0,0,0,0,0,0,0,0,0,0,0,0,0,0,0,
0,0,0,0,0,0,0,0,0,0,0,0,0,0,0,0
</chunk>
   <chunk x="64" y="80" width="16" height="16">
6650,6650,6650,6650,6650,6650,6650,6650,6650,6650,6650,6650,6650,6650,6650,6650,
0,0,0,0,0,0,0,0,0,0,0,0,0,0,0,0,
0,0,0,0,0,0,0,0,0,0,0,0,0,0,0,0,
0,0,0,0,0,0,0,0,0,0,0,0,0,0,0,0,
0,0,0,0,0,0,0,0,0,0,0,0,0,0,0,0,
0,0,0,0,0,0,0,0,0,0,0,0,0,0,0,0,
0,0,0,0,0,0,0,0,0,0,0,0,0,0,0,0,
0,0,0,0,0,0,0,0,0,0,0,0,0,0,0,0,
0,0,0,0,0,0,0,0,0,0,0,0,0,0,0,0,
0,0,0,0,0,0,0,0,0,0,0,0,0,0,0,0,
0,0,0,0,0,0,0,0,0,0,0,0,0,0,0,0,
0,0,0,0,0,0,0,0,0,0,0,0,0,0,0,0,
0,0,0,0,0,0,0,0,0,0,0,0,0,0,0,0,
0,0,0,0,0,0,0,0,0,0,0,0,0,0,0,0,
0,0,0,0,0,0,0,0,0,0,0,0,0,0,0,0,
0,0,0,0,0,0,0,0,0,0,0,0,0,0,0,0
</chunk>
   <chunk x="80" y="80" width="16" height="16">
6650,0,0,0,0,0,0,0,0,0,0,0,0,0,0,0,
0,0,0,0,0,0,0,0,0,0,0,0,0,0,0,0,
0,0,0,0,0,0,0,0,0,0,0,0,0,0,0,0,
0,0,0,0,0,0,0,0,0,0,0,0,0,0,0,0,
0,0,0,0,0,0,0,0,0,0,0,0,0,0,0,0,
0,0,0,0,0,0,0,0,0,0,0,0,0,0,0,0,
0,0,0,0,0,0,0,0,0,0,0,0,0,0,0,0,
0,0,0,0,0,0,0,0,0,0,0,0,0,0,0,0,
0,0,0,0,0,0,0,0,0,0,0,0,0,0,0,0,
0,0,0,0,0,0,0,0,0,0,0,0,0,0,0,0,
0,0,0,0,0,0,0,0,0,0,0,0,0,0,0,0,
0,0,0,0,0,0,0,0,0,0,0,0,0,0,0,0,
0,0,0,0,0,0,0,0,0,0,0,0,0,0,0,0,
0,0,0,0,0,0,0,0,0,0,0,0,0,0,0,0,
0,0,0,0,0,0,0,0,0,0,0,0,0,0,0,0,
0,0,0,0,0,0,0,0,0,0,0,0,0,0,0,0
</chunk>
  </data>
 </layer>
 <layer id="1" name="Chão" width="30" height="20">
  <data encoding="csv">
   <chunk x="0" y="-48" width="16" height="16">
0,0,0,0,0,0,0,0,0,0,0,0,0,0,0,0,
0,0,0,0,0,0,0,0,0,0,0,0,0,0,0,0,
0,0,0,0,0,0,0,0,0,0,0,0,0,0,0,0,
0,0,0,0,0,0,0,0,0,0,0,0,0,0,0,0,
0,0,0,0,0,0,0,0,0,0,0,0,0,0,0,0,
0,0,0,31,31,31,31,31,31,37,37,38,37,38,37,38,
0,0,0,31,31,31,31,31,31,62,62,63,62,63,62,63,
0,0,0,31,31,31,31,31,31,37,37,38,37,38,37,38,
0,0,0,31,31,31,31,31,31,62,62,63,62,63,62,63,
0,0,0,31,31,31,31,31,31,37,37,38,37,38,37,38,
0,0,0,31,31,31,31,31,31,62,62,63,62,63,62,63,
0,0,0,31,31,31,31,31,31,37,37,38,37,38,37,38,
0,0,0,31,31,31,31,31,31,62,62,63,62,63,62,63,
0,0,0,31,31,31,31,31,31,37,37,38,37,38,37,38,
0,0,0,31,31,31,31,31,31,62,62,63,62,63,62,63,
0,0,0,31,31,31,31,31,31,37,37,38,37,38,37,38
</chunk>
   <chunk x="16" y="-48" width="16" height="16">
0,0,0,0,0,0,0,0,0,0,0,0,0,0,0,0,
0,0,0,0,0,0,0,0,0,0,0,0,0,0,0,0,
0,0,0,0,0,0,0,0,0,0,0,0,0,0,0,0,
0,0,0,0,0,0,0,0,0,0,0,0,0,0,0,0,
0,0,0,0,0,0,0,0,0,0,0,0,0,0,0,0,
37,38,37,38,37,62,62,62,62,62,62,62,62,62,62,62,
62,63,62,63,62,62,62,62,62,62,62,62,62,62,62,62,
37,38,37,38,37,62,62,62,62,62,62,62,62,62,62,62,
62,63,62,63,62,62,62,62,62,62,62,62,62,62,62,62,
37,38,37,38,37,62,62,62,62,62,62,62,62,62,62,62,
62,63,62,63,62,62,62,62,62,62,62,62,62,62,62,62,
37,38,37,38,37,62,62,62,62,62,62,62,62,62,62,62,
62,63,62,63,62,62,62,62,62,62,62,62,62,62,62,62,
37,38,37,38,37,62,62,62,62,62,62,62,62,62,62,62,
62,63,62,63,62,62,62,62,62,62,62,62,62,62,62,62,
37,38,37,38,37,62,62,62,62,62,62,62,62,62,62,62
</chunk>
   <chunk x="32" y="-48" width="16" height="16">
0,0,0,0,0,0,0,0,0,0,0,0,0,0,0,0,
0,0,0,0,0,0,0,0,0,0,0,0,0,0,0,0,
0,0,0,0,0,0,0,0,0,0,0,0,0,0,0,0,
0,0,0,0,0,0,0,0,0,0,0,0,0,0,0,0,
0,0,0,0,0,0,0,0,0,0,0,0,0,0,0,0,
62,37,38,37,38,37,38,37,38,37,38,37,37,31,31,31,
62,62,63,62,63,62,63,62,63,62,63,62,62,31,31,31,
62,37,38,37,38,37,38,37,38,37,38,37,37,31,31,31,
62,62,63,62,63,62,63,62,63,62,63,62,62,31,31,31,
62,37,38,37,38,37,38,37,38,37,38,37,37,31,31,31,
62,62,63,62,63,62,63,62,63,62,63,62,62,31,31,31,
62,37,38,37,38,37,38,37,38,37,38,37,37,31,31,31,
62,62,63,62,63,62,63,62,63,62,63,62,62,31,31,31,
62,37,38,37,38,37,38,37,38,37,38,37,37,31,31,31,
62,62,63,62,63,62,63,62,63,62,63,62,62,31,31,31,
62,37,38,37,38,37,38,37,38,37,38,37,37,31,31,31
</chunk>
   <chunk x="48" y="-48" width="16" height="16">
0,0,0,0,0,0,0,0,0,0,0,0,0,0,0,0,
0,0,0,0,0,0,0,0,0,0,0,0,0,0,0,0,
0,0,0,0,0,0,0,0,0,0,0,0,0,0,0,0,
0,0,0,0,0,0,0,0,0,0,0,0,0,0,0,0,
0,0,0,0,0,0,0,0,0,0,0,0,0,0,0,0,
31,31,31,0,0,0,0,0,0,0,0,0,0,0,0,0,
31,31,31,0,0,0,0,0,0,0,0,0,0,0,0,0,
31,31,31,0,0,0,0,0,0,0,0,0,0,0,0,0,
31,31,31,0,0,0,0,0,0,0,0,0,0,0,0,0,
31,31,31,0,0,0,0,0,0,0,0,0,0,0,0,0,
31,31,31,0,0,0,0,0,0,0,0,0,0,0,0,0,
31,31,31,0,0,0,0,0,0,0,0,0,0,0,0,0,
31,31,31,0,0,0,0,0,0,0,0,0,0,0,0,0,
31,31,31,0,0,0,0,0,0,0,0,0,0,0,0,0,
31,31,31,0,0,0,0,0,0,0,0,0,0,0,0,0,
31,31,31,0,0,0,0,0,0,0,0,0,0,0,0,0
</chunk>
   <chunk x="0" y="-32" width="16" height="16">
0,0,0,31,31,31,31,31,31,62,62,63,62,63,62,63,
0,0,0,31,31,31,31,31,31,37,37,38,37,38,37,38,
0,0,0,31,31,31,31,31,31,62,62,63,62,63,62,63,
0,0,0,31,31,31,31,31,31,37,37,38,37,38,37,38,
0,0,0,31,31,31,31,31,31,62,62,63,62,63,62,63,
0,0,0,31,31,31,31,31,31,37,37,38,37,38,37,38,
0,0,0,31,31,31,31,31,31,62,62,63,62,63,62,63,
0,0,0,31,31,31,31,31,31,37,37,38,37,38,37,38,
0,0,0,31,31,31,31,31,31,62,62,63,62,63,62,63,
0,0,0,31,31,31,31,31,31,37,37,38,37,38,37,38,
0,0,0,31,31,31,31,31,31,62,62,63,62,63,62,63,
0,0,0,31,31,31,31,31,31,37,37,38,37,38,37,38,
0,0,0,31,31,31,31,31,31,62,62,63,62,63,62,63,
0,0,0,31,31,31,31,31,31,37,37,38,37,38,37,38,
0,0,0,31,31,31,31,31,31,62,62,63,62,63,62,63,
0,0,0,31,31,31,31,31,31,37,37,38,37,38,37,38
</chunk>
   <chunk x="16" y="-32" width="16" height="16">
62,63,62,63,62,62,62,62,62,62,62,62,62,62,62,62,
37,38,37,38,37,62,62,62,62,62,62,62,62,62,62,62,
62,63,62,63,62,62,62,62,62,62,62,62,62,62,62,62,
37,38,37,38,37,62,62,62,62,62,62,62,62,62,62,62,
62,63,62,63,62,62,62,62,62,62,62,62,62,62,62,62,
37,38,37,7941,7942,7943,62,62,62,62,62,62,62,62,62,62,
62,63,62,8005,8006,8007,62,62,62,62,62,62,62,62,62,62,
37,38,37,8069,8070,8071,62,62,62,62,62,62,62,62,62,62,
62,63,62,63,62,62,62,62,62,62,62,62,62,62,62,62,
37,38,37,31,31,31,31,62,62,62,62,62,62,62,62,62,
62,63,62,31,31,31,31,62,62,62,62,62,62,62,62,62,
37,38,37,31,31,31,31,62,62,62,62,62,62,62,62,62,
62,63,62,31,31,31,31,62,62,62,62,62,62,62,62,62,
37,38,37,31,31,31,31,62,62,62,62,62,62,62,62,62,
62,63,62,31,31,31,31,62,62,62,62,62,62,62,62,62,
37,38,37,31,31,31,31,62,62,62,62,62,62,62,62,62
</chunk>
   <chunk x="32" y="-32" width="16" height="16">
62,62,63,62,63,62,63,62,63,62,63,62,62,31,31,31,
62,37,38,37,38,37,38,37,38,37,38,37,37,31,31,31,
62,62,63,62,63,62,63,62,63,62,63,62,62,31,31,31,
62,37,38,37,38,37,38,37,38,37,38,37,37,31,31,31,
62,62,63,62,63,62,63,62,63,62,63,62,62,31,31,31,
62,37,38,37,38,37,38,37,38,37,38,37,37,31,31,31,
62,62,63,62,63,62,63,62,63,62,63,62,62,31,31,31,
62,37,38,37,38,37,38,37,38,37,38,37,37,31,31,31,
62,62,63,62,63,62,63,62,63,62,63,62,62,31,31,31,
62,37,38,37,38,37,38,37,38,37,38,37,37,31,31,31,
62,62,63,62,63,62,63,62,63,62,63,62,62,31,31,31,
62,37,38,37,38,37,38,37,38,37,38,37,37,31,31,31,
62,62,63,62,63,62,63,62,63,62,63,62,62,31,31,31,
62,37,38,37,38,37,38,37,38,37,38,37,37,31,31,31,
62,62,63,62,63,62,63,62,63,62,63,62,62,31,31,31,
62,37,38,37,38,37,38,37,38,37,38,37,37,31,31,31
</chunk>
   <chunk x="48" y="-32" width="16" height="16">
31,31,31,0,0,0,0,0,0,0,0,0,0,0,0,0,
31,31,31,0,0,0,0,0,0,0,0,0,0,0,0,0,
31,31,31,0,0,0,0,0,0,0,0,0,0,0,0,0,
31,31,31,0,0,0,0,0,0,0,0,0,0,0,0,0,
31,31,31,0,0,0,0,0,0,0,0,0,0,0,0,0,
31,31,31,0,0,0,0,0,0,0,0,0,0,0,0,0,
31,31,31,0,0,0,0,0,0,0,0,0,0,0,0,0,
31,31,31,0,0,0,0,0,0,0,0,0,0,0,0,0,
31,31,31,0,0,0,0,0,0,0,0,0,0,0,0,0,
31,31,31,0,0,0,0,0,0,0,0,0,0,0,0,0,
31,31,31,0,0,0,0,0,0,0,0,0,0,0,0,0,
31,31,31,0,0,0,0,0,0,0,0,0,0,0,0,0,
31,31,31,0,0,0,0,0,0,0,0,0,0,0,0,0,
31,31,31,0,0,0,0,0,0,0,0,0,0,0,0,0,
31,31,31,0,0,0,0,0,0,0,0,0,0,0,0,0,
31,31,31,0,0,0,0,0,0,0,0,0,0,0,0,0
</chunk>
   <chunk x="-32" y="-16" width="16" height="16">
0,0,0,0,0,0,0,0,0,0,0,0,0,0,0,0,
0,0,0,0,0,0,0,0,0,0,0,0,0,0,0,0,
0,0,0,0,0,0,0,0,0,0,0,0,0,0,0,0,
0,0,0,0,0,0,0,0,0,0,0,0,0,0,0,0,
0,0,0,0,0,0,0,0,0,0,0,0,0,0,0,0,
0,0,0,0,0,0,0,0,0,0,0,0,0,0,0,0,
0,0,0,0,0,0,0,0,0,0,0,0,0,0,0,0,
0,0,0,0,0,0,0,0,0,0,0,0,0,31,31,31,
0,0,0,0,0,0,0,0,0,0,0,0,0,31,31,31,
0,0,0,0,0,0,0,0,0,0,0,0,0,31,31,31,
0,0,0,0,0,0,0,0,0,0,0,0,0,31,31,31,
0,0,0,0,0,0,0,0,0,0,0,0,0,31,31,31,
0,0,0,0,0,0,0,0,0,0,0,0,0,0,0,0,
0,0,0,0,0,0,0,0,0,0,0,0,0,0,0,0,
0,0,0,0,0,0,0,0,0,0,0,0,0,0,0,0,
0,0,0,0,0,0,0,0,0,0,0,0,31,31,31,31
</chunk>
   <chunk x="-16" y="-16" width="16" height="16">
0,0,0,0,0,0,0,0,0,0,0,0,0,0,0,0,
0,0,0,0,0,0,0,0,0,0,0,0,0,0,0,0,
0,0,0,0,213,213,213,213,213,213,213,213,213,213,213,0,
0,0,0,0,213,213,213,213,213,213,213,213,213,213,213,0,
0,0,0,0,213,213,213,213,213,213,213,213,213,213,213,0,
0,0,0,0,213,213,213,213,213,213,213,213,213,213,213,0,
0,0,0,0,213,213,213,213,213,213,213,213,213,213,213,0,
31,31,31,31,31,31,31,31,31,213,213,213,213,213,213,0,
31,31,31,31,31,31,31,31,31,213,213,213,213,213,213,0,
31,31,31,31,31,31,31,31,31,213,213,213,213,213,213,0,
31,31,31,31,31,31,31,31,31,31,31,31,31,31,31,0,
31,31,31,31,31,31,31,31,31,31,31,31,31,31,31,31,
0,0,0,0,0,0,0,0,0,0,0,31,31,31,31,0,
0,0,0,0,0,0,0,0,0,0,0,31,31,31,31,0,
0,0,0,0,0,0,0,0,0,0,0,31,31,31,31,0,
31,31,31,31,31,31,31,31,31,31,31,31,31,31,31,31
</chunk>
   <chunk x="0" y="-16" width="16" height="16">
0,0,0,31,31,31,31,31,31,62,62,63,62,63,62,63,
0,0,0,31,31,31,31,31,31,37,37,38,37,38,37,38,
0,0,0,31,31,31,31,31,31,62,62,63,62,63,62,63,
0,0,0,31,31,31,31,31,31,37,37,38,37,38,37,38,
0,0,0,31,31,31,31,31,31,62,62,63,62,63,62,63,
0,0,0,31,31,31,31,31,31,37,37,38,37,38,37,38,
0,0,0,31,31,31,31,31,31,62,62,63,62,63,62,63,
0,0,0,31,31,31,31,31,31,37,37,38,37,38,37,38,
0,0,0,31,31,31,31,31,31,62,62,63,62,63,62,63,
0,0,0,31,31,31,31,31,31,37,37,38,37,38,37,38,
0,0,0,31,31,31,31,31,31,62,62,63,62,63,62,63,
0,0,0,31,31,31,31,31,31,37,37,38,37,38,37,38,
0,0,0,31,31,31,31,31,31,62,62,63,62,63,62,63,
0,0,0,31,31,31,31,31,31,37,37,38,37,38,37,38,
0,0,0,31,31,31,31,31,31,62,62,63,62,63,62,63,
31,31,31,31,31,31,31,31,31,31,31,31,31,31,31,31
</chunk>
   <chunk x="16" y="-16" width="16" height="16">
62,63,62,31,31,31,31,62,62,62,62,62,62,62,62,62,
37,38,37,31,31,31,31,62,62,62,62,62,62,62,62,62,
62,63,62,63,62,8,10,62,62,62,62,62,62,62,62,62,
37,38,37,38,37,32,55,9,9,9,9,9,9,9,9,9,
62,63,62,63,62,33,5,59,59,59,59,59,59,59,59,59,
37,38,37,38,37,33,35,0,0,0,0,0,0,0,0,0,
62,63,62,63,62,33,35,0,0,0,0,0,0,0,0,0,
37,38,37,38,37,33,35,0,0,0,0,0,0,0,0,0,
62,63,62,63,62,33,35,0,83,83,83,83,83,83,83,83,
37,38,37,38,37,33,35,0,83,83,83,83,83,83,83,83,
62,63,62,63,62,33,35,0,83,83,83,83,83,83,83,83,
37,38,37,38,37,33,35,0,206,206,206,207,0,206,206,206,
62,63,62,63,62,33,35,0,206,207,206,207,0,206,207,206,
37,38,37,38,37,33,35,0,206,207,207,207,0,206,207,207,
62,63,62,63,62,33,35,0,0,0,0,0,0,31,31,31,
31,31,31,31,31,31,31,31,31,31,31,31,31,31,31,31
</chunk>
   <chunk x="32" y="-16" width="16" height="16">
62,62,63,62,63,62,63,62,63,62,63,62,62,31,31,31,
62,37,38,37,38,37,38,37,38,37,38,37,37,31,31,31,
62,62,63,62,63,62,63,62,63,62,63,62,62,31,31,31,
9,10,38,37,38,37,38,37,38,37,38,37,37,31,31,31,
59,60,63,62,63,62,63,62,63,62,63,62,62,31,31,31,
0,37,38,37,38,37,38,37,38,37,38,37,37,31,31,31,
0,62,63,62,63,62,63,62,63,62,63,62,62,31,31,31,
0,37,38,37,38,37,38,37,38,37,38,37,37,31,31,31,
83,62,63,62,63,62,63,62,63,62,63,62,62,31,31,31,
83,37,38,37,38,37,38,37,38,37,38,37,37,31,31,31,
83,62,63,62,63,62,63,62,63,62,63,62,62,31,31,31,
207,37,38,37,38,37,38,37,38,37,38,37,37,31,31,31,
207,62,63,62,63,62,63,62,63,62,63,62,62,31,31,31,
207,37,38,37,38,37,38,37,38,37,38,37,37,31,31,31,
31,62,63,62,63,62,63,62,63,62,63,62,62,31,31,31,
31,31,31,31,31,31,31,31,31,31,31,31,31,31,31,31
</chunk>
   <chunk x="48" y="-16" width="16" height="16">
31,31,31,0,0,0,0,0,0,0,0,0,0,0,0,0,
31,31,31,0,0,0,0,0,0,0,0,0,0,0,0,0,
31,31,31,0,0,0,0,0,0,0,0,0,0,0,0,0,
31,31,31,0,0,0,0,0,0,0,0,0,0,0,0,0,
31,31,31,0,0,0,0,0,0,0,0,0,0,0,0,0,
31,31,31,0,0,0,0,0,0,0,0,0,0,0,0,0,
31,31,31,0,0,0,0,0,0,0,0,0,0,0,0,0,
31,31,31,0,0,0,0,0,0,0,0,0,0,0,0,0,
31,31,31,0,0,0,0,0,0,0,0,0,0,0,0,0,
31,31,31,0,0,0,0,0,0,0,0,0,0,0,0,0,
31,31,31,0,0,0,0,0,0,0,0,0,0,0,0,0,
31,31,31,0,0,0,0,0,0,0,0,0,0,0,0,0,
31,31,31,0,0,0,0,0,0,0,0,0,0,0,0,0,
31,31,31,0,0,0,0,0,0,0,0,0,0,0,0,0,
31,31,31,0,0,0,0,0,0,0,0,0,0,0,0,0,
31,31,31,31,31,31,31,31,31,31,31,31,31,31,31,31
</chunk>
   <chunk x="64" y="-16" width="16" height="16">
0,0,0,0,0,0,0,0,0,0,0,0,0,0,0,0,
0,0,0,0,0,0,0,0,0,0,0,0,0,0,0,0,
0,0,0,0,0,0,0,0,0,0,0,0,0,0,0,0,
0,0,0,0,0,0,0,0,0,0,0,0,0,0,0,0,
0,0,0,0,0,0,0,0,0,0,0,0,0,0,0,0,
0,0,0,0,0,0,0,0,0,0,0,0,0,0,0,0,
0,0,0,0,0,0,0,0,0,0,0,0,0,0,0,0,
0,0,0,0,0,0,0,0,0,0,0,0,0,0,0,0,
0,0,0,0,0,0,0,0,0,0,0,0,0,0,0,0,
0,0,0,0,0,0,0,0,0,0,0,0,0,0,0,0,
0,0,0,0,0,0,0,0,0,0,0,0,0,0,0,0,
0,0,0,0,0,0,0,0,0,0,0,0,0,0,0,0,
0,0,0,0,0,0,0,0,0,0,0,0,0,0,0,0,
0,0,0,0,0,0,0,0,0,0,0,0,0,0,0,0,
0,0,0,0,0,0,0,0,0,0,0,0,0,0,0,0,
31,31,31,31,31,31,31,31,31,31,0,0,0,0,0,0
</chunk>
   <chunk x="-32" y="0" width="16" height="16">
0,0,0,0,0,0,0,0,0,0,0,0,31,31,31,31,
0,0,0,0,0,0,0,0,0,0,0,0,31,31,31,31,
0,0,0,0,0,0,0,0,0,0,0,0,31,31,31,31,
0,0,0,0,0,0,0,0,0,0,0,0,31,31,31,31,
0,0,0,0,0,0,0,0,0,0,0,0,31,31,31,31,
0,0,0,0,0,0,0,0,0,0,0,0,0,0,31,31,
0,0,0,0,0,0,0,0,0,0,0,0,0,0,31,31,
0,0,0,0,0,0,0,0,0,0,0,0,0,0,31,31,
0,0,0,0,0,0,0,0,0,0,0,0,0,0,31,31,
0,0,0,0,0,0,0,0,0,0,0,0,0,0,31,31,
0,0,0,0,0,0,0,0,0,0,0,0,0,0,31,31,
0,0,0,0,0,0,0,0,0,0,0,0,0,0,31,31,
0,0,0,0,0,0,0,0,0,0,0,0,0,0,31,31,
0,0,0,0,0,0,0,0,0,0,0,0,0,0,31,31,
0,0,0,0,0,0,0,0,0,0,0,0,0,0,31,31,
0,0,0,0,0,0,0,0,0,0,0,0,0,0,31,31
</chunk>
   <chunk x="-16" y="0" width="16" height="16">
31,31,31,31,31,31,31,31,31,31,31,31,31,31,31,31,
31,31,31,31,31,31,31,31,31,31,31,31,31,31,31,31,
31,31,31,31,31,31,31,31,31,31,31,31,31,31,31,31,
31,31,31,31,31,31,31,31,31,31,31,31,31,31,31,31,
31,31,31,31,31,31,31,31,31,31,31,31,31,31,31,31,
31,31,31,31,31,31,1343,1343,1343,1343,1343,1343,31,31,31,31,
31,31,31,31,31,31,1343,1343,1343,1343,1343,1343,31,31,31,31,
31,31,31,31,31,31,1343,1343,1343,1343,1343,1343,31,31,31,31,
31,31,31,31,31,31,1343,1343,1343,1343,1343,1343,31,31,31,31,
31,31,31,31,31,31,1343,1343,1343,1343,1343,1343,31,31,31,31,
31,31,31,31,31,31,1343,1343,1343,1343,1343,1343,31,31,31,31,
31,31,31,31,31,31,1343,1343,1343,1343,1343,1343,31,31,31,31,
31,31,31,31,31,31,1343,1343,1343,1343,1343,1343,1312,1312,31,31,
31,31,31,31,31,31,1343,1343,1343,1343,1343,1343,1312,1312,31,31,
31,31,31,31,31,31,1343,1343,1343,1343,1343,1343,1312,1312,31,31,
31,31,31,31,31,31,1343,1343,1343,1343,1343,1343,1312,1312,31,31
</chunk>
   <chunk x="0" y="0" width="16" height="16">
31,31,31,31,31,31,31,31,31,31,31,31,31,31,31,31,
31,31,31,31,31,31,31,31,31,31,31,31,31,31,31,31,
31,31,31,31,31,31,31,31,31,31,31,31,31,31,31,31,
31,31,31,31,31,31,31,31,31,31,31,31,31,31,31,31,
31,31,31,31,31,31,31,31,31,31,31,31,31,31,31,31,
31,31,31,31,31,31,8,9,9,9,9,9,9,9,9,9,
31,31,31,31,31,31,33,83,83,83,83,83,83,83,83,83,
31,31,31,31,31,31,33,83,83,83,83,83,83,83,83,83,
31,31,31,31,31,31,33,83,83,83,83,83,83,83,83,83,
31,31,31,31,31,31,33,83,83,83,83,83,83,83,83,83,
31,31,31,31,31,31,33,83,83,83,83,83,83,83,83,83,
31,31,31,31,31,31,33,83,83,83,83,83,83,83,83,83,
31,31,31,31,31,31,33,83,83,83,83,83,83,83,83,83,
31,31,31,31,31,31,33,83,83,83,83,83,83,83,83,83,
31,31,31,31,31,31,33,83,83,83,83,83,83,83,83,83,
31,31,31,31,31,31,33,83,83,83,83,83,83,83,83,83
</chunk>
   <chunk x="16" y="0" width="16" height="16">
31,31,31,31,31,31,31,31,31,31,31,31,31,31,31,31,
31,31,31,31,31,31,31,31,31,31,31,31,31,31,31,31,
31,31,31,31,31,31,31,31,31,31,31,31,31,31,31,31,
31,31,31,31,31,31,31,31,31,31,1343,1343,1343,1343,1343,1343,
31,31,31,31,31,31,31,31,31,31,1343,1343,1343,1343,1343,1343,
9,9,9,9,9,9,9,10,31,31,1343,1343,1343,1343,1343,1343,
83,83,83,83,83,83,83,35,31,31,1343,1343,1343,1343,1343,1343,
83,83,83,83,83,83,83,35,31,31,1343,1343,1343,1343,1343,1343,
83,83,83,83,83,83,83,35,31,31,1343,1343,1343,1343,1343,1343,
83,83,83,83,83,83,83,35,31,31,1343,1343,1343,1343,1343,1343,
83,83,83,83,83,83,83,35,31,31,1343,1343,1343,1343,1343,1343,
83,83,83,83,83,83,83,35,31,31,1343,1343,1343,1343,1343,1343,
83,83,83,83,83,83,83,35,31,31,1343,1343,1343,1343,1343,1343,
83,83,83,83,83,83,83,35,31,31,1343,1343,1343,1343,1343,1343,
83,83,83,83,83,83,83,35,31,31,1343,1343,1343,1343,1343,1343,
83,83,83,83,83,83,83,35,31,31,1343,1343,1343,1343,1343,1343
</chunk>
   <chunk x="32" y="0" width="16" height="16">
31,31,31,31,31,31,31,31,31,31,31,31,31,31,31,31,
31,31,31,31,31,31,31,31,31,31,31,31,31,31,31,31,
31,31,31,31,31,31,31,31,31,31,31,31,31,31,31,31,
1343,1343,31,31,31,31,31,31,31,31,31,31,31,31,31,31,
1343,1343,31,1028,1029,1030,1031,31,31,31,31,31,31,31,31,31,
1343,1343,1343,1343,1343,1343,1343,1343,31,31,31,31,31,31,31,31,
1343,1343,1343,1343,1343,1343,1343,1343,31,31,31,31,31,31,31,31,
1343,1343,1343,1343,1343,1343,1343,1343,31,31,31,31,31,31,31,31,
1343,1343,1343,1343,1343,1343,1343,1343,31,31,31,31,31,31,31,31,
1343,1343,31,31,31,31,31,31,31,31,31,31,31,31,31,31,
1343,1343,31,31,31,31,31,31,31,31,31,31,31,31,31,31,
1343,1343,1343,1343,1343,1343,1343,1343,31,31,31,31,31,31,31,31,
1343,1343,1343,1343,1343,1343,1343,1343,31,31,31,31,31,31,31,31,
1343,1343,1343,1343,1343,1343,1343,1343,31,31,31,31,31,31,31,31,
1343,1343,1343,1343,1343,1343,1343,1343,31,31,31,31,31,31,31,31,
1343,1343,1343,1343,1343,1343,1343,1343,31,31,31,31,31,31,31,31
</chunk>
   <chunk x="48" y="0" width="16" height="16">
31,31,31,31,31,31,31,31,31,31,31,31,31,31,31,31,
31,31,31,31,31,31,31,31,31,31,31,31,31,31,31,31,
31,31,31,31,31,31,31,31,31,31,31,31,31,31,31,31,
31,31,31,31,31,31,31,31,31,31,31,31,31,31,31,31,
31,31,31,31,31,31,31,31,31,31,31,31,31,31,31,31,
31,31,31,31,31,31,31,31,31,31,31,31,31,31,31,31,
31,31,31,31,31,31,31,31,31,31,31,31,31,31,31,31,
31,31,31,31,31,31,31,31,31,31,31,31,31,31,31,31,
31,31,31,31,31,31,31,31,31,31,31,31,31,31,31,31,
31,31,31,31,31,31,31,31,31,31,31,31,31,31,31,31,
31,31,31,31,31,31,31,31,31,31,31,31,31,31,31,31,
31,31,31,31,31,31,31,31,31,31,31,31,31,31,31,31,
31,31,31,31,31,31,31,31,31,31,31,31,31,31,31,31,
31,31,31,31,31,31,31,31,31,31,31,31,31,31,31,31,
31,31,31,31,31,31,31,31,31,31,31,31,31,31,31,31,
31,31,31,31,31,31,31,31,31,31,31,31,31,31,31,31
</chunk>
   <chunk x="64" y="0" width="16" height="16">
31,31,31,31,31,31,31,31,31,31,0,0,0,0,0,0,
31,31,31,31,31,31,31,31,31,31,0,0,0,0,0,0,
31,31,31,31,31,31,31,31,31,31,0,0,0,0,0,0,
31,31,31,31,31,31,31,31,31,31,0,0,0,0,0,0,
31,31,31,31,31,31,31,31,31,31,0,0,0,0,0,0,
31,31,31,31,31,31,31,31,31,31,0,0,0,0,0,0,
31,31,31,31,31,31,31,31,31,31,0,0,0,0,0,0,
31,31,31,31,31,31,31,31,31,31,0,0,0,0,0,0,
31,31,31,31,31,31,31,31,31,31,0,0,0,0,0,0,
31,31,31,31,31,31,31,31,31,31,0,0,0,0,0,0,
31,31,31,31,31,31,31,31,31,31,0,0,0,0,0,0,
31,31,31,31,31,31,31,31,31,31,0,0,0,0,0,0,
31,31,31,31,31,31,31,31,31,31,0,0,0,0,0,0,
31,31,31,31,31,31,31,31,31,31,0,0,0,0,0,0,
31,31,31,31,31,31,31,31,31,31,0,0,0,0,0,0,
31,31,31,31,31,31,31,31,31,31,0,0,0,0,0,0
</chunk>
   <chunk x="-32" y="16" width="16" height="16">
0,0,0,0,0,0,0,0,0,0,0,0,0,0,31,31,
0,0,0,0,0,0,0,0,0,0,0,0,0,0,31,31,
0,0,0,0,0,0,0,0,0,0,0,0,0,0,31,31,
0,0,0,0,0,0,0,0,0,0,0,0,0,0,31,31,
0,0,0,0,0,0,0,0,0,0,0,0,0,0,31,31,
0,0,0,0,0,0,0,0,0,0,0,0,0,0,31,31,
0,0,0,0,0,0,0,0,0,0,0,0,31,31,31,31,
0,0,0,0,0,0,0,0,0,0,0,0,31,31,31,31,
0,0,0,0,0,0,0,0,0,0,0,0,31,31,31,31,
0,0,0,0,0,0,0,0,0,0,0,0,31,31,31,31,
0,0,0,0,0,0,0,0,0,0,0,0,31,31,31,31,
0,0,0,0,0,0,0,0,0,0,0,0,31,31,31,31,
0,0,0,0,0,0,0,0,0,0,0,0,0,0,0,0,
0,0,0,0,0,0,0,0,0,0,0,0,0,31,31,31,
0,0,0,0,0,0,0,0,0,0,0,0,0,31,31,31,
0,0,0,0,0,0,0,0,0,0,0,0,0,31,31,31
</chunk>
   <chunk x="-16" y="16" width="16" height="16">
31,31,31,31,31,31,1343,1343,1343,1343,1343,1343,1312,1312,31,31,
31,31,31,31,31,31,1343,1343,1343,1343,1343,1343,1312,1312,31,31,
31,31,31,31,31,31,1343,1343,1343,1343,1343,1343,1312,1312,31,31,
31,31,31,31,31,31,1343,1343,1343,1343,1343,1343,1312,1312,31,31,
31,31,31,31,31,31,1343,1343,1343,1343,1343,1343,1312,1312,31,31,
31,31,31,31,31,31,1343,1343,1343,1343,1343,1343,1312,1312,31,31,
31,31,31,31,31,31,1312,1312,1312,1312,1312,1312,1312,1312,31,31,
31,31,31,31,31,31,31,31,31,31,31,31,31,31,31,31,
31,31,31,31,31,31,31,31,31,31,31,31,31,31,31,31,
31,31,31,31,31,31,31,31,31,31,31,31,31,31,31,31,
31,31,31,31,31,31,31,31,31,31,31,31,31,31,31,31,
31,31,31,31,31,31,31,31,31,31,31,31,31,31,31,31,
0,0,0,0,0,0,0,0,0,0,0,0,31,31,304,0,
31,31,31,31,31,31,31,31,31,31,31,31,31,31,0,0,
31,31,31,31,31,31,31,31,31,31,31,31,31,31,0,0,
31,31,31,31,31,31,31,31,31,0,0,0,0,0,0,0
</chunk>
   <chunk x="0" y="16" width="16" height="16">
31,31,31,31,31,31,33,83,83,83,83,83,83,83,83,83,
31,31,31,31,31,31,33,83,83,83,83,83,83,83,83,83,
31,31,31,31,31,31,33,83,83,83,83,83,83,83,83,83,
31,31,31,31,31,31,33,83,83,83,83,83,83,83,83,83,
31,31,31,31,31,31,33,83,83,83,83,83,83,83,83,83,
31,31,31,31,31,31,58,59,59,59,59,59,59,59,59,59,
31,31,31,31,31,31,31,31,31,31,31,31,31,31,31,31,
31,31,31,31,31,31,31,31,31,31,31,31,31,31,31,31,
31,31,31,31,31,31,31,31,31,31,31,31,31,31,31,31,
31,31,31,31,31,31,31,31,31,31,31,31,31,31,31,31,
31,31,31,31,31,31,31,31,31,31,31,31,31,31,31,31,
31,31,31,31,31,31,31,31,31,31,31,31,31,31,31,31,
0,0,0,31,31,31,31,31,31,37,37,38,37,38,37,38,
0,0,0,31,31,31,31,31,31,62,62,63,62,63,62,63,
0,0,0,31,31,31,31,31,31,37,37,38,37,38,37,38,
0,0,0,31,31,31,31,31,31,62,62,63,62,63,62,63
</chunk>
   <chunk x="16" y="16" width="16" height="16">
83,83,83,83,83,83,83,35,31,31,1343,1343,1343,1343,1343,1343,
83,83,83,83,83,83,83,35,31,31,31,31,31,31,31,1343,
83,83,83,83,83,83,83,35,31,31,31,31,31,31,1311,1343,
83,83,83,83,83,83,83,35,31,31,31,31,31,31,1311,1343,
83,83,83,83,83,83,83,35,31,31,31,31,31,31,1311,1311,
59,59,59,59,59,59,59,60,31,31,31,31,31,31,31,31,
31,31,31,31,31,31,31,31,31,31,31,31,31,31,31,31,
31,31,31,31,31,31,31,31,31,31,31,31,31,31,31,31,
31,31,31,31,31,31,31,31,31,31,31,31,31,31,31,31,
31,31,31,31,31,31,31,31,31,31,31,31,31,31,31,31,
31,31,31,31,31,31,31,31,31,31,31,31,31,31,31,31,
31,31,31,31,31,31,31,31,31,31,31,31,31,31,31,31,
37,38,37,38,37,33,35,0,291,291,291,291,291,31,31,31,
62,63,62,63,62,33,35,0,232,232,232,232,291,206,206,206,
37,38,37,38,37,33,35,0,232,232,232,232,291,206,206,206,
62,63,62,63,62,33,35,0,108,108,108,206,291,206,206,206
</chunk>
   <chunk x="32" y="16" width="16" height="16">
1343,1343,1343,1343,1343,1343,1343,1343,31,31,31,31,31,31,31,31,
1343,1311,31,31,31,31,31,31,31,31,31,31,31,31,31,31,
1343,1311,31,31,31,31,31,31,31,31,31,31,31,31,31,31,
1343,1311,31,31,31,31,31,31,31,31,31,31,31,31,31,31,
1311,1311,31,31,31,31,31,31,31,31,31,31,31,31,31,31,
31,31,31,31,31,31,31,31,31,31,31,31,31,31,31,31,
31,31,31,31,31,31,31,31,31,31,31,31,31,31,31,31,
31,31,31,31,31,31,31,31,31,31,31,31,31,31,31,31,
31,31,31,31,31,31,31,31,31,31,31,31,31,31,31,31,
31,31,31,31,31,31,31,31,31,31,31,31,31,31,31,31,
31,31,31,31,31,31,31,31,31,31,31,31,31,31,31,31,
31,31,31,31,31,31,31,31,31,31,31,31,31,31,31,31,
31,37,38,37,38,37,38,37,38,37,38,37,37,31,31,31,
206,62,63,62,63,62,63,62,63,62,63,62,62,31,31,31,
206,37,38,37,38,37,38,37,38,37,38,37,37,31,31,31,
206,62,63,62,63,62,63,62,63,62,63,62,62,31,31,31
</chunk>
   <chunk x="48" y="16" width="16" height="16">
31,31,31,31,31,31,31,31,31,31,31,31,31,31,31,31,
31,31,31,31,31,31,31,31,31,31,31,31,31,31,31,31,
31,31,31,31,31,31,31,31,31,31,31,31,31,31,31,31,
31,31,31,31,31,31,31,31,31,31,31,31,31,31,31,31,
31,31,31,31,31,31,31,31,31,31,31,31,31,31,31,31,
31,31,31,31,31,31,31,31,31,31,31,31,31,31,31,31,
31,31,31,31,31,31,31,31,31,31,31,31,31,31,31,31,
31,31,31,31,31,31,31,31,31,31,31,31,31,31,31,31,
31,31,31,31,31,31,31,31,31,31,31,31,31,31,31,31,
31,31,31,31,31,31,31,31,31,31,31,31,31,31,31,31,
31,31,31,31,31,31,31,31,31,31,31,31,31,31,31,31,
31,31,31,31,31,31,31,31,31,31,31,31,31,31,31,31,
31,31,31,0,0,0,0,0,0,0,0,0,0,0,0,0,
31,31,31,0,0,0,0,0,0,0,0,0,0,0,0,0,
31,31,31,0,0,0,0,0,0,0,0,0,0,0,0,0,
31,31,31,0,0,0,0,0,0,0,0,0,0,0,0,0
</chunk>
   <chunk x="64" y="16" width="16" height="16">
31,31,31,31,31,31,31,31,31,31,0,0,0,0,0,0,
31,31,31,31,31,31,31,31,31,31,0,0,0,0,0,0,
31,31,31,31,31,31,31,31,31,31,0,0,0,0,0,0,
31,31,31,31,31,31,31,31,31,31,0,0,0,0,0,0,
31,31,31,31,31,31,31,31,31,31,0,0,0,0,0,0,
31,31,31,31,31,31,31,31,31,31,0,0,0,0,0,0,
31,31,31,31,31,31,31,31,31,31,0,0,0,0,0,0,
31,31,31,31,31,31,31,31,31,31,0,0,0,0,0,0,
31,31,31,31,31,31,31,31,31,31,0,0,0,0,0,0,
31,31,31,31,31,31,31,31,31,31,0,0,0,0,0,0,
31,31,31,31,31,31,31,31,31,31,0,0,0,0,0,0,
31,31,31,31,31,31,31,31,31,31,0,0,0,0,0,0,
0,0,0,0,0,0,0,0,0,0,0,0,0,0,0,0,
0,0,0,0,0,0,0,0,0,0,0,0,0,0,0,0,
0,0,0,0,0,0,0,0,0,0,0,0,0,0,0,0,
0,0,0,0,0,0,0,0,0,0,0,0,0,0,0,0
</chunk>
   <chunk x="-32" y="32" width="16" height="16">
0,0,0,0,0,0,0,0,0,0,0,0,0,31,31,31,
0,0,0,0,0,0,0,0,0,0,0,0,0,0,31,31,
0,0,0,0,0,0,0,0,0,0,0,0,0,0,0,0,
0,0,0,0,0,0,0,0,0,0,0,0,0,0,0,0,
0,0,0,0,0,0,0,0,0,0,0,0,0,0,0,0,
0,0,0,0,0,0,0,0,0,0,0,0,0,0,0,0,
0,0,0,0,0,0,0,0,0,0,0,0,0,0,0,0,
0,0,0,0,0,0,0,0,0,0,0,0,0,0,0,0,
0,0,0,0,0,0,0,0,0,0,0,0,0,0,0,0,
0,0,0,0,0,0,0,0,0,0,0,0,0,0,0,0,
0,0,0,0,0,0,0,0,0,0,0,0,0,0,0,0,
0,0,0,0,0,0,0,0,0,0,0,0,0,0,0,0,
0,0,0,0,0,0,0,0,0,0,0,0,0,0,0,0,
0,0,0,0,0,0,0,0,0,0,0,0,0,0,0,0,
0,0,0,0,0,0,0,0,0,0,0,0,0,0,0,0,
0,0,0,0,0,0,0,0,0,0,0,0,0,0,0,0
</chunk>
   <chunk x="-16" y="32" width="16" height="16">
31,31,31,31,31,31,31,31,31,0,0,0,0,0,0,0,
31,31,31,31,31,31,31,31,31,0,0,0,0,0,0,0,
0,0,0,0,0,0,0,0,0,0,0,0,0,0,0,0,
0,0,0,0,0,0,0,0,0,0,0,0,0,0,0,0,
0,0,0,0,0,0,0,0,0,0,0,0,0,0,0,0,
0,0,0,0,0,0,0,0,0,0,0,0,0,0,0,0,
0,0,0,0,0,0,0,0,0,0,0,0,0,0,0,0,
0,0,0,0,0,0,0,0,0,0,0,0,0,0,0,0,
0,0,0,0,0,0,0,0,0,0,0,0,0,0,0,0,
0,0,0,0,0,0,0,0,0,0,0,0,0,0,0,0,
0,0,0,0,0,0,0,0,0,0,0,0,0,0,0,0,
0,0,0,0,0,0,0,0,0,0,0,0,0,0,0,0,
0,0,0,0,0,0,0,0,0,0,0,0,0,0,0,0,
0,0,0,0,0,0,0,0,0,0,0,0,0,0,0,0,
0,0,0,0,0,0,0,0,0,0,0,0,0,0,0,0,
0,0,0,0,0,0,0,0,0,0,0,0,0,0,0,0
</chunk>
   <chunk x="0" y="32" width="16" height="16">
0,0,0,31,31,31,31,31,31,37,37,38,37,38,37,38,
0,0,0,31,31,31,31,31,31,62,62,63,62,63,62,63,
0,0,0,31,31,31,31,31,31,37,37,38,37,38,37,38,
0,0,0,31,31,31,31,31,31,62,62,63,62,63,62,63,
0,0,0,31,31,31,31,31,31,37,37,38,37,38,37,38,
0,0,0,31,31,31,31,31,31,62,62,63,62,63,62,63,
0,0,0,31,31,31,31,31,31,37,37,38,37,38,37,38,
0,0,0,31,31,31,31,31,31,62,62,63,62,63,62,63,
0,0,0,31,31,31,31,31,31,37,37,38,37,38,37,38,
0,0,0,31,31,31,31,31,31,62,62,63,62,63,62,63,
0,0,0,31,31,31,31,31,31,37,37,38,37,38,37,38,
0,0,0,31,31,31,31,31,31,62,62,63,62,63,62,63,
0,0,0,31,31,31,31,31,31,37,37,38,37,38,37,38,
0,0,0,31,31,31,31,31,31,62,62,63,62,63,62,63,
0,0,0,31,31,31,31,31,31,37,37,38,37,38,37,38,
0,0,0,31,31,31,31,31,31,62,62,63,62,31,31,31
</chunk>
   <chunk x="16" y="32" width="16" height="16">
37,38,37,38,37,33,35,0,83,83,83,83,83,83,83,83,
62,63,62,63,62,33,35,0,83,83,83,83,83,83,83,83,
37,38,37,38,37,33,35,0,83,83,83,83,83,83,83,83,
62,63,62,63,62,33,35,0,0,0,0,0,0,0,0,0,
37,38,37,38,37,33,35,0,0,0,0,0,0,0,0,0,
62,63,62,63,62,33,35,0,0,0,0,0,0,0,0,0,
37,38,37,38,37,33,55,9,9,9,9,9,9,9,9,9,
62,63,62,63,62,58,59,59,59,59,59,59,59,59,59,59,
37,38,37,38,37,37,38,37,38,37,38,37,38,37,38,37,
62,63,62,63,62,62,63,62,63,62,63,62,63,62,63,62,
37,38,37,38,37,37,38,37,38,37,38,37,38,37,38,37,
62,63,62,63,62,62,63,62,63,62,63,62,63,62,63,62,
37,38,37,38,37,37,38,37,38,37,38,37,38,37,38,37,
62,63,62,63,62,62,63,62,63,62,63,62,63,62,63,62,
37,38,37,38,37,37,38,37,38,37,38,37,38,37,38,37,
31,31,31,31,31,31,31,31,31,62,63,62,63,62,63,62
</chunk>
   <chunk x="32" y="32" width="16" height="16">
83,37,38,37,38,37,38,37,38,37,38,37,37,31,31,31,
83,62,63,62,63,62,63,62,63,62,63,62,62,31,31,31,
83,37,38,37,38,37,38,37,38,37,38,37,37,31,31,31,
0,62,63,62,63,62,63,62,63,62,63,62,62,31,31,31,
0,37,38,37,38,37,38,37,38,37,38,37,37,31,31,31,
0,62,63,62,63,62,63,62,63,62,63,62,62,31,31,31,
9,10,38,37,38,37,38,37,38,37,38,37,37,31,31,31,
59,60,63,62,63,62,63,62,63,62,63,62,62,31,31,31,
38,37,38,37,38,37,38,37,38,37,38,37,37,31,31,31,
63,62,63,62,63,62,63,62,63,62,63,62,62,31,31,31,
38,37,38,37,38,37,38,37,38,37,38,37,37,31,31,31,
63,62,63,62,63,62,63,62,63,62,63,62,62,31,31,31,
38,37,38,37,38,37,38,37,38,37,38,37,37,31,31,31,
63,62,63,62,63,62,63,62,63,62,63,62,62,31,31,31,
38,37,38,37,38,37,38,37,38,37,38,37,37,31,31,31,
63,62,63,62,63,62,63,62,63,62,63,62,62,31,31,31
</chunk>
   <chunk x="48" y="32" width="16" height="16">
31,31,31,0,0,0,0,0,0,0,0,0,0,0,0,0,
31,31,31,0,0,0,0,0,0,0,0,0,0,0,0,0,
31,31,31,0,0,0,0,0,0,0,0,0,0,0,0,0,
31,31,31,0,0,0,0,0,0,0,0,0,0,0,0,0,
31,31,31,0,0,0,0,0,0,0,0,0,0,0,0,0,
31,31,31,0,0,0,0,0,0,0,0,0,0,0,0,0,
31,31,31,0,0,0,0,0,0,0,0,0,0,0,0,0,
31,31,31,0,0,0,0,0,0,0,0,0,0,0,0,0,
31,31,31,0,0,0,0,0,0,0,0,0,0,0,0,0,
31,31,31,0,0,0,0,0,0,0,0,0,0,0,0,0,
31,31,31,0,0,0,0,0,0,0,0,0,0,0,0,0,
31,31,31,0,0,0,0,0,0,0,0,0,0,0,0,0,
31,31,31,0,0,0,0,0,0,0,0,0,0,0,0,0,
31,31,31,0,0,0,0,0,0,0,0,0,0,0,0,0,
31,31,31,0,0,0,0,0,0,0,0,0,0,0,0,0,
31,31,31,0,0,0,0,0,0,0,0,0,0,0,0,0
</chunk>
   <chunk x="0" y="48" width="16" height="16">
0,0,0,31,31,31,31,31,31,37,37,38,37,31,31,31,
0,0,0,31,31,31,31,31,31,62,62,63,62,31,31,31,
0,0,0,31,31,31,31,31,31,31,31,31,31,31,31,31,
0,0,0,31,31,31,31,31,31,31,31,31,31,31,31,31,
0,0,0,31,31,31,31,31,235,37,37,38,37,31,31,31,
0,0,0,31,31,31,31,31,235,62,62,63,62,31,31,31,
0,0,0,31,31,31,31,31,235,37,37,38,37,31,31,31,
0,0,0,31,31,31,31,31,31,62,62,63,62,31,31,31,
0,0,0,31,31,31,31,31,31,37,37,38,37,31,31,31,
0,0,0,31,31,31,31,31,31,62,62,63,62,31,31,31,
0,0,0,31,31,31,31,31,31,37,37,38,37,38,37,38,
0,0,0,31,31,31,31,31,31,62,62,63,62,63,62,63,
0,0,0,31,31,31,31,31,31,37,37,38,37,38,37,38,
0,0,0,31,31,31,31,31,31,62,62,63,62,63,62,63,
0,0,0,31,31,31,31,31,31,37,37,38,37,38,37,38,
0,0,0,31,31,31,31,31,31,62,62,63,62,63,62,63
</chunk>
   <chunk x="16" y="48" width="16" height="16">
31,31,31,31,31,31,31,31,31,37,38,37,38,37,38,37,
31,31,31,31,31,31,31,31,31,62,63,62,63,62,63,62,
31,31,31,31,31,31,31,31,31,37,38,37,38,37,38,37,
31,31,31,31,31,31,31,31,31,62,63,62,63,62,63,62,
31,31,31,31,31,31,31,31,31,37,38,37,38,37,38,37,
31,31,31,31,31,31,31,31,31,62,63,62,63,62,63,62,
31,31,31,31,31,31,31,31,31,37,38,37,38,37,38,37,
31,31,31,31,31,31,31,31,31,62,63,62,63,62,63,62,
31,31,31,31,31,31,31,31,31,37,38,37,38,37,38,37,
31,31,31,31,31,31,31,31,31,62,63,62,63,62,63,62,
37,38,37,38,37,37,38,37,38,37,38,37,38,37,38,37,
62,63,62,63,62,62,63,62,63,62,63,62,63,62,63,62,
37,38,37,38,37,37,38,37,38,37,38,37,38,37,38,37,
62,63,62,63,62,62,63,62,63,62,63,62,63,62,63,62,
37,38,37,38,37,37,38,37,38,37,38,37,38,37,38,37,
62,63,62,63,62,62,63,62,63,62,63,62,63,62,63,62
</chunk>
   <chunk x="32" y="48" width="16" height="16">
38,37,38,37,38,37,38,37,38,37,38,37,37,31,31,31,
63,62,63,62,63,62,63,62,63,62,63,62,62,31,31,31,
38,37,38,37,38,37,38,37,38,37,38,37,37,31,31,31,
63,62,63,62,63,62,63,62,63,62,63,62,62,31,31,31,
38,37,38,37,38,37,38,37,38,37,38,37,37,31,31,31,
63,62,63,62,63,62,63,62,63,62,63,62,62,31,31,31,
38,37,38,37,38,37,38,37,38,37,38,37,37,31,31,31,
63,62,63,62,63,62,63,62,63,62,63,62,62,31,31,31,
38,37,38,37,38,37,38,37,38,37,38,37,37,31,31,31,
63,62,63,62,63,62,63,62,63,62,63,62,62,31,31,31,
38,37,38,37,38,37,38,37,38,37,38,37,37,31,31,31,
63,62,63,62,63,62,63,62,63,62,63,62,62,31,31,31,
38,37,38,37,38,37,38,37,38,37,38,37,37,31,31,31,
63,62,63,62,63,62,63,62,63,62,63,62,62,31,31,31,
38,37,38,37,38,37,38,37,38,37,38,37,37,31,31,31,
63,62,63,62,63,62,63,62,63,62,63,62,62,31,31,31
</chunk>
   <chunk x="48" y="48" width="16" height="16">
31,31,31,0,0,0,0,0,0,0,0,0,0,0,0,0,
31,31,31,0,0,0,0,0,0,0,0,0,0,0,0,0,
31,31,31,0,0,0,0,0,0,0,0,0,0,0,0,0,
31,31,31,0,0,0,0,0,0,0,0,0,0,0,0,0,
31,31,31,0,0,0,0,0,0,0,0,0,0,0,0,0,
31,31,31,0,0,0,0,0,0,0,0,0,0,0,0,0,
31,31,31,0,0,0,0,0,0,0,0,0,0,0,0,0,
31,31,31,0,0,0,0,0,0,0,0,0,0,0,0,0,
31,31,31,0,0,0,0,0,0,0,0,0,0,0,0,0,
31,31,31,0,0,0,0,0,0,0,0,0,0,0,0,0,
31,31,31,0,0,0,0,0,0,0,0,0,0,0,0,0,
31,31,31,0,0,0,0,0,0,0,0,0,0,0,0,0,
31,31,31,0,0,0,0,0,0,0,0,0,0,0,0,0,
31,31,31,0,0,0,0,0,0,0,0,0,0,0,0,0,
31,31,31,0,0,0,0,0,0,0,0,0,0,0,0,0,
31,31,31,0,0,0,0,0,0,0,0,0,0,0,0,0
</chunk>
   <chunk x="0" y="64" width="16" height="16">
0,0,0,31,31,31,31,31,31,37,37,38,37,38,37,38,
0,0,0,31,31,31,31,31,31,62,62,63,62,63,62,63,
0,0,0,31,31,31,31,31,31,37,37,38,37,38,37,38,
0,0,0,31,31,31,31,31,31,62,62,63,62,63,62,63,
0,0,0,31,31,31,31,31,31,37,37,38,37,38,37,38,
0,0,0,31,31,31,31,31,31,62,62,63,62,63,62,63,
0,0,0,0,0,0,0,0,0,0,0,0,0,0,0,0,
0,0,0,0,0,0,0,0,0,0,0,0,0,0,0,0,
0,0,0,0,0,0,0,0,0,0,0,0,0,0,0,0,
0,0,0,0,0,0,0,0,0,0,0,0,0,0,0,0,
0,0,0,0,0,0,0,0,0,0,0,0,0,0,0,0,
0,0,0,0,0,0,0,0,0,0,0,0,0,0,0,0,
0,0,0,0,0,0,0,0,0,0,0,0,0,0,0,0,
0,0,0,0,0,0,0,0,0,0,0,0,0,0,0,0,
0,0,0,0,0,0,0,0,0,0,0,0,0,0,0,0,
0,0,0,0,0,0,0,0,0,0,0,0,0,0,0,0
</chunk>
   <chunk x="16" y="64" width="16" height="16">
37,38,37,38,37,37,38,37,38,37,38,37,38,37,38,37,
62,63,62,63,62,62,63,62,63,62,63,62,63,62,63,62,
37,38,37,38,37,37,38,37,38,37,38,37,38,37,38,37,
62,63,62,63,62,62,63,62,63,62,63,62,63,62,63,62,
37,38,37,38,37,37,38,37,38,37,38,37,38,37,38,37,
62,63,62,63,62,62,63,62,63,62,63,62,63,62,63,62,
0,0,0,0,0,0,0,0,0,0,0,0,0,0,0,0,
0,0,0,0,0,0,0,0,0,0,0,0,0,0,0,0,
0,0,0,0,0,0,0,0,0,0,0,0,0,0,0,0,
0,0,0,0,0,0,0,0,0,0,0,0,0,0,0,0,
0,0,0,0,0,0,0,0,0,0,0,0,0,0,0,0,
0,0,0,0,0,0,0,0,0,0,0,0,0,0,0,0,
0,0,0,0,0,0,0,0,0,0,0,0,0,0,0,0,
0,0,0,0,0,0,0,0,0,0,0,0,0,0,0,0,
0,0,0,0,0,0,0,0,0,0,0,0,0,0,0,0,
0,0,0,0,0,0,0,0,0,0,0,0,0,0,0,0
</chunk>
   <chunk x="32" y="64" width="16" height="16">
38,37,38,37,38,37,38,37,38,37,38,37,37,31,31,31,
63,62,63,62,63,62,63,62,63,62,63,62,62,31,31,31,
38,37,38,37,38,37,38,37,38,37,38,37,37,31,31,31,
63,62,63,62,63,62,63,62,63,62,63,62,62,31,31,31,
38,37,38,37,38,37,38,37,38,37,38,37,37,31,31,31,
63,62,63,62,63,62,63,62,63,62,63,62,62,31,31,31,
0,0,0,0,0,0,0,0,0,0,0,0,0,0,0,0,
0,0,0,0,0,0,0,0,0,0,0,0,0,0,0,0,
0,0,0,0,0,0,0,0,0,0,0,0,0,0,0,0,
0,0,0,0,0,0,0,0,0,0,0,0,0,0,0,0,
0,0,0,0,0,0,0,0,0,0,0,0,0,0,0,0,
0,0,0,0,0,0,0,0,0,0,0,0,0,0,0,0,
0,0,0,0,0,0,0,0,0,0,0,0,0,0,0,0,
0,0,0,0,0,0,0,0,0,0,0,0,0,0,0,0,
0,0,0,0,0,0,0,0,0,0,0,0,0,0,0,0,
0,0,0,0,0,0,0,0,0,0,0,0,0,0,0,0
</chunk>
   <chunk x="48" y="64" width="16" height="16">
31,31,31,0,0,0,0,0,0,0,0,0,0,0,0,0,
31,31,31,0,0,0,0,0,0,0,0,0,0,0,0,0,
31,31,31,0,0,0,0,0,0,0,0,0,0,0,0,0,
31,31,31,0,0,0,0,0,0,0,0,0,0,0,0,0,
31,31,31,0,0,0,0,0,0,0,0,0,0,0,0,0,
31,31,31,0,0,0,0,0,0,0,0,0,0,0,0,0,
0,0,0,0,0,0,0,0,0,0,0,0,0,0,0,0,
0,0,0,0,0,0,0,0,0,0,0,0,0,0,0,0,
0,0,0,0,0,0,0,0,0,0,0,0,0,0,0,0,
0,0,0,0,0,0,0,0,0,0,0,0,0,0,0,0,
0,0,0,0,0,0,0,0,0,0,0,0,0,0,0,0,
0,0,0,0,0,0,0,0,0,0,0,0,0,0,0,0,
0,0,0,0,0,0,0,0,0,0,0,0,0,0,0,0,
0,0,0,0,0,0,0,0,0,0,0,0,0,0,0,0,
0,0,0,0,0,0,0,0,0,0,0,0,0,0,0,0,
0,0,0,0,0,0,0,0,0,0,0,0,0,0,0,0
</chunk>
  </data>
 </layer>
 <layer id="2" name="Parede" width="30" height="20">
  <data encoding="csv">
   <chunk x="0" y="-48" width="16" height="16">
0,0,0,0,0,0,0,0,0,0,0,0,0,0,0,0,
0,0,0,0,0,0,0,0,0,0,0,0,0,0,0,0,
0,0,0,0,0,0,0,0,0,0,0,0,0,0,0,0,
0,0,0,0,0,0,0,0,0,0,0,0,0,0,0,0,
0,0,0,0,0,0,0,0,0,0,0,0,0,0,0,0,
0,0,6904,0,0,0,0,0,0,0,0,0,0,0,0,0,
0,0,6904,0,0,0,0,0,0,0,0,0,0,0,0,0,
0,0,6904,0,0,0,0,0,0,0,0,0,0,0,0,0,
0,0,6904,0,0,0,0,0,0,0,0,0,0,0,0,0,
0,0,6904,0,0,0,0,0,0,0,0,0,0,0,0,0,
0,0,6904,0,0,0,0,0,0,0,0,0,0,0,0,0,
0,0,6904,0,0,0,0,0,0,0,0,0,0,0,0,0,
0,0,6904,0,0,0,0,0,0,0,0,0,0,0,0,0,
0,0,6904,0,0,0,0,0,0,0,0,0,0,0,0,0,
0,0,6904,0,0,0,0,0,0,0,0,0,0,0,0,0,
0,0,6904,0,0,0,0,0,0,0,0,0,0,0,0,0
</chunk>
   <chunk x="0" y="-32" width="16" height="16">
0,0,6904,0,0,0,0,0,0,0,0,0,0,0,0,0,
0,0,6904,0,0,0,0,0,0,0,0,0,0,0,0,0,
0,0,6904,0,0,0,0,0,0,0,0,0,0,0,0,0,
0,0,6904,0,0,0,0,0,0,0,0,0,0,0,0,0,
0,0,6904,0,0,0,0,0,0,0,0,0,0,0,0,0,
0,0,6904,0,0,0,0,0,0,0,0,0,0,0,0,0,
0,0,6904,0,0,0,0,0,0,0,0,0,0,0,0,0,
0,0,6904,0,0,0,0,0,0,0,0,0,0,0,0,0,
0,0,6904,0,0,0,0,0,0,0,0,0,0,0,0,0,
0,0,6904,0,0,0,0,0,0,0,0,0,0,0,0,0,
0,0,6904,0,0,0,0,0,0,0,0,0,0,0,0,0,
0,0,6904,0,0,0,0,0,0,0,0,0,0,0,0,0,
0,0,6904,0,0,0,0,0,0,0,0,0,0,0,0,0,
0,0,6904,0,0,0,0,0,0,0,0,0,0,0,0,0,
0,0,6904,0,0,0,0,0,0,0,0,0,0,0,0,0,
0,0,6904,0,0,0,0,0,0,0,0,0,0,0,0,0
</chunk>
   <chunk x="-32" y="-16" width="16" height="16">
0,0,0,0,0,0,0,0,0,0,0,0,0,0,0,0,
0,0,0,0,0,0,0,0,0,0,0,0,0,0,0,0,
0,0,0,0,0,0,0,0,0,0,0,0,0,0,0,0,
0,0,0,0,0,0,0,0,0,0,0,0,0,0,0,0,
0,0,0,0,0,0,0,0,0,0,0,0,6904,6904,6904,6904,
0,0,0,0,0,0,0,0,0,0,0,0,6904,6904,6904,6904,
0,0,0,0,0,0,0,0,0,0,0,0,6904,6904,6904,6904,
0,0,0,0,0,0,0,0,0,0,0,0,6904,6388,0,0,
0,0,0,0,0,0,0,0,0,0,0,0,6904,6388,0,0,
0,0,0,0,0,0,0,0,0,0,0,0,6904,6388,0,0,
0,0,0,0,0,0,0,0,0,0,0,0,6904,1043,0,0,
0,0,0,0,0,0,0,0,0,0,0,0,6904,1043,0,0,
0,0,0,0,0,0,0,0,0,0,0,0,6904,6904,6904,6904,
0,0,0,0,0,0,0,0,0,0,0,0,6904,6904,6904,6904,
0,0,0,0,0,0,0,0,0,0,0,0,6904,6904,6904,6904,
0,0,0,0,0,0,0,0,0,0,0,0,0,0,0,0
</chunk>
   <chunk x="-16" y="-16" width="16" height="16">
0,0,0,0,0,0,0,0,0,0,0,0,0,0,0,0,
0,0,0,0,0,0,0,0,0,0,0,0,0,0,0,0,
0,0,0,0,0,0,0,0,0,0,0,0,0,0,0,0,
0,0,0,0,0,0,0,0,0,0,0,0,0,0,0,0,
6904,6904,6904,6904,6904,6904,6904,6904,6904,6904,0,0,0,0,0,0,
6904,6904,6904,6904,6904,6904,6904,6904,6904,6904,0,0,0,0,0,0,
6904,6904,6904,6904,6904,6904,6904,6904,6904,6904,0,0,0,0,0,0,
0,0,0,0,0,0,0,0,0,6904,6904,6904,6904,6904,6904,6904,
0,0,0,0,0,0,0,0,0,6904,6904,6904,6904,6904,6904,6904,
0,0,0,0,0,0,0,0,0,6904,6904,6904,6904,6904,6904,6904,
1043,0,0,1043,0,0,1043,0,0,0,0,0,0,0,0,6904,
1043,0,0,1043,0,0,1043,0,0,0,0,0,0,0,0,6904,
6904,6904,6904,6904,6904,6904,6904,6904,6904,6904,6904,7492,6324,6324,6324,6904,
6904,6904,6904,6904,6904,6904,6904,6904,6904,6904,6904,6324,6324,6324,6324,6904,
6904,6904,6904,6904,6904,6904,6904,6904,6904,6904,6904,6324,6324,6324,6324,6904,
0,0,0,0,0,0,0,0,0,0,0,6324,6324,0,6324,0
</chunk>
   <chunk x="0" y="-16" width="16" height="16">
0,0,6904,0,0,0,0,0,0,0,0,0,0,0,0,0,
0,0,6904,0,0,0,0,0,0,0,0,0,0,0,0,0,
0,0,6904,0,0,0,0,0,0,0,0,0,0,0,0,0,
0,0,6904,0,0,0,0,0,0,0,0,0,0,0,0,0,
0,0,6904,0,0,0,0,0,0,0,0,0,0,0,0,0,
0,0,6904,0,0,0,0,0,0,0,0,0,0,0,0,0,
0,0,6904,0,0,0,0,0,0,0,0,0,0,0,0,0,
0,0,6904,0,0,0,0,0,0,0,0,0,0,0,0,0,
0,0,6904,0,0,0,0,0,0,0,0,0,0,0,0,0,
0,0,6904,0,0,0,0,0,0,0,0,0,0,0,0,0,
0,0,6904,0,0,0,0,0,0,0,0,0,0,0,0,0,
0,0,6904,0,0,0,0,0,0,0,0,0,0,0,0,0,
6904,6904,6904,0,0,0,0,0,0,0,0,0,0,0,0,0,
6904,6904,6904,0,0,0,0,0,0,0,0,0,0,0,0,0,
6904,6904,6904,0,0,0,0,0,0,0,0,0,0,0,0,0,
0,0,0,0,0,0,0,0,0,0,0,0,0,0,0,0
</chunk>
   <chunk x="16" y="-16" width="16" height="16">
0,0,0,0,0,0,0,0,0,0,0,0,0,0,0,0,
0,0,0,0,0,0,0,0,0,0,0,0,0,0,0,0,
0,0,0,0,0,0,0,0,0,0,0,0,0,0,0,0,
0,0,0,0,0,0,0,0,0,0,0,0,0,0,0,0,
0,0,0,0,0,0,0,0,0,0,0,0,0,0,0,0,
0,0,0,0,0,0,0,6904,6904,6904,6904,6904,6904,6904,6904,6904,
0,0,0,0,0,0,0,6904,6904,6904,6904,6904,6904,6904,6904,6904,
0,0,0,0,0,0,0,6904,6904,6904,6904,6904,6904,6904,6904,6904,
0,0,0,0,0,0,0,6904,0,6463,6463,6463,6463,6463,6463,0,
0,0,0,0,0,0,0,6904,0,0,0,0,0,0,0,0,
0,0,0,0,0,0,0,6904,0,0,0,0,0,0,0,0,
0,0,0,0,0,0,0,6904,0,0,0,0,6904,0,0,0,
0,0,0,0,0,0,0,6904,0,0,0,0,6904,0,0,0,
0,0,0,0,0,0,0,6904,0,0,0,0,6904,0,0,0,
0,0,0,0,0,0,0,6904,6904,6904,6904,6904,6904,0,0,0,
0,0,0,0,0,0,0,0,0,0,0,0,0,0,0,0
</chunk>
   <chunk x="32" y="-16" width="16" height="16">
0,0,0,0,0,0,0,0,0,0,0,0,0,0,0,0,
0,0,0,0,0,0,0,0,0,0,0,0,0,0,0,0,
0,0,0,0,0,0,0,0,0,0,0,0,0,0,0,0,
0,0,0,0,0,0,0,0,0,0,0,0,0,0,0,0,
0,0,0,0,0,0,0,0,0,0,0,0,0,0,0,0,
6904,6905,0,0,0,0,0,0,0,0,0,0,0,0,0,0,
6904,6905,0,0,0,0,0,0,0,0,0,0,0,0,0,0,
6904,6905,0,0,0,0,0,0,0,0,0,0,0,0,0,0,
0,6905,0,0,0,0,0,0,0,0,0,0,0,0,0,0,
0,6905,0,0,0,0,0,0,0,0,0,0,0,0,0,0,
0,6905,0,0,0,0,0,0,0,0,0,0,0,0,0,0,
0,6905,6388,0,0,0,0,0,0,0,0,0,0,0,0,0,
0,6905,6388,0,0,0,0,0,0,0,0,0,0,0,0,0,
0,6905,6388,6388,0,0,0,0,0,0,0,0,0,0,0,0,
0,6905,0,6388,0,0,0,0,0,0,0,0,0,0,0,0,
0,6388,6388,6388,0,0,0,0,0,0,0,0,0,0,0,0
</chunk>
   <chunk x="-32" y="0" width="16" height="16">
0,0,0,0,0,0,0,0,0,0,0,0,0,0,0,0,
0,0,0,0,0,0,0,0,0,0,0,0,0,0,0,0,
0,0,0,0,0,0,0,0,0,0,0,0,0,0,0,0,
0,0,0,0,0,0,0,0,0,0,0,0,0,0,0,0,
0,0,0,0,0,0,0,0,0,0,0,0,0,0,0,0,
0,0,0,0,0,0,0,0,0,0,0,0,6904,6904,0,0,
0,0,0,0,0,0,0,0,0,0,0,0,0,6904,0,0,
0,0,0,0,0,0,0,0,0,0,0,0,0,6904,0,0,
0,0,0,0,0,0,0,0,0,0,0,0,0,6904,0,0,
0,0,0,0,0,0,0,0,0,0,0,0,0,6904,0,0,
0,0,0,0,0,0,0,0,0,0,0,0,0,6904,0,0,
0,0,0,0,0,0,0,0,0,0,0,0,0,6904,0,0,
0,0,0,0,0,0,0,0,0,0,0,0,0,6904,0,0,
0,0,0,0,0,0,0,0,0,0,0,0,0,6904,0,0,
0,0,0,0,0,0,0,0,0,0,0,0,0,6904,0,0,
0,0,0,0,0,0,0,0,0,0,0,0,0,6904,0,0
</chunk>
   <chunk x="-16" y="0" width="16" height="16">
0,0,0,0,0,0,0,0,0,0,0,0,0,0,0,0,
0,0,0,0,0,0,0,0,0,0,0,0,0,0,0,0,
0,0,0,0,6450,6450,6450,6450,6450,6450,6450,6450,6450,0,0,0,
0,0,0,0,6450,6450,6450,6450,6450,6450,6450,6450,6450,0,0,0,
0,0,0,0,0,6904,6904,6904,6904,6904,6904,6904,0,0,0,0,
0,0,0,0,0,6904,6904,6904,6904,6904,6904,6904,0,0,0,0,
0,0,0,0,0,6969,6969,6969,6969,6969,6969,6904,0,0,0,0,
0,0,0,0,0,6904,0,0,0,0,0,6904,0,0,0,0,
0,0,0,0,0,6904,0,0,0,0,0,6904,0,6450,6450,6450,
0,0,0,0,0,6904,0,0,0,0,0,6904,0,6450,6450,6450,
0,0,0,0,0,6904,0,6450,6450,6450,6450,6904,0,6450,6450,6450,
0,0,0,0,0,6904,0,6388,6969,6969,6969,6969,0,6450,6450,6450,
0,0,0,0,0,6904,0,0,0,0,0,0,0,0,6904,0,
0,0,0,0,0,6904,0,0,0,0,0,0,0,0,6904,0,
0,0,0,0,0,6904,0,0,0,0,0,0,0,0,6904,0,
0,0,0,0,0,6904,0,0,0,0,0,0,0,0,6904,0
</chunk>
   <chunk x="16" y="0" width="16" height="16">
0,0,0,0,0,0,0,0,0,0,0,0,0,0,0,0,
0,0,0,0,0,0,0,0,0,0,0,0,0,0,0,0,
0,0,0,0,0,0,0,0,0,0,0,0,0,0,0,0,
0,0,0,0,0,0,0,0,0,6709,6594,989,989,7031,7031,7031,
0,0,0,0,0,0,0,0,0,6709,6722,0,0,0,0,0,
0,0,0,0,0,0,0,0,0,6709,6722,0,0,0,0,0,
0,0,0,0,0,0,0,0,0,6709,6722,0,0,0,0,0,
0,0,0,0,0,0,0,0,0,6709,6722,0,0,0,0,0,
0,0,0,0,0,0,0,0,0,6709,6722,0,0,0,0,0,
0,0,0,0,0,0,0,0,0,6709,6722,0,0,0,0,0,
0,0,0,0,0,0,0,0,0,6709,6722,0,0,0,0,0,
0,0,0,0,0,0,0,0,0,6709,6722,0,0,0,0,0,
0,0,0,0,0,0,0,0,0,6709,6722,0,0,0,0,0,
0,0,0,0,0,0,0,0,0,6709,6722,7108,0,0,0,0,
0,0,0,0,0,0,0,0,0,6709,6722,7108,0,0,0,0,
0,0,0,0,0,0,0,0,0,6709,6722,7108,0,0,0,0
</chunk>
   <chunk x="32" y="0" width="16" height="16">
0,0,0,0,0,0,0,0,0,0,0,0,0,0,0,0,
0,0,0,0,0,0,0,0,0,0,0,0,0,0,0,0,
0,0,0,0,0,0,0,0,0,0,0,0,0,0,0,0,
7031,6581,6594,7031,7031,7031,7031,6581,6722,0,0,0,0,0,0,0,
0,6709,6722,6452,0,0,0,6709,6722,0,0,0,0,0,0,0,
0,6709,6722,6452,0,0,0,6709,6722,0,0,0,0,0,0,0,
0,6709,6722,0,0,0,0,6709,6722,0,0,0,0,0,0,0,
0,6452,6452,0,0,0,0,6709,6722,0,0,0,0,0,0,0,
0,6452,6452,0,0,0,0,6709,6722,0,0,0,0,0,0,0,
0,7157,7158,6775,6775,6776,6777,7169,7170,0,0,0,0,0,0,0,
0,7285,7286,6967,6968,6969,6970,7233,7234,0,0,0,0,0,0,0,
0,7349,7350,7031,7032,7033,7034,7361,7298,0,0,0,0,0,0,0,
0,7091,7091,0,0,0,0,6709,6722,0,0,0,0,0,0,0,
0,0,0,0,0,0,0,6709,6722,0,0,0,0,0,0,0,
0,0,0,0,0,0,0,6709,6722,0,0,0,0,0,0,0,
0,0,0,0,0,0,0,6709,6722,0,0,0,0,0,0,0
</chunk>
   <chunk x="-32" y="16" width="16" height="16">
0,0,0,0,0,0,0,0,0,0,0,0,0,6904,0,0,
0,0,0,0,0,0,0,0,0,0,0,0,0,6904,0,0,
0,0,0,0,0,0,0,0,0,0,0,0,0,6904,0,0,
0,0,0,0,0,0,0,0,0,0,0,0,0,6904,0,0,
0,0,0,0,0,0,0,0,0,0,0,0,0,6904,0,0,
0,0,0,0,0,0,0,0,0,0,0,0,6904,6904,0,0,
0,0,0,0,0,0,0,0,0,0,0,0,0,0,0,0,
0,0,0,0,0,0,0,0,0,0,0,0,0,0,0,0,
0,0,0,0,0,0,0,0,0,0,0,0,0,0,0,0,
0,0,0,0,0,0,0,0,0,0,0,0,0,0,0,0,
0,0,0,0,0,0,0,0,0,0,0,0,0,0,0,0,
0,0,0,0,0,0,0,0,0,0,0,0,0,0,0,0,
0,0,0,0,0,0,0,0,0,0,0,0,6904,6904,6904,6904,
0,0,0,0,0,0,0,0,0,0,0,0,6904,1043,0,0,
0,0,0,0,0,0,0,0,0,0,0,0,6904,1043,0,0,
0,0,0,0,0,0,0,0,0,0,0,0,6904,0,0,0
</chunk>
   <chunk x="-16" y="16" width="16" height="16">
0,0,0,0,0,6904,0,0,0,0,0,0,0,0,6904,0,
0,0,0,0,0,6904,0,0,0,0,0,0,0,0,6904,0,
0,0,0,0,0,6904,0,0,0,0,0,0,0,0,6904,0,
0,0,0,0,0,6904,0,0,0,0,0,0,0,0,6904,0,
0,0,0,0,0,6904,0,0,0,0,0,0,0,0,6904,0,
0,0,0,0,0,6904,0,0,0,0,0,0,0,0,6904,0,
0,0,0,0,0,6904,6450,6450,6450,6450,6450,6450,6450,6450,6904,0,
0,0,0,0,0,6969,6969,6969,6969,6969,6969,6969,6969,6969,6969,0,
0,0,0,0,0,0,0,0,0,0,0,0,0,0,0,0,
0,0,0,0,0,0,0,0,0,0,0,0,0,0,0,0,
0,0,0,0,0,0,0,0,0,0,0,0,0,0,0,0,
0,0,0,0,0,0,0,0,0,0,0,0,0,0,0,0,
6904,6904,6904,6904,6904,6904,6904,6904,6904,6904,6904,6904,304,304,6904,6904,
1043,0,0,1043,0,0,1043,0,0,0,0,0,0,0,6904,0,
1043,0,0,1043,0,0,1043,0,0,0,0,0,0,0,6904,0,
0,0,0,0,0,0,0,0,0,6904,6904,6904,6904,6904,6904,0
</chunk>
   <chunk x="0" y="16" width="16" height="16">
0,0,0,0,0,0,0,0,0,0,0,0,0,0,0,0,
0,0,0,0,0,0,0,0,0,0,0,0,0,0,0,0,
0,0,0,0,0,0,0,0,0,0,0,0,0,0,0,0,
0,0,0,0,0,0,0,0,0,0,0,0,0,0,0,0,
0,0,0,0,0,0,0,0,0,0,0,0,0,0,0,0,
0,0,0,0,0,0,0,0,0,0,0,0,0,0,0,0,
0,0,0,0,0,0,0,0,0,0,0,0,0,0,0,0,
0,0,0,0,0,0,0,0,0,0,0,0,0,0,0,0,
0,0,0,0,0,0,0,0,0,0,0,0,0,0,0,0,
0,0,0,0,0,0,0,0,0,0,0,0,0,0,0,0,
0,0,0,0,0,0,0,0,0,0,0,0,0,0,0,0,
0,0,0,0,0,0,0,0,0,0,0,0,0,0,0,0,
6904,6904,6904,0,0,0,0,0,0,0,0,0,0,0,0,0,
0,0,6904,0,0,0,0,0,0,0,0,0,0,0,0,0,
0,0,6904,0,0,0,0,0,0,0,0,0,0,0,0,0,
0,0,6904,0,0,0,0,0,0,0,0,0,0,0,0,0
</chunk>
   <chunk x="16" y="16" width="16" height="16">
0,0,0,0,0,0,0,0,0,6709,6722,7108,0,0,0,0,
0,0,0,0,0,0,0,0,0,6773,6774,6778,6778,6778,7155,7155,
0,0,0,0,0,0,0,0,0,6837,7158,6842,6842,6842,7155,7155,
0,0,0,0,0,0,0,0,0,6901,6902,6904,6905,6906,7155,7155,
0,0,0,0,0,0,0,0,0,6965,6966,6968,6969,6970,7155,7155,
0,0,0,0,0,0,0,0,0,7029,7030,7032,7033,7034,7155,7155,
0,0,0,0,0,0,0,0,0,0,0,0,0,6515,6515,0,
0,0,0,0,0,0,0,0,0,0,0,0,0,0,0,0,
0,0,0,0,0,0,0,0,0,0,0,0,0,0,0,0,
0,0,0,0,0,0,0,0,0,0,0,0,0,0,0,0,
0,0,0,0,0,0,0,0,0,0,0,0,0,0,0,0,
0,0,0,0,0,0,0,0,0,0,0,0,0,0,0,0,
0,0,0,0,0,0,0,6904,6904,6904,6904,6904,6904,0,0,0,
0,0,0,0,0,0,0,6904,0,0,0,0,6904,0,0,0,
0,0,0,0,0,0,0,6904,0,0,0,0,6904,0,0,0,
0,0,0,0,0,0,0,6904,0,0,0,0,6904,0,0,0
</chunk>
   <chunk x="32" y="16" width="16" height="16">
0,0,0,0,0,0,0,6709,6722,0,0,0,0,0,0,0,
7155,7155,6778,6778,6778,6778,6778,6785,6786,0,0,0,0,0,0,0,
7155,6904,6842,6842,6842,6842,6842,6849,6850,0,0,0,0,0,0,0,
7155,6904,6903,6904,6905,6903,6904,7169,6914,0,0,0,0,0,0,0,
7155,6904,6967,6968,6969,6967,6968,6977,6978,0,0,0,0,0,0,0,
7155,7155,7031,7032,7033,7031,7032,7041,7042,0,0,0,0,0,0,0,
0,0,0,0,0,0,0,0,0,0,0,0,0,0,0,0,
0,0,0,0,0,0,0,0,0,0,0,0,0,0,0,0,
0,0,0,0,0,0,0,0,0,0,0,0,0,0,0,0,
0,0,0,0,0,0,0,0,0,0,0,0,0,0,0,0,
0,0,0,0,0,0,0,0,0,0,0,0,0,0,0,0,
0,0,0,0,0,0,0,0,0,0,0,0,0,0,0,0,
0,6904,0,0,0,0,0,0,0,0,0,0,0,0,0,0,
0,6904,0,0,0,0,0,0,0,0,0,0,0,0,0,0,
0,6904,0,0,0,0,0,0,0,0,0,0,0,0,0,0,
0,6904,0,0,0,0,0,0,0,0,0,0,0,0,0,0
</chunk>
   <chunk x="-32" y="32" width="16" height="16">
0,0,0,0,0,0,0,0,0,0,0,0,6904,0,0,0,
0,0,0,0,0,0,0,0,0,0,0,0,6904,0,0,0,
0,0,0,0,0,0,0,0,0,0,0,0,6904,6904,6904,6904,
0,0,0,0,0,0,0,0,0,0,0,0,6904,6904,6904,6904,
0,0,0,0,0,0,0,0,0,0,0,0,6904,6904,6904,6904,
0,0,0,0,0,0,0,0,0,0,0,0,0,0,0,0,
0,0,0,0,0,0,0,0,0,0,0,0,0,0,0,0,
0,0,0,0,0,0,0,0,0,0,0,0,0,0,0,0,
0,0,0,0,0,0,0,0,0,0,0,0,0,0,0,0,
0,0,0,0,0,0,0,0,0,0,0,0,0,0,0,0,
0,0,0,0,0,0,0,0,0,0,0,0,0,0,0,0,
0,0,0,0,0,0,0,0,0,0,0,0,0,0,0,0,
0,0,0,0,0,0,0,0,0,0,0,0,0,0,0,0,
0,0,0,0,0,0,0,0,0,0,0,0,0,0,0,0,
0,0,0,0,0,0,0,0,0,0,0,0,0,0,0,0,
0,0,0,0,0,0,0,0,0,0,0,0,0,0,0,0
</chunk>
   <chunk x="-16" y="32" width="16" height="16">
0,0,0,0,0,0,0,0,0,6904,6904,6904,6904,6904,6904,0,
0,0,0,0,0,0,0,0,0,6904,6904,6904,6904,6904,6904,0,
6904,6904,6904,6904,6904,6904,6904,6904,6904,6904,0,0,0,0,0,0,
6904,6904,6904,6904,6904,6904,6904,6904,6904,6904,0,0,0,0,0,0,
6904,6904,6904,6904,6904,6904,6904,6904,6904,6904,0,0,0,0,0,0,
0,0,0,0,0,0,0,0,0,0,0,0,0,0,0,0,
0,0,0,0,0,0,0,0,0,0,0,0,0,0,0,0,
0,0,0,0,0,0,0,0,0,0,0,0,0,0,0,0,
0,0,0,0,0,0,0,0,0,0,0,0,0,0,0,0,
0,0,0,0,0,0,0,0,0,0,0,0,0,0,0,0,
0,0,0,0,0,0,0,0,0,0,0,0,0,0,0,0,
0,0,0,0,0,0,0,0,0,0,0,0,0,0,0,0,
0,0,0,0,0,0,0,0,0,0,0,0,0,0,0,0,
0,0,0,0,0,0,0,0,0,0,0,0,0,0,0,0,
0,0,0,0,0,0,0,0,0,0,0,0,0,0,0,0,
0,0,0,0,0,0,0,0,0,0,0,0,0,0,0,0
</chunk>
   <chunk x="0" y="32" width="16" height="16">
0,0,6904,0,0,0,0,0,0,0,0,0,0,0,0,0,
0,0,6904,0,0,0,0,0,0,0,0,0,0,0,0,0,
0,0,6904,0,0,0,0,0,0,0,0,0,0,0,0,0,
0,0,6904,0,0,0,0,0,0,0,0,0,0,0,0,0,
0,0,6904,0,0,0,0,0,0,0,0,0,0,0,0,0,
0,0,6904,0,0,0,0,0,0,0,0,0,0,0,0,0,
0,0,6904,0,0,0,0,0,0,0,0,0,0,0,0,0,
0,0,6904,0,0,0,0,0,0,0,0,0,0,0,0,0,
0,0,6904,0,0,0,0,0,0,0,0,0,0,0,0,0,
0,0,6904,0,0,0,0,0,0,0,0,0,0,0,0,0,
0,0,6904,0,0,0,0,0,0,0,0,0,0,0,0,0,
0,0,6904,0,0,0,0,0,0,0,0,0,0,0,0,0,
0,0,6904,0,0,0,0,0,0,0,0,0,7093,7094,7095,7095,
0,0,6904,0,0,0,0,0,0,0,0,0,6901,6902,6839,6839,
0,0,6904,0,0,0,0,0,0,0,0,0,6965,6966,6967,6967,
0,0,6904,0,0,0,0,0,0,0,0,0,6901,6594,7031,7031
</chunk>
   <chunk x="16" y="32" width="16" height="16">
0,0,0,0,0,0,0,6904,0,0,0,0,6904,0,0,0,
0,0,0,0,0,0,0,6904,0,0,0,0,0,0,0,0,
0,0,0,0,0,0,0,6904,0,0,0,0,0,0,0,0,
0,0,0,0,0,0,0,6904,6904,6904,6904,6904,6904,6904,6904,6904,
0,0,0,0,0,0,0,6904,7288,7289,6904,7166,7167,6904,7294,7295,
0,0,0,0,0,0,0,6904,6904,6904,6904,7230,7231,6904,6904,6904,
0,0,0,0,0,0,0,0,0,0,0,0,0,0,0,0,
0,0,0,0,0,0,0,0,0,0,0,0,0,0,0,0,
0,0,0,0,0,0,0,0,0,0,0,0,0,0,0,0,
0,0,0,0,0,0,0,0,0,0,0,0,0,0,0,0,
0,0,0,0,0,0,0,0,0,0,0,0,0,0,0,0,
0,0,0,0,0,0,0,0,0,0,0,0,0,0,0,0,
7095,7095,7095,7095,7095,7096,7097,7098,7105,7106,0,0,0,0,0,0,
6839,6839,6839,6839,6839,6840,6841,6842,6913,6914,0,0,0,0,0,0,
6967,6967,6967,6967,6967,6967,6968,6969,6977,6978,0,0,0,0,0,0,
7031,7031,7031,7031,7031,7031,7032,7033,6581,6978,0,0,0,0,0,0
</chunk>
   <chunk x="32" y="32" width="16" height="16">
0,6904,0,0,0,0,0,0,0,0,0,0,0,0,0,0,
0,6904,0,0,0,0,0,0,0,0,0,0,0,0,0,0,
0,6904,0,0,0,0,0,0,0,0,0,0,0,0,0,0,
6904,6904,0,0,0,0,0,0,0,0,0,0,0,0,0,0,
6904,6904,0,0,0,0,0,0,0,0,0,0,0,0,0,0,
6904,6904,0,0,0,0,0,0,0,0,0,0,0,0,0,0,
0,0,0,0,0,0,0,0,0,0,0,0,0,0,0,0,
0,0,0,0,0,0,0,0,0,0,0,0,0,0,0,0,
0,0,0,0,0,0,0,0,0,0,0,0,0,0,0,0,
0,0,0,0,0,0,0,0,0,0,0,0,0,0,0,0,
0,0,0,0,0,0,0,0,0,0,0,0,0,0,0,0,
0,0,0,0,0,0,0,0,0,0,0,0,0,0,0,0,
0,0,0,0,0,0,0,0,0,0,0,0,0,0,0,0,
0,0,0,0,0,0,0,0,0,0,0,0,0,0,0,0,
0,0,0,0,0,0,0,0,0,0,0,0,0,0,0,0,
0,0,0,0,0,0,0,0,0,0,0,0,0,0,0,0
</chunk>
   <chunk x="0" y="48" width="16" height="16">
0,0,6904,0,0,0,0,0,0,0,0,0,7285,6914,0,0,
0,0,6904,0,0,0,0,0,0,0,0,0,6709,6914,0,0,
0,0,6904,0,0,0,0,0,0,0,0,0,7412,7412,0,0,
0,0,6904,0,0,0,0,0,0,0,0,0,7412,7412,7412,0,
0,0,6904,0,0,0,0,0,0,0,0,0,7221,6914,0,0,
0,0,6904,0,0,0,0,0,0,0,0,0,6901,6914,0,0,
0,0,6904,0,0,0,0,0,0,0,0,0,6901,6914,0,0,
0,0,6904,0,0,0,0,0,0,0,0,0,6901,6914,0,0,
0,0,6904,0,0,0,0,0,0,0,0,0,6901,6774,6775,6776,
0,0,6904,0,0,0,0,0,0,0,0,0,7157,6838,6839,6840,
0,0,6904,0,0,0,0,0,0,0,0,0,6965,7158,6967,6967,
0,0,6904,0,0,0,0,0,0,0,0,0,7029,7030,7031,7031,
0,0,6904,0,0,0,0,0,0,0,0,0,0,0,0,0,
0,0,6904,0,0,0,0,0,0,0,0,0,0,0,0,0,
0,0,6904,0,0,0,0,0,0,0,0,0,0,0,0,0,
0,0,6904,0,0,0,0,0,0,0,0,0,0,0,0,0
</chunk>
   <chunk x="16" y="48" width="16" height="16">
0,0,0,0,0,0,0,0,6709,6978,0,0,0,0,0,0,
0,0,0,0,0,0,0,0,6709,6978,0,0,0,0,0,0,
0,0,0,0,0,0,0,0,6709,6978,0,0,0,0,0,0,
0,0,0,0,0,0,0,0,6709,6978,0,0,0,0,0,0,
0,0,0,0,0,0,0,0,6709,6978,0,0,0,0,0,0,
0,0,0,0,0,0,0,0,6709,6978,0,0,0,0,0,0,
0,0,0,0,0,0,0,0,6709,6978,0,0,0,0,0,0,
0,0,0,0,0,0,0,0,6709,6978,0,0,0,0,0,0,
6777,6778,6775,6775,6775,6776,6777,6778,6785,6978,0,0,0,0,0,0,
6841,6842,6839,6839,6839,6840,6841,6842,6849,6914,0,0,0,0,0,0,
6967,6967,6967,6967,6967,6967,6967,6967,6977,6978,0,0,0,0,0,0,
7031,7031,7031,7031,7031,7031,7031,7031,7041,7042,0,0,0,0,0,0,
0,0,0,0,0,0,0,0,0,0,0,0,0,0,0,0,
0,0,0,0,0,0,0,0,0,0,0,0,0,0,0,0,
0,0,0,0,0,0,0,0,0,0,0,0,0,0,0,0,
0,0,0,0,0,0,0,0,0,0,0,0,0,0,0,0
</chunk>
   <chunk x="0" y="64" width="16" height="16">
0,0,6904,0,0,0,0,0,0,0,0,0,0,0,0,0,
0,0,6904,0,0,0,0,0,0,0,0,0,0,0,0,0,
0,0,6904,0,0,0,0,0,0,0,0,0,0,0,0,0,
0,0,6904,0,0,0,0,0,0,0,0,0,0,0,0,0,
0,0,6904,0,0,0,0,0,0,0,0,0,0,0,0,0,
0,0,6904,0,0,0,0,0,0,0,0,0,0,0,0,0,
0,0,0,0,0,0,0,0,0,0,0,0,0,0,0,0,
0,0,0,0,0,0,0,0,0,0,0,0,0,0,0,0,
0,0,0,0,0,0,0,0,0,0,0,0,0,0,0,0,
0,0,0,0,0,0,0,0,0,0,0,0,0,0,0,0,
0,0,0,0,0,0,0,0,0,0,0,0,0,0,0,0,
0,0,0,0,0,0,0,0,0,0,0,0,0,0,0,0,
0,0,0,0,0,0,0,0,0,0,0,0,0,0,0,0,
0,0,0,0,0,0,0,0,0,0,0,0,0,0,0,0,
0,0,0,0,0,0,0,0,0,0,0,0,0,0,0,0,
0,0,0,0,0,0,0,0,0,0,0,0,0,0,0,0
</chunk>
  </data>
 </layer>
 <layer id="5" name="Coisas na parede" width="30" height="20">
  <data encoding="csv">
   <chunk x="-16" y="-16" width="16" height="16">
0,0,0,0,0,0,0,0,0,0,0,0,0,0,0,0,
0,0,0,0,0,0,0,0,0,0,0,0,0,0,0,0,
0,0,0,0,0,0,0,0,0,0,0,0,0,0,0,0,
0,0,0,0,0,0,0,0,0,0,0,0,0,0,0,0,
0,0,0,0,0,0,0,0,0,0,0,0,0,0,0,0,
0,0,0,0,0,0,0,0,0,0,0,0,0,0,0,0,
0,0,0,0,0,0,0,0,0,0,0,0,0,0,0,0,
0,0,0,0,0,0,0,0,0,0,0,0,0,0,0,0,
0,0,0,0,0,0,0,0,0,0,0,0,0,0,0,0,
0,0,0,0,0,0,0,0,0,0,0,0,0,0,0,0,
0,0,0,0,0,0,0,0,0,0,0,0,0,0,0,0,
0,0,0,0,0,0,0,0,0,0,0,0,0,0,0,0,
0,0,0,0,0,0,0,0,0,0,0,6396,6396,6396,6396,0,
0,0,0,0,0,0,0,0,0,0,0,6396,6396,6396,6396,0,
0,0,0,0,0,0,0,0,0,0,0,6396,6396,6396,6396,0,
0,0,0,0,0,0,0,0,0,0,0,6396,6396,6396,6396,0
</chunk>
   <chunk x="16" y="-16" width="16" height="16">
0,0,0,0,0,0,0,0,0,0,0,0,0,0,0,0,
0,0,0,0,0,0,0,0,0,0,0,0,0,0,0,0,
0,0,0,0,0,0,0,0,0,0,0,0,0,0,0,0,
0,0,0,0,0,0,0,0,0,0,0,0,0,0,0,0,
0,0,0,0,0,0,0,0,0,0,0,0,0,0,0,0,
0,0,0,0,0,0,0,0,0,0,0,0,0,0,0,0,
0,0,0,0,0,0,0,0,0,0,0,0,0,0,0,0,
0,0,0,0,0,0,0,0,0,0,0,0,0,0,0,0,
0,0,0,0,0,0,0,0,0,0,0,0,0,0,0,0,
0,0,0,0,0,0,0,0,0,0,0,0,0,0,0,0,
0,0,0,0,0,0,0,0,0,0,0,0,0,0,0,0,
0,0,0,0,0,0,0,0,0,0,0,0,210,0,0,0,
0,0,0,0,0,0,0,0,0,0,0,0,135,0,0,0,
0,0,0,0,0,0,0,0,0,0,0,0,135,0,0,0,
0,0,0,0,0,0,0,0,0,0,0,0,160,0,0,0,
0,0,0,0,0,0,0,0,0,0,0,0,0,0,0,0
</chunk>
   <chunk x="0" y="0" width="16" height="16">
0,0,0,0,0,0,0,0,0,0,0,0,0,0,0,0,
0,0,0,0,0,0,0,0,0,0,0,0,0,0,0,0,
0,0,0,0,0,0,0,0,0,0,0,0,0,0,0,0,
0,0,0,0,0,0,0,0,0,0,0,0,0,0,0,0,
0,0,0,0,0,0,0,0,0,0,0,0,0,0,0,0,
0,0,0,0,0,0,0,0,0,7066,0,0,0,0,0,7066,
0,0,0,0,0,0,0,0,0,0,0,0,0,0,0,0,
0,0,0,0,0,0,0,0,0,0,0,0,0,0,0,0,
0,0,0,0,0,0,7066,0,0,0,0,0,0,0,0,0,
0,0,0,0,0,0,0,0,0,0,0,0,0,0,0,0,
0,0,0,0,0,0,0,0,0,0,0,0,0,0,0,0,
0,0,0,0,0,0,0,0,0,0,0,0,0,0,0,0,
0,0,0,0,0,0,0,0,0,0,0,0,0,0,0,0,
0,0,0,0,0,0,0,0,0,0,0,0,0,0,0,0,
0,0,0,0,0,0,0,0,0,0,0,0,0,0,0,0,
0,0,0,0,0,0,0,0,0,0,0,0,0,0,0,0
</chunk>
   <chunk x="16" y="0" width="16" height="16">
0,0,0,0,0,0,0,0,0,0,0,0,0,0,0,0,
0,0,0,0,0,0,0,0,0,0,0,0,0,0,0,0,
0,0,0,0,0,0,0,0,0,0,0,0,0,0,0,0,
0,0,0,0,0,0,0,0,0,0,0,0,0,0,0,0,
0,0,0,0,0,0,0,0,0,0,0,0,0,0,0,0,
0,0,0,0,7066,0,0,0,0,0,0,0,0,0,0,0,
0,0,0,0,0,0,0,0,0,0,0,0,0,0,0,0,
0,0,0,0,0,0,0,0,0,0,0,0,0,0,0,0,
0,0,0,0,0,0,0,7066,0,0,0,0,0,0,0,0,
0,0,0,0,0,0,0,0,0,0,0,0,0,0,0,0,
0,0,0,0,0,0,0,0,0,0,0,0,0,0,0,0,
0,0,0,0,0,0,0,0,0,0,0,0,0,0,0,0,
0,0,0,0,0,0,0,0,0,0,0,0,0,0,0,0,
0,0,0,0,0,0,0,0,0,0,0,0,0,0,0,0,
0,0,0,0,0,0,0,0,0,0,0,0,0,0,0,0,
0,0,0,0,0,0,0,0,0,0,0,0,0,0,0,0
</chunk>
   <chunk x="32" y="0" width="16" height="16">
0,0,0,0,0,0,0,0,0,0,0,0,0,0,0,0,
0,0,0,0,0,0,0,0,0,0,0,0,0,0,0,0,
0,0,0,185,185,185,185,0,0,0,0,0,0,0,0,0,
0,6901,6902,210,210,210,210,6849,6850,0,0,0,0,0,0,0,
0,6965,6966,235,235,235,235,6913,6914,0,0,0,0,0,0,0,
0,7029,7030,260,260,260,260,7041,7042,0,0,0,0,0,0,0,
0,0,0,0,0,0,7107,7107,7107,0,0,0,0,0,0,0,
0,0,0,0,0,0,0,0,0,0,0,0,0,0,0,0,
0,0,0,0,0,0,0,0,0,0,0,0,0,0,0,0,
0,0,0,0,0,0,0,0,0,0,0,0,0,0,0,0,
0,0,0,1816,1817,1814,1815,0,0,0,0,0,0,0,0,0,
0,0,0,1878,1879,1880,1881,0,0,0,0,0,0,0,0,0,
0,0,0,1910,1911,1912,1913,0,0,0,0,0,0,0,0,0,
0,0,0,0,0,0,0,0,0,0,0,0,0,0,0,0,
0,0,0,0,0,0,0,0,0,0,0,0,0,0,0,0,
0,0,0,0,0,0,0,0,0,0,0,0,0,0,0,0
</chunk>
   <chunk x="-16" y="16" width="16" height="16">
0,0,0,0,0,0,0,0,0,0,0,0,0,0,0,0,
0,0,0,0,0,0,0,0,0,0,0,0,8920,8921,0,0,
0,0,0,0,0,0,0,0,0,0,0,0,0,0,0,0,
0,0,0,0,0,0,0,0,0,0,0,0,0,0,0,0,
0,0,0,0,0,0,0,0,0,0,0,0,0,0,0,0,
0,0,0,0,0,0,0,0,0,0,0,0,0,0,0,0,
0,0,0,0,0,0,0,0,0,0,0,0,0,0,0,0,
0,0,0,0,0,0,0,0,0,0,0,0,0,0,0,0,
0,0,0,0,0,0,0,0,0,0,0,0,0,0,0,0,
0,0,0,0,0,0,0,0,0,0,0,0,0,0,0,0,
0,0,0,0,0,0,0,0,0,0,0,0,0,0,0,0,
0,0,0,0,0,0,0,0,0,0,0,0,0,0,0,0,
0,0,0,0,0,0,0,0,0,0,0,0,0,0,0,0,
0,0,0,0,0,0,0,0,0,0,0,0,0,0,0,0,
0,0,0,0,0,0,0,0,0,0,0,0,0,0,0,0,
0,0,0,0,0,0,0,0,0,0,0,0,0,0,0,0
</chunk>
   <chunk x="0" y="16" width="16" height="16">
0,0,0,0,0,0,0,0,0,0,0,0,0,0,0,0,
0,0,0,0,0,0,0,0,0,0,0,0,0,0,0,0,
0,0,0,0,0,0,7066,0,0,0,0,0,0,0,0,0,
0,0,0,0,0,0,0,0,0,0,0,0,0,0,0,0,
0,0,0,0,0,0,0,0,0,0,0,0,0,0,0,0,
0,0,0,0,0,0,0,0,0,7066,0,0,0,0,0,7066,
0,0,0,0,0,0,0,0,0,0,0,0,0,0,0,0,
0,0,0,0,0,0,0,0,0,0,0,0,0,0,0,0,
0,0,0,0,0,0,0,0,0,0,0,0,0,0,0,0,
0,0,0,0,0,0,0,0,0,0,0,0,0,0,0,0,
0,0,0,0,0,0,0,0,0,0,0,0,0,0,0,0,
0,0,0,0,0,0,0,0,0,0,0,0,0,0,0,0,
0,0,0,0,0,0,0,0,0,0,0,0,0,0,0,0,
0,0,0,0,0,0,0,0,0,0,0,0,0,0,0,0,
0,0,0,0,0,0,0,0,0,0,0,0,0,0,0,0,
0,0,0,0,0,0,0,0,0,0,0,0,0,0,0,0
</chunk>
   <chunk x="16" y="16" width="16" height="16">
0,0,0,0,0,0,0,0,0,0,0,0,0,0,0,0,
0,0,0,0,0,0,0,0,0,0,0,0,0,0,7155,7155,
0,0,0,0,0,0,0,7066,0,0,0,0,0,0,0,7155,
0,0,0,0,0,0,0,0,0,0,0,0,0,0,0,7155,
0,0,0,0,0,0,0,0,0,0,0,0,0,0,0,0,
0,0,0,0,7066,0,0,0,0,0,0,0,0,0,0,0,
0,0,0,0,0,0,0,0,0,0,0,0,0,0,0,0,
0,0,0,0,0,0,0,0,0,0,0,0,0,0,0,0,
0,0,0,0,0,0,0,0,0,0,0,0,0,0,0,0,
0,0,0,0,0,0,0,0,0,0,0,0,0,0,0,0,
0,0,0,0,0,0,0,0,0,0,0,0,0,0,0,0,
0,0,0,0,0,0,0,0,0,0,0,0,0,0,0,0,
0,0,0,0,0,0,0,0,0,0,0,0,210,0,0,0,
0,0,0,0,0,0,0,210,0,0,0,0,135,0,0,0,
0,0,0,0,0,0,0,135,0,0,0,0,135,0,0,0,
0,0,0,0,0,0,0,135,0,0,0,0,135,0,0,0
</chunk>
   <chunk x="32" y="16" width="16" height="16">
0,0,0,0,0,0,0,0,0,0,0,0,0,0,0,0,
7155,7155,0,0,0,0,0,0,0,0,0,0,0,0,0,0,
0,0,0,0,0,0,0,0,0,0,0,0,0,0,0,0,
7155,0,0,0,0,0,0,0,0,0,0,0,0,0,0,0,
0,0,0,0,0,0,0,0,0,0,0,0,0,0,0,0,
0,0,0,0,0,0,0,0,0,0,0,0,0,0,0,0,
0,0,0,0,0,0,0,0,0,0,0,0,0,0,0,0,
0,0,0,0,0,0,0,0,0,0,0,0,0,0,0,0,
0,0,0,0,0,0,0,0,0,0,0,0,0,0,0,0,
0,0,0,0,0,0,0,0,0,0,0,0,0,0,0,0,
0,0,0,0,0,0,0,0,0,0,0,0,0,0,0,0,
0,0,0,0,0,0,0,0,0,0,0,0,0,0,0,0,
0,0,0,0,0,0,0,0,0,0,0,0,0,0,0,0,
0,0,0,0,0,0,0,0,0,0,0,0,0,0,0,0,
0,0,0,0,0,0,0,0,0,0,0,0,0,0,0,0,
0,0,0,0,0,0,0,0,0,0,0,0,0,0,0,0
</chunk>
   <chunk x="0" y="32" width="16" height="16">
0,0,0,0,0,0,0,0,0,0,0,0,0,0,0,0,
0,0,0,0,0,0,0,0,0,0,0,0,0,0,0,0,
0,0,0,0,0,0,0,0,0,0,0,0,0,0,0,0,
0,0,0,0,0,0,0,0,0,0,0,0,0,0,0,0,
0,0,0,0,0,0,0,0,0,0,0,0,0,0,0,0,
0,0,0,0,0,0,0,0,0,0,0,0,0,0,0,0,
0,0,0,0,0,0,0,0,0,0,0,0,0,0,0,0,
0,0,0,0,0,0,0,0,0,0,0,0,0,0,0,0,
0,0,0,0,0,0,0,0,0,0,0,0,0,0,0,0,
0,0,0,0,0,0,0,0,0,0,0,0,0,0,0,0,
0,0,0,0,0,0,0,0,0,0,0,0,0,0,0,0,
0,0,0,0,0,0,0,0,0,0,0,0,0,0,0,0,
0,0,0,0,0,0,0,0,0,0,0,0,0,0,0,0,
0,0,0,0,0,0,0,0,0,0,0,0,0,0,8986,8987,
0,0,0,0,0,0,0,0,0,0,0,0,0,0,8990,8991,
0,0,0,0,0,0,0,0,0,0,0,0,0,0,8994,8995
</chunk>
   <chunk x="16" y="32" width="16" height="16">
0,0,0,0,0,0,0,260,0,0,0,0,260,0,0,0,
0,0,0,0,0,0,0,0,0,0,0,0,0,0,0,0,
0,0,0,0,0,0,0,0,0,0,0,0,0,0,0,0,
0,0,0,0,0,0,0,0,0,0,0,0,0,0,0,0,
0,0,0,0,0,0,0,0,0,0,0,0,0,0,0,0,
0,0,0,0,0,0,0,0,0,0,0,0,0,0,0,0,
0,0,0,0,0,0,0,0,0,0,0,0,0,0,0,0,
0,0,0,0,0,0,0,0,0,0,0,0,0,0,0,0,
0,0,0,0,0,0,0,0,0,0,0,0,0,0,0,0,
0,0,0,0,0,0,0,0,0,0,0,0,0,0,0,0,
0,0,0,0,0,0,0,0,0,0,0,0,0,0,0,0,
0,0,0,0,0,0,0,0,0,0,0,0,0,0,0,0,
0,0,0,0,0,0,0,0,0,0,0,0,0,0,0,0,
8988,8989,0,0,8986,8987,8988,8989,0,0,0,0,0,0,0,0,
8992,8993,0,0,8990,8991,8992,8993,0,0,0,0,0,0,0,0,
8996,8997,0,0,8994,8995,8996,8997,0,0,0,0,0,0,0,0
</chunk>
   <chunk x="0" y="48" width="16" height="16">
0,0,0,0,0,0,0,0,0,0,0,0,0,0,8998,8999,
0,0,0,0,0,0,0,0,0,0,0,0,0,0,0,0,
0,0,0,0,0,0,0,0,0,0,0,0,0,0,0,0,
0,0,0,0,0,0,0,0,0,0,0,0,0,0,0,0,
0,0,0,0,0,0,0,0,0,0,0,0,0,0,0,0,
0,0,0,0,0,0,0,0,0,0,0,0,0,0,0,0,
0,0,0,0,0,0,0,0,0,0,0,0,0,0,0,0,
0,0,0,0,0,0,0,0,0,0,0,0,0,0,0,0,
0,0,0,0,0,0,0,0,0,0,0,0,0,0,0,0,
0,0,0,0,0,0,0,0,0,0,0,0,0,0,0,0,
0,0,0,0,0,0,0,0,0,0,0,0,0,0,0,0,
0,0,0,0,0,0,0,0,0,0,0,0,0,0,0,0,
0,0,0,0,0,0,0,0,0,0,0,0,0,0,0,0,
0,0,0,0,0,0,0,0,0,0,0,0,0,0,0,0,
0,0,0,0,0,0,0,0,0,0,0,0,0,0,0,0,
0,0,0,0,0,0,0,0,0,0,0,0,0,0,0,0
</chunk>
   <chunk x="16" y="48" width="16" height="16">
9000,9001,0,0,8998,8999,9000,9001,0,0,0,0,0,0,0,0,
0,0,0,0,0,0,0,0,0,0,0,0,0,0,0,0,
0,0,0,0,0,0,0,0,0,0,0,0,0,0,0,0,
0,0,0,0,0,0,0,0,0,0,0,0,0,0,0,0,
0,0,0,0,0,0,0,0,0,0,0,0,0,0,0,0,
0,0,0,0,0,0,0,0,0,0,0,0,0,0,0,0,
0,0,0,0,0,0,0,0,0,0,0,0,0,0,0,0,
0,0,0,0,0,0,0,0,0,0,0,0,0,0,0,0,
0,0,0,0,0,0,0,0,0,0,0,0,0,0,0,0,
0,0,0,0,0,0,0,0,0,0,0,0,0,0,0,0,
0,0,0,0,0,0,0,0,0,0,0,0,0,0,0,0,
0,0,0,0,0,0,0,0,0,0,0,0,0,0,0,0,
0,0,0,0,0,0,0,0,0,0,0,0,0,0,0,0,
0,0,0,0,0,0,0,0,0,0,0,0,0,0,0,0,
0,0,0,0,0,0,0,0,0,0,0,0,0,0,0,0,
0,0,0,0,0,0,0,0,0,0,0,0,0,0,0,0
</chunk>
  </data>
 </layer>
 <layer id="7" name="pilares" width="30" height="20">
  <data encoding="csv">
   <chunk x="0" y="0" width="16" height="16">
0,0,0,0,0,0,0,0,0,0,0,0,0,0,0,0,
0,0,0,0,0,0,0,0,0,6810,0,0,0,0,0,6810,
0,0,0,0,0,0,0,0,0,6874,0,0,0,0,0,6874,
0,0,0,0,0,0,0,0,0,6938,0,0,0,0,0,6938,
0,0,0,0,0,0,6810,0,0,7002,0,0,0,0,0,7002,
0,0,0,0,0,0,6874,0,0,0,0,0,0,0,0,0,
0,0,0,0,0,0,6938,0,0,0,0,0,0,0,0,0,
0,0,0,0,0,0,7002,0,0,0,0,0,0,0,0,0,
0,0,0,0,0,0,0,0,0,0,0,0,0,0,0,0,
0,0,0,0,0,0,0,0,0,0,0,0,0,0,0,0,
0,0,0,0,0,0,0,0,0,0,0,0,0,0,0,0,
0,0,0,0,0,0,0,0,0,0,0,0,0,0,0,0,
0,0,0,0,0,0,0,0,0,0,0,0,0,0,0,0,
0,0,0,0,0,0,0,0,0,0,0,0,0,0,0,0,
0,0,0,0,0,0,6810,0,0,0,0,0,0,0,0,0,
0,0,0,0,0,0,6874,0,0,0,0,0,0,0,0,0
</chunk>
   <chunk x="16" y="0" width="16" height="16">
0,0,0,0,0,0,0,0,0,0,0,0,0,0,0,0,
0,0,0,0,6810,0,0,0,0,0,0,0,0,0,0,0,
0,0,0,0,6874,0,0,0,0,0,0,0,0,0,0,0,
0,0,0,0,6938,0,0,0,0,0,0,0,0,0,0,0,
0,0,0,0,7002,0,0,6810,0,0,0,0,0,0,0,0,
0,0,0,0,0,0,0,6874,0,0,0,0,0,0,0,0,
0,0,0,0,0,0,0,6938,0,0,0,0,0,0,0,0,
0,0,0,0,0,0,0,7002,0,0,0,0,0,0,0,0,
0,0,0,0,0,0,0,0,0,0,0,0,0,0,0,0,
0,0,0,0,0,0,0,0,0,0,0,0,0,0,0,0,
0,0,0,0,0,0,0,0,0,0,0,0,0,0,0,0,
0,0,0,0,0,0,0,0,0,0,0,0,0,0,0,0,
0,0,0,0,0,0,0,0,0,0,0,0,0,0,0,0,
0,0,0,0,0,0,0,0,0,0,0,0,0,0,0,0,
0,0,0,0,0,0,0,6810,0,0,0,0,0,0,0,0,
0,0,0,0,0,0,0,6874,0,0,0,0,0,0,0,0
</chunk>
   <chunk x="0" y="16" width="16" height="16">
0,0,0,0,0,0,6938,0,0,0,0,0,0,0,0,0,
0,0,0,0,0,0,7002,0,0,6810,0,0,0,0,0,6810,
0,0,0,0,0,0,0,0,0,6874,0,0,0,0,0,6874,
0,0,0,0,0,0,0,0,0,6938,0,0,0,0,0,6938,
0,0,0,0,0,0,0,0,0,7002,0,0,0,0,0,7002,
0,0,0,0,0,0,0,0,0,0,0,0,0,0,0,0,
0,0,0,0,0,0,0,0,0,0,0,0,0,0,0,0,
0,0,0,0,0,0,0,0,0,0,0,0,0,0,0,0,
0,0,0,0,0,0,0,0,0,0,0,0,0,0,0,0,
0,0,0,0,0,0,0,0,0,0,0,0,0,0,0,0,
0,0,0,0,0,0,0,0,0,0,0,0,0,0,0,0,
0,0,0,0,0,0,0,0,0,0,0,0,0,0,0,0,
0,0,0,0,0,0,0,0,0,0,0,0,0,0,0,0,
0,0,0,0,0,0,0,0,0,0,0,0,0,0,0,0,
0,0,0,0,0,0,0,0,0,0,0,0,0,0,0,0,
0,0,0,0,0,0,0,0,0,0,0,0,0,0,0,0
</chunk>
   <chunk x="16" y="16" width="16" height="16">
0,0,0,0,0,0,0,6938,0,0,0,0,0,0,0,0,
0,0,0,0,6810,0,0,7002,0,0,0,0,0,0,0,0,
0,0,0,0,6874,0,0,0,0,0,0,0,0,0,0,0,
0,0,0,0,6938,0,0,0,0,0,0,0,0,0,0,0,
0,0,0,0,7002,0,0,0,0,0,0,0,0,0,0,0,
0,0,0,0,0,0,0,0,0,0,0,0,0,0,0,0,
0,0,0,0,0,0,0,0,0,0,0,0,0,0,0,0,
0,0,0,0,0,0,0,0,0,0,0,0,0,0,0,0,
0,0,0,0,0,0,0,0,0,0,0,0,0,0,0,0,
0,0,0,0,0,0,0,0,0,0,0,0,0,0,0,0,
0,0,0,0,0,0,0,0,0,0,0,0,0,0,0,0,
0,0,0,0,0,0,0,0,0,0,0,0,0,0,0,0,
0,0,0,0,0,0,0,0,0,0,0,0,0,0,0,0,
0,0,0,0,0,0,0,0,0,0,0,0,0,0,0,0,
0,0,0,0,0,0,0,0,0,0,0,0,0,0,0,0,
0,0,0,0,0,0,0,0,0,0,0,0,0,0,0,0
</chunk>
  </data>
 </layer>
 <layer id="4" name="Coisas no Chão" width="30" height="20">
  <data encoding="csv">
   <chunk x="0" y="-48" width="16" height="16">
0,0,0,0,0,0,0,0,0,0,0,0,0,0,0,0,
0,0,0,0,0,0,0,0,0,0,0,0,0,0,0,0,
0,0,0,0,0,0,0,0,0,0,0,0,0,0,0,0,
0,0,0,0,0,0,0,0,0,0,0,0,0,0,0,0,
0,0,0,0,0,0,0,0,0,0,0,0,0,0,0,0,
0,0,0,0,0,0,0,0,7508,0,0,0,0,0,0,0,
0,0,0,0,0,0,0,0,7572,0,0,0,0,0,0,0,
0,0,0,0,0,0,0,0,7508,0,0,0,0,0,0,0,
0,0,0,0,0,0,0,0,7572,0,0,0,0,0,0,0,
0,0,0,0,0,0,0,0,7508,0,0,0,0,0,0,0,
0,0,0,0,0,0,0,0,7572,0,0,0,0,0,0,0,
0,0,0,0,0,0,0,0,7508,0,0,0,0,0,0,0,
0,0,0,0,0,0,0,0,7572,0,0,0,0,0,0,0,
0,0,0,0,0,0,0,0,7508,0,0,0,0,0,0,0,
0,0,0,0,0,0,0,0,7572,0,0,0,0,0,0,0,
0,0,0,0,0,0,0,0,7508,0,0,0,0,0,0,0
</chunk>
   <chunk x="0" y="-32" width="16" height="16">
0,0,0,0,0,0,0,0,7572,0,0,0,0,0,0,0,
0,0,0,0,0,0,0,0,7508,0,0,0,0,0,0,0,
0,0,0,0,0,0,0,0,7572,0,0,0,0,0,0,0,
0,0,0,0,0,0,0,0,7508,0,0,0,0,0,0,0,
0,0,0,0,0,0,0,0,7572,0,0,0,0,0,0,0,
0,0,0,0,0,0,0,0,7508,0,0,0,0,0,0,0,
0,0,0,0,0,0,0,0,7572,0,0,0,0,0,0,0,
0,0,0,0,0,0,0,0,7508,0,0,0,0,0,0,0,
0,0,0,0,0,0,0,0,7572,0,0,0,0,0,0,0,
0,0,0,0,0,0,0,0,7508,0,0,0,0,0,0,0,
0,0,0,0,0,0,0,0,7572,0,0,0,0,0,0,0,
0,0,0,0,0,0,0,0,7508,0,0,0,0,0,0,0,
0,0,0,0,0,0,0,0,7572,0,0,0,0,0,0,0,
0,0,0,0,0,0,0,0,7508,0,0,0,0,0,0,0,
0,0,0,0,0,0,0,0,7572,0,0,0,0,0,0,0,
0,0,0,0,0,0,0,0,7508,0,0,0,0,0,0,0
</chunk>
   <chunk x="16" y="-32" width="16" height="16">
0,0,0,0,0,0,0,0,0,0,0,0,0,0,0,0,
0,0,0,0,0,0,0,0,0,0,0,0,0,0,0,0,
0,0,0,0,0,0,0,0,0,0,0,0,0,0,0,0,
0,0,0,0,0,0,0,0,0,0,0,0,0,0,0,0,
0,0,0,0,0,0,0,0,0,0,0,0,0,0,0,0,
0,0,0,111,87,113,0,0,0,0,0,0,0,0,0,0,
0,0,0,136,137,138,0,0,0,0,0,0,0,0,0,0,
0,0,0,161,162,163,0,0,0,0,0,0,0,0,0,0,
0,0,0,0,0,0,0,0,0,0,0,0,0,0,0,0,
0,0,0,0,0,0,0,0,0,0,0,0,0,0,0,0,
0,0,0,0,0,0,0,0,0,0,0,0,0,0,0,0,
0,0,0,0,0,0,0,0,0,0,0,0,0,0,0,0,
0,0,0,0,0,0,0,0,0,0,0,0,0,0,0,0,
0,0,0,0,0,0,0,0,0,0,0,0,0,0,0,0,
0,0,0,0,0,0,0,0,0,0,0,0,0,0,0,0,
0,0,0,0,0,0,0,0,0,0,0,0,0,0,0,0
</chunk>
   <chunk x="0" y="-16" width="16" height="16">
0,0,0,0,0,0,0,0,7572,0,0,0,0,0,0,0,
0,0,0,0,0,0,0,0,7508,0,0,0,0,0,0,0,
0,0,0,0,0,0,0,0,7572,0,0,0,0,0,0,0,
0,0,0,0,0,0,0,0,7508,0,0,0,0,0,0,0,
0,0,0,0,0,0,0,0,7572,0,0,0,0,0,0,0,
0,0,0,0,0,0,0,0,7508,0,0,0,0,0,0,0,
0,0,0,0,0,0,0,0,7572,0,0,0,0,0,0,0,
0,0,0,0,0,0,0,0,7508,0,0,0,0,0,0,0,
0,0,0,0,0,0,0,0,7572,0,0,0,0,0,0,0,
0,0,0,0,0,0,0,0,7508,0,0,0,0,0,0,0,
0,0,0,0,0,0,0,0,7572,0,0,0,0,0,0,0,
0,0,0,0,0,0,0,0,7508,0,0,0,0,0,0,0,
0,0,0,0,0,0,0,0,7572,0,0,0,0,0,0,0,
0,0,0,0,0,0,0,0,7508,0,0,0,0,0,0,0,
0,0,0,0,0,0,0,0,7572,0,0,0,0,0,0,0,
0,0,0,0,0,0,0,0,0,0,0,0,0,0,0,0
</chunk>
   <chunk x="0" y="16" width="16" height="16">
0,0,0,0,0,0,0,0,0,0,0,0,0,0,0,0,
0,0,0,0,0,0,0,0,0,0,0,0,0,0,0,0,
0,0,0,0,0,0,0,0,0,0,0,0,0,0,0,0,
0,0,0,0,0,0,0,0,0,0,0,0,0,0,0,0,
0,0,0,0,0,0,0,0,0,0,0,0,0,0,0,0,
0,0,0,0,0,0,0,0,0,0,0,0,0,0,0,0,
0,0,0,0,0,0,0,0,0,0,0,0,0,0,0,0,
0,0,0,0,0,0,0,0,0,0,0,0,0,0,0,0,
0,0,0,0,0,0,0,0,0,0,0,0,0,0,0,0,
0,0,0,0,0,0,0,0,0,0,0,0,0,0,0,0,
0,0,0,0,0,0,0,0,0,0,0,0,0,0,0,0,
0,0,0,0,0,0,0,0,0,0,0,0,0,0,0,0,
0,0,0,0,0,0,0,0,7508,0,0,0,0,0,0,0,
0,0,0,0,0,0,0,0,7572,0,0,0,0,0,0,0,
0,0,0,0,0,0,0,0,7508,0,0,0,0,0,0,0,
0,0,0,0,0,0,0,0,7572,0,0,0,0,0,0,0
</chunk>
   <chunk x="0" y="32" width="16" height="16">
0,0,0,0,0,0,0,0,7508,0,0,0,0,0,0,0,
0,0,0,0,0,0,0,0,7572,0,0,0,0,0,0,0,
0,0,0,0,0,0,0,0,7508,0,0,0,0,0,0,0,
0,0,0,0,0,0,0,0,7572,0,0,0,0,0,0,0,
0,0,0,0,0,0,0,0,7508,0,0,0,0,0,0,0,
0,0,0,0,0,0,0,0,7572,0,0,0,0,0,0,0,
0,0,0,0,0,0,0,0,7508,0,0,0,0,0,0,0,
0,0,0,0,0,0,0,0,7572,0,0,0,0,0,0,0,
0,0,0,0,0,0,0,0,7508,0,0,0,0,0,0,0,
0,0,0,0,0,0,0,0,7572,0,0,0,0,0,0,0,
0,0,0,0,0,0,0,0,7508,0,0,0,0,0,0,0,
0,0,0,0,0,0,0,0,7572,0,0,0,0,0,0,0,
0,0,0,0,0,0,0,0,7508,0,0,0,0,0,0,0,
0,0,0,0,0,0,0,0,7572,0,0,0,0,0,0,0,
0,0,0,0,0,0,0,0,7508,0,0,0,0,0,0,0,
0,0,0,0,0,0,0,0,7572,0,0,0,0,0,0,0
</chunk>
   <chunk x="0" y="48" width="16" height="16">
0,0,0,0,0,0,0,0,7508,0,0,0,0,0,0,0,
0,0,0,0,0,0,0,0,7572,0,0,0,0,0,0,0,
0,0,0,0,0,0,0,0,289,0,0,0,0,0,0,0,
0,0,0,0,0,0,0,0,289,0,0,0,0,0,0,0,
0,0,0,0,0,0,0,0,7508,0,0,0,0,0,0,0,
0,0,0,0,0,0,0,0,7572,0,0,0,0,0,0,0,
0,0,0,0,0,0,0,0,7508,0,0,0,0,0,0,0,
0,0,0,0,0,0,0,0,7572,0,0,0,0,0,0,0,
0,0,0,0,0,0,0,0,7508,0,0,0,0,0,0,0,
0,0,0,0,0,0,0,0,7572,0,0,0,0,0,0,0,
0,0,0,0,0,0,0,0,7508,0,0,0,0,0,0,0,
0,0,0,0,0,0,0,0,7572,0,0,0,0,0,0,0,
0,0,0,0,0,0,0,0,7508,0,0,0,0,0,0,0,
0,0,0,0,0,0,0,0,7572,0,0,0,0,0,0,0,
0,0,0,0,0,0,0,0,7508,0,0,0,0,0,0,0,
0,0,0,0,0,0,0,0,7572,0,0,0,0,0,0,0
</chunk>
   <chunk x="16" y="48" width="16" height="16">
0,1117,1118,1119,0,0,0,0,0,0,0,0,0,0,0,0,
0,0,0,0,0,0,0,0,0,0,0,0,0,0,0,0,
0,0,0,0,0,0,0,0,0,0,0,0,0,0,0,0,
0,0,0,0,0,0,0,0,0,0,0,0,0,0,0,0,
0,0,0,0,0,0,0,0,0,0,0,0,0,0,0,0,
0,0,0,0,0,0,0,0,0,0,0,0,0,0,0,0,
0,0,0,0,0,0,0,0,0,0,0,0,0,0,0,0,
0,0,0,0,0,0,0,0,0,0,0,0,0,0,0,0,
0,0,0,0,0,0,0,0,0,0,0,0,0,0,0,0,
0,0,0,0,0,0,0,0,0,0,0,0,0,0,0,0,
0,0,0,0,0,0,0,0,0,0,0,0,0,0,0,0,
0,0,0,0,0,0,0,0,0,0,0,0,0,0,0,0,
0,0,0,0,0,0,0,0,0,0,0,0,0,0,0,0,
0,0,0,0,0,0,0,0,0,0,0,0,0,0,0,0,
0,0,0,0,0,0,0,0,0,0,0,0,0,0,0,0,
0,0,0,0,0,0,0,0,0,0,0,0,0,0,0,0
</chunk>
   <chunk x="0" y="64" width="16" height="16">
0,0,0,0,0,0,0,0,7508,0,0,0,0,0,0,0,
0,0,0,0,0,0,0,0,7572,0,0,0,0,0,0,0,
0,0,0,0,0,0,0,0,7508,0,0,0,0,0,0,0,
0,0,0,0,0,0,0,0,7572,0,0,0,0,0,0,0,
0,0,0,0,0,0,0,0,7508,0,0,0,0,0,0,0,
0,0,0,0,0,0,0,0,7572,0,0,0,0,0,0,0,
0,0,0,0,0,0,0,0,0,0,0,0,0,0,0,0,
0,0,0,0,0,0,0,0,0,0,0,0,0,0,0,0,
0,0,0,0,0,0,0,0,0,0,0,0,0,0,0,0,
0,0,0,0,0,0,0,0,0,0,0,0,0,0,0,0,
0,0,0,0,0,0,0,0,0,0,0,0,0,0,0,0,
0,0,0,0,0,0,0,0,0,0,0,0,0,0,0,0,
0,0,0,0,0,0,0,0,0,0,0,0,0,0,0,0,
0,0,0,0,0,0,0,0,0,0,0,0,0,0,0,0,
0,0,0,0,0,0,0,0,0,0,0,0,0,0,0,0,
0,0,0,0,0,0,0,0,0,0,0,0,0,0,0,0
</chunk>
  </data>
 </layer>
 <layer id="8" name="MESAS" width="30" height="20">
  <data encoding="csv">
   <chunk x="-32" y="-16" width="16" height="16">
0,0,0,0,0,0,0,0,0,0,0,0,0,0,0,0,
0,0,0,0,0,0,0,0,0,0,0,0,0,0,0,0,
0,0,0,0,0,0,0,0,0,0,0,0,0,0,0,0,
0,0,0,0,0,0,0,0,0,0,0,0,0,0,0,0,
0,0,0,0,0,0,0,0,0,0,0,0,0,0,0,0,
0,0,0,0,0,0,0,0,0,0,0,0,0,0,0,0,
0,0,0,0,0,0,0,0,0,0,0,0,0,0,0,0,
0,0,0,0,0,0,0,0,0,0,0,0,0,5274,5279,5274,
0,0,0,0,0,0,0,0,0,0,0,0,0,0,0,0,
0,0,0,0,0,0,0,0,0,0,0,0,0,0,0,0,
0,0,0,0,0,0,0,0,0,0,0,0,0,0,0,0,
0,0,0,0,0,0,0,0,0,0,0,0,0,0,0,0,
0,0,0,0,0,0,0,0,0,0,0,0,0,0,0,0,
0,0,0,0,0,0,0,0,0,0,0,0,0,0,0,0,
0,0,0,0,0,0,0,0,0,0,0,0,0,0,0,0,
0,0,0,0,0,0,0,0,0,0,0,0,0,0,0,0
</chunk>
   <chunk x="-16" y="-16" width="16" height="16">
0,0,0,0,0,0,0,0,0,0,0,0,0,0,0,0,
0,0,0,0,0,0,0,0,0,0,0,0,0,0,0,0,
0,0,0,0,0,0,0,0,0,0,0,0,0,0,0,0,
0,0,0,0,0,0,0,0,0,0,0,0,0,0,0,0,
0,0,0,0,0,0,0,0,0,0,0,0,0,0,0,0,
0,0,0,0,0,0,0,0,0,0,0,0,0,0,0,0,
0,0,0,0,0,0,0,0,0,0,0,0,0,0,0,0,
5279,5274,5279,5274,5279,5274,5279,5274,5279,0,0,0,0,0,0,0,
0,0,0,0,0,0,0,0,0,0,0,0,0,0,0,0,
0,0,0,0,0,0,0,0,0,0,0,0,0,0,0,0,
0,0,0,0,0,0,0,0,0,0,0,0,0,0,0,0,
0,0,0,0,0,0,0,0,0,0,0,0,0,0,0,0,
0,0,0,0,0,0,0,0,0,0,0,0,0,0,0,0,
0,0,0,0,0,0,0,0,0,0,0,0,0,0,0,0,
0,0,0,0,0,0,0,0,0,0,0,0,0,0,0,0,
0,0,0,0,0,0,0,0,0,0,0,0,0,0,0,0
</chunk>
   <chunk x="0" y="0" width="16" height="16">
0,0,0,0,0,0,0,0,0,0,0,0,0,0,0,0,
0,0,0,0,0,0,0,0,0,0,0,0,0,0,0,0,
0,0,0,0,0,0,0,0,0,0,0,0,0,0,0,0,
0,0,0,0,0,0,0,0,0,0,0,0,0,0,0,0,
0,0,0,0,0,0,0,0,0,0,0,0,0,0,0,0,
0,0,0,0,0,0,0,0,0,0,0,0,0,0,0,0,
0,0,0,0,0,0,0,0,0,0,0,0,0,0,0,8930,
0,0,0,0,0,0,0,0,0,0,0,0,0,0,0,8938,
0,0,0,0,0,0,0,0,0,0,0,0,0,0,0,8946,
0,0,0,0,0,0,0,0,0,0,0,0,0,0,0,8954,
0,0,0,0,0,0,0,0,0,0,0,0,0,0,0,8962,
0,0,0,0,0,0,0,0,0,0,0,0,0,0,0,8970,
0,0,0,0,0,0,0,0,0,0,0,0,0,0,0,0,
0,0,0,0,0,0,0,0,0,0,0,0,0,0,0,0,
0,0,0,0,0,0,0,0,8930,8931,8932,8933,8934,8935,8936,8937,
0,0,0,0,0,0,0,0,8938,8939,8940,8941,8942,8943,8944,8945
</chunk>
   <chunk x="16" y="0" width="16" height="16">
0,0,0,0,0,0,0,0,0,0,0,0,0,0,0,0,
0,0,0,0,0,0,0,0,0,0,0,0,0,0,0,0,
0,0,0,0,0,0,0,0,0,0,0,0,0,0,0,0,
0,0,0,0,0,0,0,0,0,0,0,0,0,0,0,0,
0,0,0,0,0,0,0,0,0,0,0,0,0,0,0,0,
0,0,0,0,0,0,0,0,0,0,0,0,0,0,0,0,
8931,8932,8933,8934,8935,8936,8937,0,0,0,1140,1140,1140,1140,1143,989,
8939,8940,8941,8942,8943,8944,8945,0,0,0,1172,1172,1172,1172,1175,989,
8947,8948,8949,8950,8951,8952,8953,0,0,0,0,0,0,0,0,0,
8955,8956,8957,8958,8959,8960,8961,0,0,0,0,0,0,0,0,0,
8963,8964,8965,8966,8967,8968,8969,0,0,0,0,0,0,0,0,0,
8971,8972,8973,8974,8975,8976,8977,0,0,0,0,0,0,0,0,0,
0,0,0,0,0,0,0,0,0,0,0,0,0,0,0,0,
0,0,0,0,0,0,0,0,0,0,0,0,0,0,0,0,
0,0,0,0,0,0,0,0,0,0,0,0,0,0,0,0,
0,0,0,0,0,0,0,0,0,0,0,0,0,0,0,0
</chunk>
   <chunk x="-16" y="16" width="16" height="16">
0,0,0,0,0,0,0,0,0,0,0,0,0,0,0,0,
0,0,0,0,0,0,0,0,0,0,0,0,5274,5279,0,0,
0,0,0,0,0,0,0,0,0,0,0,0,0,0,0,0,
0,0,0,0,0,0,0,0,0,0,0,0,0,0,0,0,
0,0,0,0,0,0,0,0,0,0,0,0,0,0,0,0,
0,0,0,0,0,0,0,0,0,0,0,0,0,0,0,0,
0,0,0,0,0,0,0,0,0,0,0,0,0,0,0,0,
0,0,0,0,0,0,0,0,0,0,0,0,0,0,0,0,
0,0,0,0,0,0,0,0,0,0,0,0,0,0,0,0,
0,0,0,0,0,0,0,0,0,0,0,0,0,0,0,0,
0,0,0,0,0,0,0,0,0,0,0,0,0,0,0,0,
0,0,0,0,0,0,0,0,0,0,0,0,0,0,0,0,
0,0,0,0,0,0,0,0,0,0,0,0,0,0,0,0,
0,0,0,0,0,0,0,0,0,0,0,0,0,0,0,0,
0,0,0,0,0,0,0,0,0,0,0,0,0,0,0,0,
0,0,0,0,0,0,0,0,0,0,0,0,0,0,0,0
</chunk>
   <chunk x="0" y="16" width="16" height="16">
0,0,0,0,0,0,0,0,8946,8947,8948,8949,8950,8951,8952,8953,
0,0,0,0,0,0,0,0,8954,8955,8956,8957,8958,8959,8960,8961,
0,0,0,0,0,0,0,0,8962,8963,8964,8965,8966,8967,8968,8969,
0,0,0,0,0,0,0,0,8970,8971,8972,8973,8974,8975,8976,8977,
0,0,0,0,0,0,0,0,0,0,0,0,0,0,0,0,
0,0,0,0,0,0,0,0,0,0,0,0,0,0,0,0,
0,0,0,0,0,0,0,0,0,0,0,0,0,0,0,0,
0,0,0,0,0,0,0,0,0,0,0,0,0,0,0,0,
0,0,0,0,0,0,0,0,0,0,0,0,0,0,0,0,
0,0,0,0,0,0,0,0,0,0,0,0,0,0,0,0,
0,0,0,0,0,0,0,0,0,0,0,0,0,0,0,0,
0,0,0,0,0,0,0,0,0,0,0,0,0,0,0,0,
0,0,0,0,0,0,0,0,0,0,0,0,0,0,0,0,
0,0,0,0,0,0,0,0,0,0,0,0,0,0,0,0,
0,0,0,0,0,0,0,0,0,0,0,0,0,0,0,0,
0,0,0,0,0,0,0,0,0,0,0,0,0,0,0,0
</chunk>
   <chunk x="-32" y="32" width="16" height="16">
0,0,0,0,0,0,0,0,0,0,0,0,0,5149,5149,5149,
0,0,0,0,0,0,0,0,0,0,0,4924,4924,5274,5279,5274,
0,0,0,0,0,0,0,0,0,0,0,0,0,0,0,0,
0,0,0,0,0,0,0,0,0,0,0,0,0,0,0,0,
0,0,0,0,0,0,0,0,0,0,0,0,0,0,0,0,
0,0,0,0,0,0,0,0,0,0,0,0,0,0,0,0,
0,0,0,0,0,0,0,0,0,0,0,0,0,0,0,0,
0,0,0,0,0,0,0,0,0,0,0,0,0,0,0,0,
0,0,0,0,0,0,0,0,0,0,0,0,0,0,0,0,
0,0,0,0,0,0,0,0,0,0,0,0,0,0,0,0,
0,0,0,0,0,0,0,0,0,0,0,0,0,0,0,0,
0,0,0,0,0,0,0,0,0,0,0,0,0,0,0,0,
0,0,0,0,0,0,0,0,0,0,0,0,0,0,0,0,
0,0,0,0,0,0,0,0,0,0,0,0,0,0,0,0,
0,0,0,0,0,0,0,0,0,0,0,0,0,0,0,0,
0,0,0,0,0,0,0,0,0,0,0,0,0,0,0,0
</chunk>
   <chunk x="-16" y="32" width="16" height="16">
5149,5149,5149,5149,5149,5149,5149,5149,5149,5149,0,0,0,0,0,0,
5279,5274,5279,5274,5279,5274,5279,5274,5279,0,0,0,0,0,0,0,
0,0,0,0,0,0,0,0,0,0,0,0,0,0,0,0,
0,0,0,0,0,0,0,0,0,0,0,0,0,0,0,0,
0,0,0,0,0,0,0,0,0,0,0,0,0,0,0,0,
0,0,0,0,0,0,0,0,0,0,0,0,0,0,0,0,
0,0,0,0,0,0,0,0,0,0,0,0,0,0,0,0,
0,0,0,0,0,0,0,0,0,0,0,0,0,0,0,0,
0,0,0,0,0,0,0,0,0,0,0,0,0,0,0,0,
0,0,0,0,0,0,0,0,0,0,0,0,0,0,0,0,
0,0,0,0,0,0,0,0,0,0,0,0,0,0,0,0,
0,0,0,0,0,0,0,0,0,0,0,0,0,0,0,0,
0,0,0,0,0,0,0,0,0,0,0,0,0,0,0,0,
0,0,0,0,0,0,0,0,0,0,0,0,0,0,0,0,
0,0,0,0,0,0,0,0,0,0,0,0,0,0,0,0,
0,0,0,0,0,0,0,0,0,0,0,0,0,0,0,0
</chunk>
   <chunk x="16" y="32" width="16" height="16">
0,0,0,0,0,0,0,0,0,0,0,0,0,0,0,0,
0,0,0,0,0,0,0,0,0,0,0,0,0,0,0,0,
0,0,0,0,0,0,0,0,0,0,0,0,0,0,0,0,
0,0,0,0,0,0,0,0,0,0,0,0,0,0,0,0,
0,0,0,0,0,0,0,0,0,0,0,0,0,0,0,0,
0,0,0,0,0,0,0,0,0,0,0,0,0,0,0,0,
0,0,0,0,0,0,0,0,0,0,0,0,0,0,0,0,
0,0,0,0,0,0,0,0,0,0,0,0,0,0,0,0,
0,0,0,0,0,0,0,0,0,0,0,0,0,0,0,0,
0,0,0,0,0,0,0,0,0,0,0,0,0,0,0,0,
0,0,0,0,0,0,0,0,0,0,0,0,0,0,0,0,
0,0,0,0,0,0,0,0,0,0,0,0,0,0,0,0,
0,0,0,0,0,0,0,0,0,0,0,0,0,0,0,0,
0,0,0,0,0,0,0,0,0,0,0,0,0,0,0,0,
0,1053,1054,1055,0,0,0,0,0,0,0,0,0,0,0,0,
0,1085,1086,1087,0,0,0,0,0,0,0,0,0,0,0,0
</chunk>
   <chunk x="16" y="48" width="16" height="16">
0,988,988,988,0,0,0,0,0,0,0,0,0,0,0,0,
0,988,988,0,0,0,0,0,0,0,0,0,0,0,0,0,
0,0,0,0,0,0,0,0,0,0,0,0,0,0,0,0,
0,0,0,0,0,0,0,0,0,0,0,0,0,0,0,0,
0,0,0,0,0,0,0,0,0,0,0,0,0,0,0,0,
0,0,0,0,0,0,0,0,0,0,0,0,0,0,0,0,
0,0,0,0,0,0,0,0,0,0,0,0,0,0,0,0,
0,0,0,0,0,0,0,0,0,0,0,0,0,0,0,0,
0,0,0,0,0,0,0,0,0,0,0,0,0,0,0,0,
0,0,0,0,0,0,0,0,0,0,0,0,0,0,0,0,
0,0,0,0,0,0,0,0,0,0,0,0,0,0,0,0,
0,0,0,0,0,0,0,0,0,0,0,0,0,0,0,0,
0,0,0,0,0,0,0,0,0,0,0,0,0,0,0,0,
0,0,0,0,0,0,0,0,0,0,0,0,0,0,0,0,
0,0,0,0,0,0,0,0,0,0,0,0,0,0,0,0,
0,0,0,0,0,0,0,0,0,0,0,0,0,0,0,0
</chunk>
  </data>
 </layer>
 <layer id="6" name="PORTAS" width="30" height="20">
  <data encoding="csv">
   <chunk x="-16" y="-16" width="16" height="16">
0,0,0,0,0,0,0,0,0,0,0,0,0,0,0,0,
0,0,0,0,0,0,0,0,0,0,0,0,0,0,0,0,
0,0,0,0,0,0,0,0,0,0,0,0,0,0,0,0,
0,0,0,0,0,0,0,0,0,0,0,0,0,0,0,0,
0,0,0,0,0,0,0,0,0,0,0,0,0,0,0,0,
0,0,0,0,0,0,0,0,0,0,0,0,0,0,0,0,
0,0,0,0,0,0,0,0,0,0,0,0,0,0,0,0,
0,0,0,0,0,0,0,0,0,0,0,0,0,0,0,0,
0,0,0,0,0,0,0,0,0,0,0,0,0,0,0,0,
0,0,0,0,0,0,0,0,0,0,0,0,0,0,0,0,
0,0,0,0,0,0,0,0,0,0,0,0,0,0,0,0,
0,0,0,0,0,0,0,0,0,0,0,0,0,0,0,0,
0,0,0,0,0,0,0,0,0,0,0,6725,6727,6728,6729,0,
0,0,0,0,0,0,0,0,0,0,0,6789,0,0,6793,0,
0,0,0,0,0,0,0,0,0,0,0,6981,0,0,6981,0,
0,0,0,0,0,0,0,0,0,0,0,7045,0,0,7045,0
</chunk>
   <chunk x="16" y="16" width="16" height="16">
0,0,0,0,0,0,0,0,0,0,0,0,0,0,0,0,
0,0,0,0,0,0,0,0,0,0,0,0,0,0,6725,6727,
0,0,0,0,0,0,0,0,0,0,0,0,0,0,6789,7155,
0,0,0,0,0,0,0,0,0,0,0,0,0,0,6981,7155,
0,0,0,0,0,0,0,0,0,0,0,0,0,0,6917,0,
0,0,0,0,0,0,0,0,0,0,0,0,0,0,7045,0,
0,0,0,0,0,0,0,0,0,0,0,0,0,0,7282,7282,
0,0,0,0,0,0,0,0,0,0,0,0,0,0,0,0,
0,0,0,0,0,0,0,0,0,0,0,0,0,0,0,0,
0,0,0,0,0,0,0,0,0,0,0,0,0,0,0,0,
0,0,0,0,0,0,0,0,0,0,0,0,0,0,0,0,
0,0,0,0,0,0,0,0,0,0,0,0,0,0,0,0,
0,0,0,0,0,0,0,0,0,0,0,0,0,0,0,0,
0,0,0,0,0,0,0,0,0,0,0,0,0,0,0,0,
0,0,0,0,0,0,0,0,0,0,0,0,0,0,0,0,
0,0,0,0,0,0,0,0,0,0,0,0,0,0,0,0
</chunk>
   <chunk x="32" y="16" width="16" height="16">
0,0,0,0,0,0,0,0,0,0,0,0,0,0,0,0,
6728,6729,0,0,0,0,0,0,0,0,0,0,0,0,0,0,
7155,6793,0,0,0,0,0,0,0,0,0,0,0,0,0,0,
7155,6981,0,0,0,0,0,0,0,0,0,0,0,0,0,0,
0,6917,0,0,0,0,0,0,0,0,0,0,0,0,0,0,
0,7045,0,0,0,0,0,0,0,0,0,0,0,0,0,0,
7282,7282,7282,0,0,0,0,0,0,0,0,0,0,0,0,0,
0,0,0,0,0,0,0,0,0,0,0,0,0,0,0,0,
0,0,0,0,0,0,0,0,0,0,0,0,0,0,0,0,
0,0,0,0,0,0,0,0,0,0,0,0,0,0,0,0,
0,0,0,0,0,0,0,0,0,0,0,0,0,0,0,0,
0,0,0,0,0,0,0,0,0,0,0,0,0,0,0,0,
0,0,0,0,0,0,0,0,0,0,0,0,0,0,0,0,
0,0,0,0,0,0,0,0,0,0,0,0,0,0,0,0,
0,0,0,0,0,0,0,0,0,0,0,0,0,0,0,0,
0,0,0,0,0,0,0,0,0,0,0,0,0,0,0,0
</chunk>
  </data>
 </layer>
</map>
